wzm1112/deeplearning/datasets/es[17]-vs[12]-random-train.csv
Q,r1,r2,r3,r4,r5,r6,r7,r8,r9,r10,r11,r12,r13,r14,r15,r16,r17,r'1,r'2,r'3,r'4,r'5,r'6,r'7,r'8,r'9,r'10,r'11,r'12,r'13,r'14,r'15,r'16,r'17,q1,q2,q3,q4,q5,q6,q7,q8,q9,q10,q11,q12,q13,q14,q15,q16,q17,q'1,q'2,q'3,q'4,q'5,q'6,q'7,q'8,q'9,q'10,q'11,q'12,q'13,q'14,q'15,q'16,q'17,deltaq1,deltaq2,deltaq3,deltaq4,deltaq5,deltaq6,deltaq7,deltaq8,deltaq9,deltaq10,deltaq11,deltaq12,deltaq13,deltaq14,deltaq15,deltaq16,deltaq17,p9,p11,p5,p8,p1,p12,p3,p4,p6,p7,p2,p10,p'9,p'11,p'5,p'8,p'1,p'12,p'3,p'4,p'6,p'7,p'2,p'10,deltap9,deltap11,deltap5,deltap8,deltap1,deltap12,deltap3,deltap4,deltap6,deltap7,deltap2,deltap10,h1,h2,h3,h4,h5,h6,h7,h8,h9,h10,h11,h12,h13,h14,h15,h16,h17,h'1,h'2,h'3,h'4,h'5,h'6,h'7,h'8,h'9,h'10,h'11,h'12,h'13,h'14,h'15,h'16,h'17,deltah1,deltah2,deltah3,deltah4,deltah5,deltah6,deltah7,deltah8,deltah9,deltah10,deltah11,deltah12,deltah13,deltah14,deltah15,deltah16,deltah17,r0,delta_r0,ei
122.458417,0.080000,0.140000,0.200000,0.650000,50.000000,1.020000,1.000000,1.000000,1.200000,0.300000,0.320000,0.330000,0.300000,0.800000,0.120000,0.340000,0.130000,0.080000,1.027080,0.200000,0.650000,50.000000,1.020000,1.000000,1.000000,1.200000,0.300000,0.320000,0.330000,0.300000,0.800000,0.120000,0.340000,0.130000,81.598771,41.457164,47.560767,20.419605,4.506526,34.038004,27.141162,24.926132,36.950637,4.717402,31.858564,22.629926,2.296205,29.320602,54.488490,39.246843,123.055935,89.009816,33.448601,52.464462,23.775008,2.837662,36.545353,28.689455,26.612670,30.610939,5.919717,34.609171,19.898418,6.714252,30.625637,54.507589,37.325191,122.458417,7.411045,-8.008562,4.903695,3.355403,-1.668864,2.507349,1.548292,1.686538,-6.339698,1.202315,2.750608,-2.731509,4.418047,1.305034,0.019099,-1.921651,-0.597518,-1877.368559,-2402.743990,-240.617499,-2046.366035,0.000000,-0.056762,-985.074076,-1256.056525,-1714.426186,-1721.716761,-532.668758,-1879.037010,-2259.956878,-2747.219674,-1149.106385,-2390.619396,0.000000,-0.056785,-1184.323749,-1551.722677,-1996.093895,-2007.408553,-633.819785,-2273.541902,-382.588319,-344.475684,-908.488886,-344.253361,0.000000,-0.000023,-199.249674,-295.666153,-281.667709,-285.691791,-101.151027,-394.504892,532.668758,240.617499,452.405318,271.024178,1015.439026,1181.757428,736.642685,621.312034,1638.419511,6.676163,324.789787,168.997476,1.581768,687.758181,356.279465,523.706980,1968.559207,633.819785,1149.106385,550.503964,367.413150,402.616292,1362.274110,823.084803,708.234201,1124.435517,10.512914,383.294318,130.662518,13.524355,750.343692,356.529271,473.677772,1949.488308,101.151027,908.488886,98.098647,96.388973,-612.822733,180.516682,86.442118,86.922166,-513.983994,3.836751,58.504531,-38.334958,11.942588,62.585510,0.249806,-50.029208,-19.070899,0.140000,0.887080,2.000000
121.216916,0.080000,0.140000,0.200000,0.650000,50.000000,1.020000,1.000000,1.000000,1.200000,0.300000,0.320000,0.330000,0.300000,0.800000,0.120000,0.340000,0.130000,0.080000,7.831966,0.200000,0.650000,50.000000,1.020000,1.000000,1.000000,1.200000,0.300000,0.320000,0.330000,0.300000,0.800000,0.120000,0.340000,0.130000,81.598771,41.457164,47.560767,20.419605,4.506526,34.038004,27.141162,24.926132,36.950637,4.717402,31.858564,22.629926,2.296205,29.320602,54.488490,39.246843,123.055935,103.141256,18.075660,61.972728,30.667454,-2.563839,41.168528,31.305273,28.103615,20.639499,8.108663,39.413937,15.168891,12.934725,33.059865,54.582827,33.574223,121.216916,21.542485,-23.381504,14.411961,10.247849,-7.070365,7.130524,4.164111,3.177484,-16.311139,3.391262,7.555373,-7.461035,10.638519,3.739262,0.094337,-5.672619,-1.839019,-1877.368559,-2402.743990,-240.617499,-2046.366035,0.000000,-0.056762,-985.074076,-1256.056525,-1714.426186,-1721.716761,-532.668758,-1879.037010,-3020.083848,-3453.378529,-2558.934158,-3096.015280,0.000000,0.373896,-1619.173293,-2230.270647,-2579.794143,-2599.193440,-851.049493,-3070.120848,-1142.715289,-1050.634539,-2318.316660,-1049.649245,0.000000,0.430658,-634.099217,-974.214122,-865.367957,-877.476679,-318.380735,-1191.083838,532.668758,240.617499,452.405318,271.024178,1015.439026,1181.757428,736.642685,621.312034,1638.419511,6.676163,324.789787,168.997476,1.581768,687.758181,356.279465,523.706980,1968.559207,851.049493,2558.934158,768.123800,611.320294,-328.663511,1728.744651,980.020147,789.813201,511.186690,19.725125,497.106687,75.931432,50.192130,874.363732,357.514206,383.257681,1910.160283,318.380735,2318.316660,315.718482,340.296116,-1344.102537,546.987222,243.377462,168.501166,-1127.232821,13.048962,172.316901,-93.066044,48.610363,186.605550,1.234741,-140.449299,-58.398924,0.140000,7.691966,2.000000
121.958536,0.080000,0.140000,0.200000,0.650000,50.000000,1.020000,1.000000,1.000000,1.200000,0.300000,0.320000,0.330000,0.300000,0.800000,0.120000,0.340000,0.130000,0.080000,2.425382,0.200000,0.650000,50.000000,1.020000,1.000000,1.000000,1.200000,0.300000,0.320000,0.330000,0.300000,0.800000,0.120000,0.340000,0.130000,81.598771,41.457164,47.560767,20.419605,4.506526,34.038004,27.141162,24.926132,36.950637,4.717402,31.858564,22.629926,2.296205,29.320602,54.488490,39.246843,123.055935,94.899167,27.059369,56.401788,26.580676,0.891585,38.497380,29.821111,27.472261,26.167784,6.847333,36.668444,17.876643,9.595618,31.650047,54.545087,35.763403,121.958536,13.300396,-14.397795,8.841020,6.161071,-3.614942,4.459376,2.679949,2.546130,-10.782853,2.129932,4.809881,-4.753284,7.299413,2.329444,0.056597,-3.483440,-1.097398,-1877.368559,-2402.743990,-240.617499,-2046.366035,0.000000,-0.056762,-985.074076,-1256.056525,-1714.426186,-1721.716761,-532.668758,-1879.037010,-2570.358893,-3032.458219,-1775.887577,-2675.818430,0.000000,0.692944,-1356.700484,-1815.633761,-2232.157378,-2245.999163,-720.468157,-2597.591092,-692.990334,-629.714230,-1535.270078,-629.452395,0.000000,0.749706,-371.626408,-559.577236,-517.731191,-524.282401,-187.799399,-718.554082,532.668758,240.617499,452.405318,271.024178,1015.439026,1181.757428,736.642685,621.312034,1638.419511,6.676163,324.789787,168.997476,1.581768,687.758181,356.279465,523.706980,1968.559207,720.468157,1775.887577,636.232327,459.246026,39.746184,1511.689221,889.298679,754.725132,821.703515,14.065791,430.263942,105.459538,27.622768,801.380364,357.019985,434.867127,1933.605000,187.799399,1535.270078,183.827009,188.221849,-975.692842,329.931792,152.655993,133.413098,-816.715996,7.389628,105.474155,-63.537938,26.041000,113.622183,0.740519,-88.839853,-34.954207,0.140000,2.285382,2.000000
121.371264,0.080000,0.140000,0.200000,0.650000,50.000000,1.020000,1.000000,1.000000,1.200000,0.300000,0.320000,0.330000,0.300000,0.800000,0.120000,0.340000,0.130000,0.080000,6.110007,0.200000,0.650000,50.000000,1.020000,1.000000,1.000000,1.200000,0.300000,0.320000,0.330000,0.300000,0.800000,0.120000,0.340000,0.130000,81.598771,41.457164,47.560767,20.419605,4.506526,34.038004,27.141162,24.926132,36.950637,4.717402,31.858564,22.629926,2.296205,29.320602,54.488490,39.246843,123.055935,101.585575,19.785689,60.961164,30.004069,-2.183360,40.624411,30.957095,27.820709,21.969049,7.872169,38.829264,15.719214,12.101495,32.752242,54.548478,34.070543,121.371264,19.986804,-21.671475,13.400397,9.584464,-6.689886,6.586407,3.815933,2.894578,-14.981589,3.154767,6.970700,-6.910712,9.805290,3.431640,0.059988,-5.176299,-1.684671,-1877.368559,-2402.743990,-240.617499,-2046.366035,0.000000,-0.056762,-985.074076,-1256.056525,-1714.426186,-1721.716761,-532.668758,-1879.037010,-2927.544635,-3365.745376,-2391.905808,-3009.085555,0.000000,0.833530,-1568.823045,-2153.552777,-2508.919941,-2527.164801,-825.570329,-2971.072721,-1050.176076,-963.001386,-2151.288309,-962.719520,0.000000,0.890292,-583.748969,-897.496252,-794.493754,-805.448039,-292.901571,-1092.035711,532.668758,240.617499,452.405318,271.024178,1015.439026,1181.757428,736.642685,621.312034,1638.419511,6.676163,324.789787,168.997476,1.581768,687.758181,356.279465,523.706980,1968.559207,825.570329,2391.905808,743.252715,585.158705,-238.353031,1683.349611,958.341756,773.991858,579.166913,18.591311,482.467758,81.540920,43.933853,858.167498,357.064378,394.672655,1915.027883,292.901571,2151.288309,290.847398,314.134528,-1253.792056,501.592183,221.699070,152.679823,-1059.252598,11.915148,157.677971,-87.456556,42.352086,170.409316,0.784913,-129.034325,-53.531324,0.140000,5.970007,2.000000
122.352854,0.080000,0.140000,0.200000,0.650000,50.000000,1.020000,1.000000,1.000000,1.200000,0.300000,0.320000,0.330000,0.300000,0.800000,0.120000,0.340000,0.130000,0.080000,1.254544,0.200000,0.650000,50.000000,1.020000,1.000000,1.000000,1.200000,0.300000,0.320000,0.330000,0.300000,0.800000,0.120000,0.340000,0.130000,81.598771,41.457164,47.560767,20.419605,4.506526,34.038004,27.141162,24.926132,36.950637,4.717402,31.858564,22.629926,2.296205,29.320602,54.488490,39.246843,123.055935,90.265091,32.087762,53.293161,24.348474,2.502996,36.971931,28.944687,26.851470,29.584766,6.121273,35.065960,19.451435,7.400036,30.850657,54.517395,36.984802,122.352854,8.666320,-9.369401,5.732394,3.928869,-2.003530,2.933927,1.803525,1.925339,-7.365871,1.403872,3.207396,-3.178492,5.103830,1.530055,0.028905,-2.262041,-0.703081,-1877.368559,-2402.743990,-240.617499,-2046.366035,0.000000,-0.056762,-985.074076,-1256.056525,-1714.426186,-1721.716761,-532.668758,-1879.037010,-2325.960202,-2807.097054,-1291.709276,-2450.818445,0.000000,0.626662,-1219.855139,-1604.958750,-2046.085065,-2057.650032,-651.822939,-2342.019359,-448.591643,-404.353064,-1051.091777,-404.452410,0.000000,0.683424,-234.781063,-348.902225,-331.658879,-335.933271,-119.154181,-462.982349,532.668758,240.617499,452.405318,271.024178,1015.439026,1181.757428,736.642685,621.312034,1638.419511,6.676163,324.789787,168.997476,1.581768,687.758181,356.279465,523.706980,1968.559207,651.822939,1291.709276,568.032200,385.351324,313.249474,1394.262126,837.794893,721.001452,1050.310083,11.240996,393.478896,124.858243,16.428158,761.410449,356.657559,465.077695,1946.128714,119.154181,1051.091777,115.626882,114.327147,-702.189552,212.504698,101.152207,99.689418,-588.109428,4.564833,68.689109,-44.139233,14.846390,73.652268,0.378093,-58.629285,-22.430492,0.140000,1.114544,2.000000
120.585539,0.080000,0.140000,0.200000,0.650000,50.000000,1.020000,1.000000,1.000000,1.200000,0.300000,0.320000,0.330000,0.300000,0.800000,0.120000,0.340000,0.130000,0.080000,24.266227,0.200000,0.650000,50.000000,1.020000,1.000000,1.000000,1.200000,0.300000,0.320000,0.330000,0.300000,0.800000,0.120000,0.340000,0.130000,81.598771,41.457164,47.560767,20.419605,4.506526,34.038004,27.141162,24.926132,36.950637,4.717402,31.858564,22.629926,2.296205,29.320602,54.488490,39.246843,123.055935,109.106656,11.478882,65.791897,33.047846,-3.658518,43.314759,32.744050,29.389328,15.137401,8.997053,41.741104,13.059932,16.329396,34.317706,54.801036,31.466797,120.585539,27.507885,-29.978281,18.231130,12.628241,-8.165045,9.276755,5.602888,4.463197,-21.813237,4.279652,9.882540,-9.569994,14.033191,4.997104,0.312546,-7.780046,-2.470396,-1877.368559,-2402.743990,-240.617499,-2046.366035,0.000000,-0.056762,-985.074076,-1256.056525,-1714.426186,-1721.716761,-532.668758,-1879.037010,-3391.927891,-3809.056327,-3197.433092,-3448.213292,0.000000,-0.700066,-1818.055733,-2528.195283,-2866.032751,-2890.228571,-952.340996,-3472.402167,-1514.559332,-1406.312337,-2956.815593,-1401.847257,0.000000,-0.643304,-832.981658,-1272.138759,-1151.606564,-1168.511809,-419.672238,-1593.365157,532.668758,240.617499,452.405318,271.024178,1015.439026,1181.757428,736.642685,621.312034,1638.419511,6.676163,324.789787,168.997476,1.581768,687.758181,356.279465,523.706980,1968.559207,952.340996,3197.433092,865.714738,709.904100,-669.237808,1913.691755,1072.172837,863.732607,274.969075,24.284090,557.542315,56.285402,79.994753,942.163968,360.378421,336.654160,1890.313374,419.672238,2956.815593,413.309420,438.879922,-1684.676834,731.934327,335.530152,242.420573,-1363.450436,17.607927,232.752528,-112.712074,78.412986,254.405787,4.098956,-187.052820,-78.245833,0.140000,24.126227,2.000000
121.618468,0.080000,0.140000,0.200000,0.650000,50.000000,1.020000,1.000000,1.000000,1.200000,0.300000,0.320000,0.330000,0.300000,0.800000,0.120000,0.340000,0.130000,0.080000,4.139518,0.200000,0.650000,50.000000,1.020000,1.000000,1.000000,1.200000,0.300000,0.320000,0.330000,0.300000,0.800000,0.120000,0.340000,0.130000,81.598771,41.457164,47.560767,20.419605,4.506526,34.038004,27.141162,24.926132,36.950637,4.717402,31.858564,22.629926,2.296205,29.320602,54.488490,39.246843,123.055935,98.982733,22.635736,59.238487,28.826069,-1.384805,39.744246,30.412418,27.441264,24.020541,7.479542,37.891960,16.621740,10.819524,32.264704,54.513700,34.840064,121.618468,17.383961,-18.821428,11.677719,8.406463,-5.891331,5.706242,3.271256,2.515132,-12.930097,2.762140,6.033396,-6.008186,8.523318,2.944102,0.025210,-4.406778,-1.437467,-1877.368559,-2402.743990,-240.617499,-2046.366035,0.000000,-0.056762,-985.074076,-1256.056525,-1714.426186,-1721.716761,-532.668758,-1879.037010,-2778.130415,-3226.077575,-2120.991698,-2869.303553,0.000000,0.486325,-1485.646166,-2025.107466,-2395.003707,-2410.561335,-783.806509,-2813.375346,-900.761856,-823.333586,-1880.374199,-822.937519,0.000000,0.543087,-500.572091,-769.050941,-680.577521,-688.844574,-251.137751,-934.338336,532.668758,240.617499,452.405318,271.024178,1015.439026,1181.757428,736.642685,621.312034,1638.419511,6.676163,324.789787,168.997476,1.581768,687.758181,356.279465,523.706980,1968.559207,783.806509,2120.991698,701.839658,540.112448,-95.884232,1611.197199,924.915169,753.022949,692.383648,16.783064,459.456198,91.173138,35.118628,832.808914,356.609215,412.702229,1922.836741,251.137751,1880.374199,249.434340,269.088270,-1111.323258,429.439771,188.272483,131.710915,-946.035863,10.106901,134.666411,-77.824338,33.536861,145.050732,0.329749,-111.004751,-45.722466,0.140000,3.999518,2.000000
121.081288,0.080000,0.140000,0.200000,0.650000,50.000000,1.020000,1.000000,1.000000,1.200000,0.300000,0.320000,0.330000,0.300000,0.800000,0.120000,0.340000,0.130000,0.080000,9.799241,0.200000,0.650000,50.000000,1.020000,1.000000,1.000000,1.200000,0.300000,0.320000,0.330000,0.300000,0.800000,0.120000,0.340000,0.130000,81.598771,41.457164,47.560767,20.419605,4.506526,34.038004,27.141162,24.926132,36.950637,4.717402,31.858564,22.629926,2.296205,29.320602,54.488490,39.246843,123.055935,104.474621,16.606667,62.830887,31.218636,-2.851391,41.643734,31.612251,28.367245,19.458058,8.312262,39.924513,14.695278,13.671967,33.331473,54.619791,33.130025,121.081288,22.875850,-24.850497,15.270120,10.799031,-7.357917,7.605730,4.471089,3.441113,-17.492580,3.594860,8.065949,-7.934648,11.375762,4.010870,0.131301,-6.116818,-1.974647,-1877.368559,-2402.743990,-240.617499,-2046.366035,0.000000,-0.056762,-985.074076,-1256.056525,-1714.426186,-1721.716761,-532.668758,-1879.037010,-3100.627516,-3529.971064,-2702.448352,-3171.891409,0.000000,0.223890,-1662.739794,-2295.926926,-2642.080352,-2662.074228,-873.195722,-3156.787559,-1223.258957,-1127.227074,-2461.830853,-1125.525374,0.000000,0.280652,-677.665718,-1039.870401,-927.654166,-940.357467,-340.526964,-1277.750549,532.668758,240.617499,452.405318,271.024178,1015.439026,1181.757428,736.642685,621.312034,1638.419511,6.676163,324.789787,168.997476,1.581768,687.758181,356.279465,523.706980,1968.559207,873.195722,2702.448352,789.544072,633.492088,-406.521426,1768.884630,999.334434,804.700590,454.339207,20.728109,510.069362,71.263893,56.076806,888.789650,357.998589,373.183505,1905.888192,340.526964,2461.830853,337.138754,362.467910,-1421.960452,587.127202,262.691749,183.388556,-1184.080304,14.051946,185.279575,-97.733583,54.495039,201.031469,1.719123,-150.523475,-62.671014,0.140000,9.659241,2.000000
121.207998,0.080000,0.140000,0.200000,0.650000,50.000000,1.020000,1.000000,1.000000,1.200000,0.300000,0.320000,0.330000,0.300000,0.800000,0.120000,0.340000,0.130000,0.080000,7.946569,0.200000,0.650000,50.000000,1.020000,1.000000,1.000000,1.200000,0.300000,0.320000,0.330000,0.300000,0.800000,0.120000,0.340000,0.130000,81.598771,41.457164,47.560767,20.419605,4.506526,34.038004,27.141162,24.926132,36.950637,4.717402,31.858564,22.629926,2.296205,29.320602,54.488490,39.246843,123.055935,103.229757,17.978241,62.030026,30.704510,-2.583907,41.199730,31.325516,28.120603,20.562149,8.122056,39.447572,15.137491,12.983112,33.077674,54.585063,33.545260,121.207998,21.630985,-23.478922,14.469259,10.284905,-7.090434,7.161726,4.184354,3.194471,-16.388488,3.404654,7.589008,-7.492435,10.686906,3.757072,0.096573,-5.701582,-1.847937,-1877.368559,-2402.743990,-240.617499,-2046.366035,0.000000,-0.056762,-985.074076,-1256.056525,-1714.426186,-1721.716761,-532.668758,-1879.037010,-3025.406998,-3458.426658,-2568.467575,-3101.024399,0.000000,0.356487,-1622.055447,-2234.638705,-2583.876728,-2603.343426,-852.510611,-3075.829931,-1148.038439,-1055.682668,-2327.850077,-1054.658364,0.000000,0.413249,-636.981372,-978.582180,-869.450542,-881.626665,-319.841853,-1196.792921,532.668758,240.617499,452.405318,271.024178,1015.439026,1181.757428,736.642685,621.312034,1638.419511,6.676163,324.789787,168.997476,1.581768,687.758181,356.279465,523.706980,1968.559207,852.510611,2568.467575,769.544836,612.798509,-333.828870,1731.366117,981.287978,790.768293,507.362356,19.790337,497.955503,75.617400,50.568356,875.306034,357.543496,382.596727,1909.879240,319.841853,2327.850077,317.139519,341.774331,-1349.267896,549.608689,244.645293,169.456259,-1131.057155,13.114174,173.165717,-93.380076,48.986588,187.547853,1.264030,-141.110253,-58.679966,0.140000,7.806569,2.000000
121.292458,0.080000,0.140000,0.200000,0.650000,50.000000,1.020000,1.000000,1.000000,1.200000,0.300000,0.320000,0.330000,0.300000,0.800000,0.120000,0.340000,0.130000,0.080000,6.931152,0.200000,0.650000,50.000000,1.020000,1.000000,1.000000,1.200000,0.300000,0.320000,0.330000,0.300000,0.800000,0.120000,0.340000,0.130000,81.598771,41.457164,47.560767,20.419605,4.506526,34.038004,27.141162,24.926132,36.950637,4.717402,31.858564,22.629926,2.296205,29.320602,54.488490,39.246843,123.055935,102.385689,18.906769,61.482515,30.348248,-2.385980,40.903174,31.134268,27.962268,21.292748,7.994056,39.128324,15.436641,12.525627,32.909118,54.564965,33.818375,121.292458,20.786918,-22.550395,13.921748,9.928643,-6.892506,6.865170,3.993106,3.036136,-15.657889,3.276655,7.269760,-7.193285,10.229421,3.588515,0.076475,-5.428467,-1.763477,-1877.368559,-2402.743990,-240.617499,-2046.366035,0.000000,-0.056762,-985.074076,-1256.056525,-1714.426186,-1721.716761,-532.668758,-1879.037010,-2974.894027,-3410.559969,-2477.650567,-3053.529691,0.000000,0.551160,-1594.646293,-2193.005599,-2545.157393,-2563.988921,-838.626353,-3021.707922,-1097.525468,-1007.815979,-2237.033068,-1007.163656,0.000000,0.607922,-609.572218,-936.949074,-830.731206,-842.272160,-305.957595,-1142.670912,532.668758,240.617499,452.405318,271.024178,1015.439026,1181.757428,736.642685,621.312034,1638.419511,6.676163,324.789787,168.997476,1.581768,687.758181,356.279465,523.706980,1968.559207,838.626353,2477.650567,756.019941,598.660489,-284.644968,1706.531040,969.342628,781.888428,544.057355,19.171482,489.928242,78.635664,47.067398,866.408016,357.280254,388.852047,1912.541848,305.957595,2237.033068,303.614623,327.636312,-1300.083994,524.773612,232.699942,160.576394,-1094.362156,12.495318,165.138455,-90.361812,45.485630,178.649834,1.000788,-134.854933,-56.017359,0.140000,6.791152,2.000000
120.686353,0.080000,0.140000,0.200000,0.650000,50.000000,1.020000,1.000000,1.000000,1.200000,0.300000,0.320000,0.330000,0.300000,0.800000,0.120000,0.340000,0.130000,0.080000,0.140000,14.580070,0.650000,50.000000,1.020000,1.000000,1.000000,1.200000,0.300000,0.320000,0.330000,0.300000,0.800000,0.120000,0.340000,0.130000,81.598771,41.457164,47.560767,20.419605,4.506526,34.038004,27.141162,24.926132,36.950637,4.717402,31.858564,22.629926,2.296205,29.320602,54.488490,39.246843,123.055935,65.019774,55.666578,13.726843,5.422629,7.307736,51.292931,8.304215,12.730365,48.358842,21.082860,29.387074,22.289958,-9.559594,30.210071,51.677033,38.799249,120.686353,-16.578997,14.209415,-33.833924,-14.996976,2.801209,17.254927,-18.836948,-12.195767,11.408205,16.365458,-2.471489,-0.339968,-11.855799,0.889469,-2.811457,-0.447594,-2.369582,-1877.368559,-2402.743990,-240.617499,-2046.366035,0.000000,-0.056762,-985.074076,-1256.056525,-1714.426186,-1721.716761,-532.668758,-1879.037010,-3266.039867,-3751.950449,-433.827511,-3429.997808,0.000000,-0.000654,-3085.473327,-3103.977685,-3021.789767,-3154.433307,-338.205686,-3240.120676,-1388.671308,-1349.206459,-193.210012,-1383.631773,0.000000,0.056108,-2100.399251,-1847.921160,-1307.363581,-1432.716546,194.463072,-1361.083666,532.668758,240.617499,452.405318,271.024178,1015.439026,1181.757428,736.642685,621.312034,1638.419511,6.676163,324.789787,168.997476,1.581768,687.758181,356.279465,523.706980,1968.559207,338.205686,433.827511,2747.267641,19.113186,2670.150174,2683.584082,68.959980,162.062182,2806.293165,133.346094,276.352047,163.957941,-27.415751,730.118726,320.461888,511.829773,1893.475445,-194.463072,193.210012,2294.862324,-251.910991,1654.711148,1501.826654,-667.682705,-459.249853,1167.873654,126.669931,-48.437740,-5.039535,-28.997518,42.360545,-35.817578,-11.877207,-75.083762,0.200000,14.380070,3.000000
122.551446,0.080000,0.140000,0.200000,0.650000,50.000000,1.020000,1.000000,1.000000,1.200000,0.300000,0.320000,0.330000,0.300000,0.800000,0.120000,0.340000,0.130000,0.080000,0.140000,0.686467,0.650000,50.000000,1.020000,1.000000,1.000000,1.200000,0.300000,0.320000,0.330000,0.300000,0.800000,0.120000,0.340000,0.130000,81.598771,41.457164,47.560767,20.419605,4.506526,34.038004,27.141162,24.926132,36.950637,4.717402,31.858564,22.629926,2.296205,29.320602,54.488490,39.246843,123.055935,77.524735,45.026711,38.940843,16.515564,5.319871,38.583892,22.425279,21.835435,39.706840,9.125455,31.550735,22.508567,-0.673131,29.458436,54.059301,39.033708,122.551446,-4.074036,3.569547,-8.619924,-3.904041,0.813345,4.545888,-4.715883,-3.090696,2.756203,4.408054,-0.307829,-0.121360,-2.969337,0.137834,-0.429189,-0.213134,-0.504489,-1877.368559,-2402.743990,-240.617499,-2046.366035,0.000000,-0.056762,-985.074076,-1256.056525,-1714.426186,-1721.716761,-532.668758,-1879.037010,-2175.674279,-2693.830744,-283.836656,-2342.864018,0.000000,-0.111942,-1521.757356,-1698.888045,-1999.297796,-2024.650500,-480.806764,-2175.796410,-298.305720,-291.086754,-43.219158,-296.497983,0.000000,-0.055180,-536.683281,-442.831520,-284.871610,-302.933739,51.861994,-296.759400,532.668758,240.617499,452.405318,271.024178,1015.439026,1181.757428,736.642685,621.312034,1638.419511,6.676163,324.789787,168.997476,1.581768,687.758181,356.279465,523.706980,1968.559207,480.806764,283.836656,1040.950593,177.296511,1415.051389,1518.491032,502.893144,476.786234,1891.959753,24.982181,318.543632,167.189739,-0.135932,694.239574,350.688966,518.034334,1952.451396,-51.861994,43.219158,588.545275,-93.727667,399.612363,336.733604,-233.749541,-144.525801,253.540242,18.306018,-6.246154,-1.807737,-1.717699,6.481393,-5.590500,-5.672646,-16.107810,0.200000,0.486467,3.000000
120.323111,0.080000,0.140000,0.200000,0.650000,50.000000,1.020000,1.000000,1.000000,1.200000,0.300000,0.320000,0.330000,0.300000,0.800000,0.120000,0.340000,0.130000,0.080000,0.140000,33.061312,0.650000,50.000000,1.020000,1.000000,1.000000,1.200000,0.300000,0.320000,0.330000,0.300000,0.800000,0.120000,0.340000,0.130000,81.598771,41.457164,47.560767,20.419605,4.506526,34.038004,27.141162,24.926132,36.950637,4.717402,31.858564,22.629926,2.296205,29.320602,54.488490,39.246843,123.055935,62.892581,57.430530,9.564339,3.698915,7.599285,53.328242,5.865424,11.298200,49.831246,22.964473,28.829897,22.274982,-10.976783,30.363769,51.104879,38.854463,120.323111,-18.706191,15.973367,-37.996428,-16.720690,3.092758,19.290238,-21.275738,-13.627932,12.880609,18.247071,-3.028667,-0.354944,-13.272988,1.043166,-3.383611,-0.392379,-2.732824,-1877.368559,-2402.743990,-240.617499,-2046.366035,0.000000,-0.056762,-985.074076,-1256.056525,-1714.426186,-1721.716761,-532.668758,-1879.037010,-3476.862800,-3954.828464,-461.757216,-3640.600498,0.000000,-0.023663,-3340.774024,-3349.213486,-3217.217514,-3375.177224,-316.438137,-3441.540901,-1599.494242,-1552.084474,-221.139717,-1594.234463,0.000000,0.033099,-2355.699948,-2093.156961,-1502.791328,-1653.460463,216.230621,-1562.503891,532.668758,240.617499,452.405318,271.024178,1015.439026,1181.757428,736.642685,621.312034,1638.419511,6.676163,324.789787,168.997476,1.581768,687.758181,356.279465,523.706980,1968.559207,316.438137,461.757216,3024.335887,8.893282,2887.456270,2900.779377,34.403200,127.649314,2979.783685,158.210102,265.972144,163.737698,-36.146928,737.566769,313.405041,513.287563,1882.094642,-216.230621,221.139717,2571.930569,-262.130895,1872.017244,1719.021949,-702.239486,-493.662720,1341.364174,151.533939,-58.817643,-5.259778,-37.728696,49.808587,-42.874424,-10.419417,-86.464565,0.200000,32.861312,3.000000
120.482686,0.080000,0.140000,0.200000,0.650000,50.000000,1.020000,1.000000,1.000000,1.200000,0.300000,0.320000,0.330000,0.300000,0.800000,0.120000,0.340000,0.130000,0.080000,0.140000,22.461174,0.650000,50.000000,1.020000,1.000000,1.000000,1.200000,0.300000,0.320000,0.330000,0.300000,0.800000,0.120000,0.340000,0.130000,81.598771,41.457164,47.560767,20.419605,4.506526,34.038004,27.141162,24.926132,36.950637,4.717402,31.858564,22.629926,2.296205,29.320602,54.488490,39.246843,123.055935,63.817637,56.665049,11.371093,4.439537,7.473559,52.446544,6.931557,11.913096,49.191490,22.149775,29.081332,22.278176,-10.365080,30.296769,51.359508,38.826410,120.482686,-17.781134,15.207885,-36.189674,-15.980068,2.967032,18.408540,-20.209606,-13.013036,12.240853,17.432374,-2.777232,-0.351751,-12.661285,0.976166,-3.128983,-0.420433,-2.573249,-1877.368559,-2402.743990,-240.617499,-2046.366035,0.000000,-0.056762,-985.074076,-1256.056525,-1714.426186,-1721.716761,-532.668758,-1879.037010,-3384.155785,-3865.839744,-449.529885,-3547.940431,0.000000,-0.020437,-3230.084733,-3242.233939,-3131.468025,-3278.131209,-325.815265,-3353.293108,-1506.787226,-1463.095754,-208.912386,-1501.574396,0.000000,0.036325,-2245.010657,-1986.177415,-1417.041839,-1556.414448,206.853493,-1474.256098,532.668758,240.617499,452.405318,271.024178,1015.439026,1181.757428,736.642685,621.312034,1638.419511,6.676163,324.789787,168.997476,1.581768,687.758181,356.279465,523.706980,1968.559207,325.815265,449.529885,2904.269467,12.811166,2792.704054,2805.652760,48.046477,141.921846,2903.763222,147.183764,270.631637,163.784646,-32.230465,734.315346,316.535882,512.546636,1887.090090,-206.853493,208.912386,2451.864150,-258.213011,1777.265028,1623.895332,-688.596209,-479.390189,1265.343711,140.507601,-54.158150,-5.212830,-33.812233,46.557165,-39.743584,-11.160344,-81.469117,0.200000,22.261174,3.000000
120.960542,0.080000,0.140000,0.200000,0.650000,50.000000,1.020000,1.000000,1.000000,1.200000,0.300000,0.320000,0.330000,0.300000,0.800000,0.120000,0.340000,0.130000,0.080000,0.140000,8.758031,0.650000,50.000000,1.020000,1.000000,1.000000,1.200000,0.300000,0.320000,0.330000,0.300000,0.800000,0.120000,0.340000,0.130000,81.598771,41.457164,47.560767,20.419605,4.506526,34.038004,27.141162,24.926132,36.950637,4.717402,31.858564,22.629926,2.296205,29.320602,54.488490,39.246843,123.055935,66.678055,54.282487,16.992893,6.811025,7.074071,49.685162,10.181869,13.885096,47.208415,19.592800,29.774669,22.315667,-8.430571,30.092362,52.090335,38.777844,120.960542,-14.920716,12.825323,-30.567874,-13.608580,2.567545,15.647158,-16.959293,-11.041036,10.257778,14.875398,-2.083895,-0.314259,-10.726776,0.771760,-2.398155,-0.468998,-2.095393,-1877.368559,-2402.743990,-240.617499,-2046.366035,0.000000,-0.056762,-985.074076,-1256.056525,-1714.426186,-1721.716761,-532.668758,-1879.037010,-3107.442524,-3598.148941,-412.522369,-3271.778890,0.000000,-0.022666,-2884.632322,-2914.646633,-2873.664683,-2988.302772,-355.677046,-3086.883730,-1230.073965,-1195.404951,-171.904870,-1225.412855,0.000000,0.034096,-1899.558246,-1658.590109,-1159.238496,-1266.586011,176.991712,-1207.846720,532.668758,240.617499,452.405318,271.024178,1015.439026,1181.757428,736.642685,621.312034,1638.419511,6.676163,324.789787,168.997476,1.581768,687.758181,356.279465,523.706980,1968.559207,355.677046,412.522369,2528.955276,30.153537,2502.124265,2517.987637,103.670450,192.795890,2674.361361,115.163342,283.689884,164.336367,-21.322358,724.440211,325.608366,511.265211,1902.088853,-176.991712,171.904870,2076.549958,-240.870641,1486.685239,1336.230208,-632.972235,-428.516144,1035.941850,108.487179,-41.099902,-4.661109,-22.904125,36.682030,-30.671099,-12.441769,-66.470354,0.200000,8.558031,3.000000
121.463740,0.080000,0.140000,0.200000,0.650000,50.000000,1.020000,1.000000,1.000000,1.200000,0.300000,0.320000,0.330000,0.300000,0.800000,0.120000,0.340000,0.130000,0.080000,0.140000,3.871788,0.650000,50.000000,1.020000,1.000000,1.000000,1.200000,0.300000,0.320000,0.330000,0.300000,0.800000,0.120000,0.340000,0.130000,81.598771,41.457164,47.560767,20.419605,4.506526,34.038004,27.141162,24.926132,36.950637,4.717402,31.858564,22.629926,2.296205,29.320602,54.488490,39.246843,123.055935,69.857247,51.606493,23.312614,9.554077,6.605441,46.544633,13.758537,16.159519,45.001051,16.666691,30.425228,22.376984,-6.217465,29.877942,52.802212,38.783586,121.463740,-11.741524,10.149329,-24.248153,-10.865528,2.098915,12.506629,-13.382625,-8.766613,8.050414,11.949290,-1.433336,-0.252942,-8.513670,0.557339,-1.686278,-0.463256,-1.592195,-1877.368559,-2402.743990,-240.617499,-2046.366035,0.000000,-0.056762,-985.074076,-1256.056525,-1714.426186,-1721.716761,-532.668758,-1879.037010,-2815.575135,-3314.382411,-372.852217,-2980.815842,0.000000,-0.124059,-2494.634175,-2554.445085,-2600.133711,-2683.931510,-390.402798,-2802.965778,-938.206576,-911.638421,-132.234718,-934.449807,0.000000,-0.067297,-1509.560099,-1298.388560,-885.707525,-962.214749,142.265960,-923.928768,532.668758,240.617499,452.405318,271.024178,1015.439026,1181.757428,736.642685,621.312034,1638.419511,6.676163,324.789787,168.997476,1.581768,687.758181,356.279465,523.706980,1968.559207,390.402798,372.852217,2104.231377,59.332256,2181.592868,2209.730913,189.297335,261.130050,2430.113562,83.333577,296.222237,165.240707,-11.597062,714.153128,334.568830,511.416633,1917.947220,-142.265960,132.234718,1651.826060,-211.691921,1166.153843,1027.973485,-547.345351,-360.181984,791.694051,76.657414,-28.567549,-3.756769,-13.178830,26.394947,-21.710635,-12.290347,-50.611986,0.200000,3.671788,3.000000
121.120031,0.080000,0.140000,0.200000,0.650000,50.000000,1.020000,1.000000,1.000000,1.200000,0.300000,0.320000,0.330000,0.300000,0.800000,0.120000,0.340000,0.130000,0.080000,0.140000,6.680378,0.650000,50.000000,1.020000,1.000000,1.000000,1.200000,0.300000,0.320000,0.330000,0.300000,0.800000,0.120000,0.340000,0.130000,81.598771,41.457164,47.560767,20.419605,4.506526,34.038004,27.141162,24.926132,36.950637,4.717402,31.858564,22.629926,2.296205,29.320602,54.488490,39.246843,123.055935,67.663585,53.456446,18.944883,7.652954,6.932170,48.718703,11.291929,14.585124,46.524276,18.695248,29.987178,22.335144,-7.750020,30.023454,52.322321,38.774256,121.120031,-13.935186,11.999282,-28.615885,-12.766652,2.425644,14.680699,-15.849233,-10.341008,9.573638,13.977847,-1.871386,-0.294783,-10.046225,0.702852,-2.166169,-0.472587,-1.935904,-1877.368559,-2402.743990,-240.617499,-2046.366035,0.000000,-0.056762,-985.074076,-1256.056525,-1714.426186,-1721.716761,-532.668758,-1879.037010,-3015.537845,-3508.643294,-400.062825,-3180.161195,0.000000,-0.269626,-2763.913810,-2802.812008,-2787.251085,-2891.421474,-366.268863,-2997.472699,-1138.169286,-1105.899305,-159.445326,-1133.795160,0.000000,-0.212864,-1778.839735,-1546.755484,-1072.824899,-1169.704713,166.399895,-1118.435689,532.668758,240.617499,452.405318,271.024178,1015.439026,1181.757428,736.642685,621.312034,1638.419511,6.676163,324.789787,168.997476,1.581768,687.758181,356.279465,523.706980,1968.559207,366.268863,400.062825,2397.644948,38.069004,2402.749183,2420.982222,127.507664,212.725837,2597.409874,104.853694,287.753862,164.623350,-18.018842,721.126240,328.515034,511.170595,1907.108056,-166.399895,159.445326,1945.239630,-232.955173,1387.310157,1239.224794,-609.135022,-408.586198,958.990363,98.177531,-37.035925,-4.374126,-19.600609,33.368059,-27.764431,-12.536385,-61.451151,0.200000,6.480378,3.000000
120.307141,0.080000,0.140000,0.200000,0.650000,50.000000,1.020000,1.000000,1.000000,1.200000,0.300000,0.320000,0.330000,0.300000,0.800000,0.120000,0.340000,0.130000,0.080000,0.140000,34.469193,0.650000,50.000000,1.020000,1.000000,1.000000,1.200000,0.300000,0.320000,0.330000,0.300000,0.800000,0.120000,0.340000,0.130000,81.598771,41.457164,47.560767,20.419605,4.506526,34.038004,27.141162,24.926132,36.950637,4.717402,31.858564,22.629926,2.296205,29.320602,54.488490,39.246843,123.055935,62.800802,57.506339,9.385341,3.626267,7.611660,53.415461,5.759075,11.237927,49.894679,23.045049,28.804123,22.275003,-11.037077,30.370412,51.079127,38.857602,120.307141,-18.797969,16.049175,-38.175426,-16.793338,3.105134,19.377457,-21.382088,-13.688205,12.944041,18.327647,-3.054440,-0.354923,-13.333282,1.049810,-3.409363,-0.389241,-2.748794,-1877.368559,-2402.743990,-240.617499,-2046.366035,0.000000,-0.056762,-985.074076,-1256.056525,-1714.426186,-1721.716761,-532.668758,-1879.037010,-3486.136484,-3963.722289,-462.977057,-3649.874489,0.000000,-0.022976,-3351.721413,-3359.845487,-3225.790962,-3384.888353,-315.515261,-3450.351792,-1608.767925,-1560.978299,-222.359558,-1603.508454,0.000000,0.033787,-2366.647337,-2103.788962,-1511.364776,-1663.171592,217.153497,-1571.314782,532.668758,240.617499,452.405318,271.024178,1015.439026,1181.757428,736.642685,621.312034,1638.419511,6.676163,324.789787,168.997476,1.581768,687.758181,356.279465,523.706980,1968.559207,315.515261,462.977057,3036.206152,8.547376,2896.868430,2910.275701,33.166940,126.290997,2987.374735,159.322282,265.496807,163.738005,-36.545118,737.889550,313.089262,513.370497,1881.595057,-217.153497,222.359558,2583.800834,-262.476801,1881.429404,1728.518273,-703.475745,-495.021037,1348.955224,152.646119,-59.292979,-5.259471,-38.126886,50.131369,-43.190203,-10.336483,-86.964149,0.200000,34.269193,3.000000
120.443526,0.080000,0.140000,0.200000,0.650000,50.000000,1.020000,1.000000,1.000000,1.200000,0.300000,0.320000,0.330000,0.300000,0.800000,0.120000,0.340000,0.130000,0.080000,0.140000,24.583537,0.650000,50.000000,1.020000,1.000000,1.000000,1.200000,0.300000,0.320000,0.330000,0.300000,0.800000,0.120000,0.340000,0.130000,81.598771,41.457164,47.560767,20.419605,4.506526,34.038004,27.141162,24.926132,36.950637,4.717402,31.858564,22.629926,2.296205,29.320602,54.488490,39.246843,123.055935,63.589273,56.854253,10.924614,4.255337,7.504755,52.664660,6.669277,11.760092,49.349499,22.351356,29.020633,22.276850,-10.516758,30.313303,51.297482,38.832741,120.443526,-18.009498,15.397089,-36.636154,-16.164268,2.998228,18.626656,-20.471886,-13.166040,12.398861,17.633955,-2.837931,-0.353077,-12.812963,0.992701,-3.191008,-0.414102,-2.612409,-1877.368559,-2402.743990,-240.617499,-2046.366035,0.000000,-0.056762,-985.074076,-1256.056525,-1714.426186,-1721.716761,-532.668758,-1879.037010,-3406.903636,-3887.698254,-452.536853,-3570.668785,0.000000,-0.023069,-3257.463527,-3268.603882,-3152.525361,-3301.942777,-323.487655,-3374.984461,-1529.535077,-1484.954264,-211.919354,-1524.302750,0.000000,0.033694,-2272.389451,-2012.547357,-1438.099175,-1580.226016,209.181103,-1495.947451,532.668758,240.617499,452.405318,271.024178,1015.439026,1181.757428,736.642685,621.312034,1638.419511,6.676163,324.789787,168.997476,1.581768,687.758181,356.279465,523.706980,1968.559207,323.487655,452.536853,2933.975872,11.770131,2816.067029,2829.037706,44.479250,138.299755,2922.447608,149.874939,269.503083,163.765148,-33.180659,735.117089,315.771804,512.713793,1885.863597,-209.181103,211.919354,2481.570555,-259.254047,1800.628003,1647.280278,-692.163435,-483.012280,1284.028097,143.198775,-55.286704,-5.232328,-34.762427,47.358908,-40.507661,-10.993187,-82.695610,0.200000,24.383537,3.000000
120.436860,0.080000,0.140000,0.200000,0.650000,50.000000,1.020000,1.000000,1.000000,1.200000,0.300000,0.320000,0.330000,0.300000,0.800000,0.120000,0.340000,0.130000,0.080000,0.140000,24.971122,0.650000,50.000000,1.020000,1.000000,1.000000,1.200000,0.300000,0.320000,0.330000,0.300000,0.800000,0.120000,0.340000,0.130000,81.598771,41.457164,47.560767,20.419605,4.506526,34.038004,27.141162,24.926132,36.950637,4.717402,31.858564,22.629926,2.296205,29.320602,54.488490,39.246843,123.055935,63.550485,56.886375,10.848809,4.224137,7.510043,52.701676,6.624672,11.734180,49.376331,22.385564,29.010236,22.276657,-10.542477,30.316113,51.286893,38.833854,120.436860,-18.048286,15.429211,-36.711958,-16.195468,3.003517,18.663672,-20.516490,-13.191952,12.425694,17.668162,-2.848328,-0.353269,-12.838683,0.995510,-3.201597,-0.412988,-2.619075,-1877.368559,-2402.743990,-240.617499,-2046.366035,0.000000,-0.056762,-985.074076,-1256.056525,-1714.426186,-1721.716761,-532.668758,-1879.037010,-3410.776828,-3891.418063,-453.048347,-3574.539151,0.000000,-0.023402,-3262.110645,-3273.085847,-3156.109166,-3305.996926,-323.093135,-3378.674867,-1533.408270,-1488.674073,-212.430848,-1528.173116,0.000000,0.033360,-2277.036570,-2017.029322,-1441.682979,-1584.280165,209.575623,-1499.637857,532.668758,240.617499,452.405318,271.024178,1015.439026,1181.757428,736.642685,621.312034,1638.419511,6.676163,324.789787,168.997476,1.581768,687.758181,356.279465,523.706980,1968.559207,323.093135,453.048347,2939.017510,11.598165,2820.037500,2833.016031,43.886281,137.690981,2925.626520,150.334038,269.310009,163.762323,-33.343148,735.253356,315.641449,512.743195,1885.654841,-209.575623,212.430848,2486.612193,-259.426012,1804.598474,1651.258603,-692.756405,-483.621053,1287.207009,143.657874,-55.479778,-5.235153,-34.924916,47.495175,-40.638017,-10.963785,-82.904366,0.200000,24.771122,3.000000
122.498907,0.080000,0.140000,0.200000,0.650000,50.000000,1.020000,1.000000,1.000000,1.200000,0.300000,0.320000,0.330000,0.300000,0.800000,0.120000,0.340000,0.130000,0.080000,0.140000,0.200000,65.801131,50.000000,1.020000,1.000000,1.000000,1.200000,0.300000,0.320000,0.330000,0.300000,0.800000,0.120000,0.340000,0.130000,81.598771,41.457164,47.560767,20.419605,4.506526,34.038004,27.141162,24.926132,36.950637,4.717402,31.858564,22.629926,2.296205,29.320602,54.488490,39.246843,123.055935,75.762779,46.736129,38.381525,4.648673,6.116212,37.381253,33.732852,10.764885,40.619917,4.984092,38.716944,15.481469,-4.716583,32.397161,54.198413,35.903333,122.498907,-5.835993,5.278965,-9.179242,-15.770932,1.609686,3.343249,6.591690,-14.161246,3.669279,0.266690,6.858380,-7.148458,-7.012789,3.076559,-0.290077,-3.343509,-0.557028,-1877.368559,-2402.743990,-240.617499,-2046.366035,0.000000,-0.056762,-985.074076,-1256.056525,-1714.426186,-1721.716761,-532.668758,-1879.037010,-2292.082483,-2724.047117,-305.797201,-2371.175522,0.000000,-0.136910,-753.828189,-2176.199726,-1884.505144,-1891.733503,-459.199890,-2285.770343,-414.713924,-321.303127,-65.179702,-324.809487,0.000000,-0.080148,231.245886,-920.143201,-170.078957,-170.016741,73.468868,-406.733334,532.668758,240.617499,452.405318,271.024178,1015.439026,1181.757428,736.642685,621.312034,1638.419511,6.676163,324.789787,168.997476,1.581768,687.758181,356.279465,523.706980,1968.559207,459.199890,305.797201,294.628299,1421.973203,1870.402525,1425.305253,1137.905313,115.882758,1979.973143,7.452351,479.680559,79.093039,-6.673848,839.660855,352.496152,438.276774,1950.777697,-73.468868,65.179702,-157.777019,1150.949025,854.963499,243.547825,401.262628,-505.429277,341.553632,0.776188,154.890772,-89.904437,-8.255615,151.902674,-3.783313,-85.430206,-17.781510,0.650000,65.151131,4.000000
122.485201,0.080000,0.140000,0.200000,0.650000,50.000000,1.020000,1.000000,1.000000,1.200000,0.300000,0.320000,0.330000,0.300000,0.800000,0.120000,0.340000,0.130000,0.080000,0.140000,0.200000,77.176364,50.000000,1.020000,1.000000,1.000000,1.200000,0.300000,0.320000,0.330000,0.300000,0.800000,0.120000,0.340000,0.130000,81.598771,41.457164,47.560767,20.419605,4.506526,34.038004,27.141162,24.926132,36.950637,4.717402,31.858564,22.629926,2.296205,29.320602,54.488490,39.246843,123.055935,75.644759,46.840442,38.189007,4.323951,6.140179,37.455752,33.865056,10.464131,40.700263,4.994598,38.859653,15.321164,-4.857033,32.461154,54.180817,35.843230,122.485201,-5.954012,5.383278,-9.371760,-16.095654,1.633653,3.417748,6.723894,-14.462001,3.749626,0.277196,7.001090,-7.308763,-7.153238,3.140552,-0.307673,-3.403613,-0.570734,-1877.368559,-2402.743990,-240.617499,-2046.366035,0.000000,-0.056762,-985.074076,-1256.056525,-1714.426186,-1721.716761,-532.668758,-1879.037010,-2301.751863,-2731.788072,-307.163782,-2379.215421,0.000000,-0.005088,-749.450416,-2192.253835,-1888.762366,-1896.292421,-457.770363,-2294.977452,-424.383304,-329.044082,-66.546283,-332.849386,0.000000,0.051674,235.623660,-936.197311,-174.336179,-174.575660,74.898395,-415.940443,532.668758,240.617499,452.405318,271.024178,1015.439026,1181.757428,736.642685,621.312034,1638.419511,6.676163,324.789787,168.997476,1.581768,687.758181,356.279465,523.706980,1968.559207,457.770363,307.163782,291.680053,1442.932116,1885.090054,1430.992003,1146.842005,109.498028,1987.813671,7.483801,483.223252,77.463558,-7.077231,842.981222,352.267312,436.810620,1950.341176,-74.898395,66.546283,-160.725265,1171.907939,869.651028,249.234574,410.199320,-511.814006,349.394160,0.807638,158.433465,-91.533918,-8.658999,155.223041,-4.012154,-86.896360,-18.218031,0.650000,76.526364,4.000000
122.487304,0.080000,0.140000,0.200000,0.650000,50.000000,1.020000,1.000000,1.000000,1.200000,0.300000,0.320000,0.330000,0.300000,0.800000,0.120000,0.340000,0.130000,0.080000,0.140000,0.200000,75.243683,50.000000,1.020000,1.000000,1.000000,1.200000,0.300000,0.320000,0.330000,0.300000,0.800000,0.120000,0.340000,0.130000,81.598771,41.457164,47.560767,20.419605,4.506526,34.038004,27.141162,24.926132,36.950637,4.717402,31.858564,22.629926,2.296205,29.320602,54.488490,39.246843,123.055935,75.663024,46.824280,38.219095,4.374347,6.136523,37.443929,33.844748,10.510870,40.687756,4.992772,38.837520,15.346126,-4.835256,32.451157,54.183646,35.852501,122.487304,-5.935747,5.367116,-9.341673,-16.045258,1.629997,3.405925,6.703586,-14.415261,3.737119,0.275371,6.978956,-7.283801,-7.131461,3.130555,-0.304844,-3.394342,-0.568631,-1877.368559,-2402.743990,-240.617499,-2046.366035,0.000000,-0.056762,-985.074076,-1256.056525,-1714.426186,-1721.716761,-532.668758,-1879.037010,-2300.276187,-2730.580652,-306.951841,-2377.992367,0.000000,-0.005343,-750.131299,-2189.797794,-1888.080253,-1895.598261,-457.991457,-2293.544040,-422.907628,-327.836662,-66.334342,-331.626332,0.000000,0.051419,234.942777,-933.741269,-173.654067,-173.881500,74.677301,-414.507030,532.668758,240.617499,452.405318,271.024178,1015.439026,1181.757428,736.642685,621.312034,1638.419511,6.676163,324.789787,168.997476,1.581768,687.758181,356.279465,523.706980,1968.559207,457.991457,306.951841,292.139842,1439.781144,1882.845953,1430.088796,1145.466962,110.478393,1986.592199,7.478332,482.672950,77.716180,-7.013909,842.462076,352.304098,437.036612,1950.408140,-74.677301,66.334342,-160.265476,1168.756966,867.406927,248.331368,408.824277,-510.833641,348.172688,0.802169,157.883164,-91.281296,-8.595676,154.703895,-3.975367,-86.670368,-18.151067,0.650000,74.593683,4.000000
122.638408,0.080000,0.140000,0.200000,0.650000,50.000000,1.020000,1.000000,1.000000,1.200000,0.300000,0.320000,0.330000,0.300000,0.800000,0.120000,0.340000,0.130000,0.080000,0.140000,0.200000,18.026923,50.000000,1.020000,1.000000,1.000000,1.200000,0.300000,0.320000,0.330000,0.300000,0.800000,0.120000,0.340000,0.130000,81.598771,41.457164,47.560767,20.419605,4.506526,34.038004,27.141162,24.926132,36.950637,4.717402,31.858564,22.629926,2.296205,29.320602,54.488490,39.246843,123.055935,77.033385,45.605023,40.458124,8.139439,5.839194,36.575261,32.318684,13.978633,39.765829,4.869428,37.188112,17.168036,-3.189403,31.705833,54.356148,36.576426,122.638408,-4.565386,4.147859,-7.102644,-12.280166,1.332668,2.537257,5.177522,-10.947498,2.815192,0.152026,5.329548,-5.461890,-5.485608,2.385231,-0.132342,-2.670416,-0.417527,-1877.368559,-2402.743990,-240.617499,-2046.366035,0.000000,-0.056762,-985.074076,-1256.056525,-1714.426186,-1721.716761,-532.668758,-1879.037010,-2191.386017,-2643.623796,-291.174535,-2288.650699,0.000000,0.073628,-802.103346,-1995.983829,-1839.236122,-1846.600703,-474.731392,-2188.759912,-314.017458,-240.879806,-50.557036,-242.284664,0.000000,0.130390,182.970730,-739.927304,-124.809936,-124.883942,57.937366,-309.722902,532.668758,240.617499,452.405318,271.024178,1015.439026,1181.757428,736.642685,621.312034,1638.419511,6.676163,324.789787,168.997476,1.581768,687.758181,356.279465,523.706980,1968.559207,474.731392,291.174535,327.371954,1194.292169,1704.809293,1364.504731,1044.497357,195.402188,1897.585377,7.113398,442.545820,97.264682,-3.051687,804.207897,354.550901,454.863884,1955.223278,-57.937366,50.557036,-125.033363,923.267992,689.370268,182.747303,307.854671,-425.909846,259.165866,0.437235,117.756034,-71.732794,-4.633454,116.449715,-1.728564,-68.843096,-13.335929,0.650000,17.376923,4.000000
122.540126,0.080000,0.140000,0.200000,0.650000,50.000000,1.020000,1.000000,1.000000,1.200000,0.300000,0.320000,0.330000,0.300000,0.800000,0.120000,0.340000,0.130000,0.080000,0.140000,0.200000,42.463752,50.000000,1.020000,1.000000,1.000000,1.200000,0.300000,0.320000,0.330000,0.300000,0.800000,0.120000,0.340000,0.130000,81.598771,41.457164,47.560767,20.419605,4.506526,34.038004,27.141162,24.926132,36.950637,4.717402,31.858564,22.629926,2.296205,29.320602,54.488490,39.246843,123.055935,76.128102,46.412024,38.982325,5.655363,6.040487,37.145777,33.326962,11.695850,40.371538,4.948358,38.275319,15.975314,-4.279464,32.197419,54.250633,36.092074,122.540126,-5.470669,4.954861,-8.578442,-14.764242,1.533960,3.107773,6.185800,-13.230281,3.420900,0.230956,6.416756,-6.654612,-6.575669,2.876817,-0.237857,-3.154769,-0.515809,-1877.368559,-2402.743990,-240.617499,-2046.366035,0.000000,-0.056762,-985.074076,-1256.056525,-1714.426186,-1721.716761,-532.668758,-1879.037010,-2262.737569,-2700.300756,-301.570642,-2346.957085,0.000000,-0.075234,-767.563366,-2125.944660,-1871.043931,-1878.249751,-463.639031,-2257.403908,-385.369010,-297.556767,-60.953143,-300.591050,0.000000,-0.018471,217.510710,-869.888136,-156.617745,-156.532990,69.029727,-378.366898,532.668758,240.617499,452.405318,271.024178,1015.439026,1181.757428,736.642685,621.312034,1638.419511,6.676163,324.789787,168.997476,1.581768,687.758181,356.279465,523.706980,1968.559207,463.639031,301.570642,303.924335,1358.123869,1824.374018,1407.404900,1110.686385,136.792909,1955.833266,7.345873,468.800026,84.219516,-5.494143,829.339034,353.175747,442.896849,1952.090731,-69.029727,60.953143,-148.480983,1087.099691,808.934993,225.647472,374.043700,-484.519126,317.413755,0.669710,144.010240,-84.777960,-7.075911,141.580853,-3.103718,-80.810131,-16.468476,0.650000,41.813752,4.000000
122.453016,0.080000,0.140000,0.200000,0.650000,50.000000,1.020000,1.000000,1.000000,1.200000,0.300000,0.320000,0.330000,0.300000,0.800000,0.120000,0.340000,0.130000,0.080000,0.140000,0.200000,117.739908,50.000000,1.020000,1.000000,1.000000,1.200000,0.300000,0.320000,0.330000,0.300000,0.800000,0.120000,0.340000,0.130000,81.598771,41.457164,47.560767,20.419605,4.506526,34.038004,27.141162,24.926132,36.950637,4.717402,31.858564,22.629926,2.296205,29.320602,54.488490,39.246843,123.055935,75.367253,47.085763,37.731240,3.558177,6.195369,37.636014,34.173063,9.753545,40.890394,5.023100,39.196164,14.940195,-5.186650,32.612913,54.136358,35.703745,122.453016,-6.231518,5.628599,-9.829527,-16.861429,1.688842,3.598010,7.031901,-15.172587,3.939757,0.305699,7.337600,-7.689732,-7.482855,3.292311,-0.352132,-3.543098,-0.602919,-1877.368559,-2402.743990,-240.617499,-2046.366035,0.000000,-0.056762,-985.074076,-1256.056525,-1714.426186,-1721.716761,-532.668758,-1879.037010,-2324.650859,-2750.236411,-310.389670,-2398.309965,0.000000,0.026966,-739.147125,-2229.519218,-1899.216737,-1906.945388,-454.417832,-2316.818895,-447.282300,-347.492421,-69.772171,-351.943930,0.000000,0.083729,245.926950,-973.462693,-184.790551,-185.228626,78.250926,-437.781885,532.668758,240.617499,452.405318,271.024178,1015.439026,1181.757428,736.642685,621.312034,1638.419511,6.676163,324.789787,168.997476,1.581768,687.758181,356.279465,523.706980,1968.559207,454.417832,310.389670,284.729294,1490.660263,1919.129548,1444.798905,1167.798262,95.131641,2006.429225,7.569461,491.628557,73.659106,-8.070400,850.881693,351.689433,433.417516,1949.316359,-78.250926,69.772171,-167.676024,1219.636086,903.690522,263.041477,431.155577,-526.180393,368.009714,0.893297,166.838770,-95.338370,-9.652168,163.123512,-4.590033,-90.289464,-19.242848,0.650000,117.089908,4.000000
122.496870,0.080000,0.140000,0.200000,0.650000,50.000000,1.020000,1.000000,1.000000,1.200000,0.300000,0.320000,0.330000,0.300000,0.800000,0.120000,0.340000,0.130000,0.080000,0.140000,0.200000,67.362665,50.000000,1.020000,1.000000,1.000000,1.200000,0.300000,0.320000,0.330000,0.300000,0.800000,0.120000,0.340000,0.130000,81.598771,41.457164,47.560767,20.419605,4.506526,34.038004,27.141162,24.926132,36.950637,4.717402,31.858564,22.629926,2.296205,29.320602,54.488490,39.246843,123.055935,75.744933,46.751937,38.352103,4.599425,6.119793,37.392830,33.752678,10.719218,40.632144,4.985880,38.738558,15.457140,-4.737922,32.406950,54.195698,35.894222,122.496870,-5.853838,5.294773,-9.208664,-15.820180,1.613266,3.354826,6.611515,-14.206914,3.681507,0.268479,6.879994,-7.172786,-7.034128,3.086347,-0.292792,-3.352621,-0.559065,-1877.368559,-2402.743990,-240.617499,-2046.366035,0.000000,-0.056762,-985.074076,-1256.056525,-1714.426186,-1721.716761,-532.668758,-1879.037010,-2293.498786,-2725.223831,-306.004103,-2372.343435,0.000000,-0.143128,-753.160348,-2178.597153,-1885.171796,-1892.403590,-458.983588,-2287.169473,-416.130227,-322.479842,-65.386604,-325.977400,0.000000,-0.086366,231.913728,-922.540629,-170.745610,-170.686829,73.685170,-408.132464,532.668758,240.617499,452.405318,271.024178,1015.439026,1181.757428,736.642685,621.312034,1638.419511,6.676163,324.789787,168.997476,1.581768,687.758181,356.279465,523.706980,1968.559207,458.983588,306.004103,294.176759,1425.037868,1872.593051,1426.188208,1139.243242,114.901632,1981.165371,7.457701,480.216278,78.844650,-6.734372,840.168307,352.460842,438.054358,1950.712799,-73.685170,65.386604,-158.228558,1154.013691,857.154025,244.430780,402.600557,-506.410402,342.745860,0.781538,155.426492,-90.152826,-8.316140,152.410125,-3.818623,-85.652622,-17.846408,0.650000,66.712665,4.000000
122.716596,0.080000,0.140000,0.200000,0.650000,50.000000,1.020000,1.000000,1.000000,1.200000,0.300000,0.320000,0.330000,0.300000,0.800000,0.120000,0.340000,0.130000,0.080000,0.140000,0.200000,10.108127,50.000000,1.020000,1.000000,1.000000,1.200000,0.300000,0.320000,0.330000,0.300000,0.800000,0.120000,0.340000,0.130000,81.598771,41.457164,47.560767,20.419605,4.506526,34.038004,27.141162,24.926132,36.950637,4.717402,31.858564,22.629926,2.296205,29.320602,54.488490,39.246843,123.055935,77.789264,44.927332,41.672321,10.200418,5.656994,36.116942,31.471903,15.857412,39.270338,4.817086,36.288989,18.130325,-2.272914,31.299856,54.419315,36.997425,122.716596,-3.809508,3.470168,-5.888446,-10.219187,1.150468,2.078938,4.330741,-9.068720,2.319701,0.099685,4.430426,-4.499601,-4.569119,1.979254,-0.069175,-2.249418,-0.339339,-1877.368559,-2402.743990,-240.617499,-2046.366035,0.000000,-0.056762,-985.074076,-1256.056525,-1714.426186,-1721.716761,-532.668758,-1879.037010,-2134.121672,-2598.571675,-282.585123,-2242.595543,0.000000,0.099514,-831.410034,-1882.664158,-1814.615752,-1821.890731,-484.093562,-2133.176470,-256.753113,-195.827685,-41.967625,-196.229508,0.000000,0.156276,153.664042,-626.607634,-100.189565,-100.173970,48.575196,-254.139460,532.668758,240.617499,452.405318,271.024178,1015.439026,1181.757428,736.642685,621.312034,1638.419511,6.676163,324.789787,168.997476,1.581768,687.758181,356.279465,523.706980,1968.559207,484.093562,282.585123,347.316472,1051.735774,1600.079035,1330.522190,990.480697,251.457514,1850.591347,6.961295,421.405039,108.473871,-1.549841,783.744800,355.375419,465.395205,1957.717170,-48.575196,41.967625,-105.088845,780.711596,584.640009,148.764761,253.838012,-369.854521,212.171836,0.285132,96.615253,-60.523605,-3.131608,95.986619,-0.904046,-58.311775,-10.842037,0.650000,9.458127,4.000000
122.552572,0.080000,0.140000,0.200000,0.650000,50.000000,1.020000,1.000000,1.000000,1.200000,0.300000,0.320000,0.330000,0.300000,0.800000,0.120000,0.340000,0.130000,0.080000,0.140000,0.200000,37.627266,50.000000,1.020000,1.000000,1.000000,1.200000,0.300000,0.320000,0.330000,0.300000,0.800000,0.120000,0.340000,0.130000,81.598771,41.457164,47.560767,20.419605,4.506526,34.038004,27.141162,24.926132,36.950637,4.717402,31.858564,22.629926,2.296205,29.320602,54.488490,39.246843,123.055935,76.240150,46.312421,39.166086,5.963592,6.016440,37.074065,33.202494,11.980032,40.295981,4.937709,38.140203,16.125247,-4.145214,32.136356,54.265449,36.150767,122.552572,-5.358621,4.855258,-8.394681,-14.456013,1.509914,3.036061,6.061332,-12.946099,3.345344,0.220307,6.281639,-6.504680,-6.441420,2.815753,-0.223041,-3.096076,-0.503363,-1877.368559,-2402.743990,-240.617499,-2046.366035,0.000000,-0.056762,-985.074076,-1256.056525,-1714.426186,-1721.716761,-532.668758,-1879.037010,-2253.676390,-2693.135475,-300.277652,-2339.484171,0.000000,-0.063889,-771.801300,-2110.155218,-1866.980829,-1874.206895,-465.004843,-2248.796976,-376.307831,-290.391486,-59.660153,-293.118136,0.000000,-0.007126,213.272775,-854.098694,-152.554643,-152.490134,67.663915,-369.759966,532.668758,240.617499,452.405318,271.024178,1015.439026,1181.757428,736.642685,621.312034,1638.419511,6.676163,324.789787,168.997476,1.581768,687.758181,356.279465,523.706980,1968.559207,465.004843,300.277652,306.796457,1338.192313,1809.877567,1401.975986,1102.405595,143.521171,1948.519325,7.314290,465.496016,85.807781,-5.154841,826.196291,353.368677,444.338499,1952.487270,-67.663915,59.660153,-145.608860,1067.168136,794.438541,220.218558,365.762910,-477.790863,310.099814,0.638127,140.706230,-83.189695,-6.736608,138.438109,-2.910788,-79.368481,-16.071937,0.650000,36.977266,4.000000
122.468963,0.080000,0.140000,0.200000,0.650000,50.000000,1.020000,1.000000,1.000000,1.200000,0.300000,0.320000,0.330000,0.300000,0.800000,0.120000,0.340000,0.130000,0.080000,0.140000,0.200000,94.652531,50.000000,1.020000,1.000000,1.000000,1.200000,0.300000,0.320000,0.330000,0.300000,0.800000,0.120000,0.340000,0.130000,81.598771,41.457164,47.560767,20.419605,4.506526,34.038004,27.141162,24.926132,36.950637,4.717402,31.858564,22.629926,2.296205,29.320602,54.488490,39.246843,123.055935,75.504496,46.964468,37.957877,3.936804,6.167834,37.546619,34.021073,10.104638,40.796634,5.008639,39.029712,15.128853,-5.024215,32.537980,54.158564,35.772419,122.468963,-6.094276,5.507304,-9.602891,-16.482801,1.661307,3.508615,6.879910,-14.821494,3.845997,0.291237,7.171148,-7.501073,-7.320420,3.217378,-0.329926,-3.474424,-0.586972,-1877.368559,-2402.743990,-240.617499,-2046.366035,0.000000,-0.056762,-985.074076,-1256.056525,-1714.426186,-1721.716761,-532.668758,-1879.037010,-2313.004956,-2741.117411,-308.792573,-2388.536077,0.000000,-0.009748,-744.234386,-2210.901254,-1894.017877,-1901.667770,-456.074307,-2306.030987,-435.636397,-338.373421,-68.175074,-342.170042,0.000000,0.047014,240.839690,-954.844729,-179.591691,-179.951009,76.594451,-426.993978,532.668758,240.617499,452.405318,271.024178,1015.439026,1181.757428,736.642685,621.312034,1638.419511,6.676163,324.789787,168.997476,1.581768,687.758181,356.279465,523.706980,1968.559207,456.074307,308.792573,288.160078,1466.965115,1902.108681,1437.943570,1157.433385,102.103702,1997.238415,7.525939,487.461882,75.531122,-7.572821,846.976121,351.978011,435.086423,1949.824106,-76.594451,68.175074,-164.245240,1195.940937,886.669655,256.186142,420.790699,-519.208332,358.818904,0.849776,162.672096,-93.466354,-9.154589,159.217939,-4.301455,-88.620557,-18.735100,0.650000,94.002531,4.000000
123.233815,0.080000,0.140000,0.200000,0.650000,50.000000,1.020000,1.000000,1.000000,1.200000,0.300000,0.320000,0.330000,0.300000,0.800000,0.120000,0.340000,0.130000,0.080000,0.140000,0.200000,0.650000,6.047722,1.020000,1.000000,1.000000,1.200000,0.300000,0.320000,0.330000,0.300000,0.800000,0.120000,0.340000,0.130000,81.598771,41.457164,47.560767,20.419605,4.506526,34.038004,27.141162,24.926132,36.950637,4.717402,31.858564,22.629926,2.296205,29.320602,54.488490,39.246843,123.055935,77.156685,46.077129,43.756939,16.178258,11.001750,33.399746,27.578681,27.180008,35.075379,4.134658,31.713339,22.919414,4.260594,29.265088,54.632753,39.335973,123.233815,-4.442086,4.619965,-3.803828,-4.241347,6.495224,-0.638258,0.437519,2.253877,-1.875258,-0.582744,-0.145225,0.289488,1.964389,-0.055514,0.144263,0.089131,0.177880,-1877.368559,-2402.743990,-240.617499,-2046.366035,0.000000,-0.056762,-985.074076,-1256.056525,-1714.426186,-1721.716761,-532.668758,-1879.037010,-1767.994379,-2299.661301,-297.234256,-1941.343227,0.000000,-0.076390,-859.186275,-1029.241533,-1614.106241,-1619.769926,-476.252329,-1773.572913,109.374180,103.082688,-56.616757,105.022808,0.000000,-0.019628,125.887801,226.814991,100.319946,101.946835,56.416429,105.464097,532.668758,240.617499,452.405318,271.024178,1015.439026,1181.757428,736.642685,621.312034,1638.419511,6.676163,324.789787,168.997476,1.581768,687.758181,356.279465,523.706980,1968.559207,476.252329,297.234256,382.933946,170.128423,732.007277,1137.853912,760.583651,738.752846,1476.338657,5.128619,321.835477,173.348848,5.445799,685.156322,358.168523,526.088388,1974.254498,-56.416429,56.616757,-69.471372,-100.895755,-283.431749,-43.903517,23.940966,117.440812,-162.080854,-1.547545,-2.954310,4.351372,3.864031,-2.601859,1.889058,2.381408,5.695291,50.000000,-43.952278,5.000000
123.115093,0.080000,0.140000,0.200000,0.650000,50.000000,1.020000,1.000000,1.000000,1.200000,0.300000,0.320000,0.330000,0.300000,0.800000,0.120000,0.340000,0.130000,0.080000,0.140000,0.200000,0.650000,21.446149,1.020000,1.000000,1.000000,1.200000,0.300000,0.320000,0.330000,0.300000,0.800000,0.120000,0.340000,0.130000,81.598771,41.457164,47.560767,20.419605,4.506526,34.038004,27.141162,24.926132,36.950637,4.717402,31.858564,22.629926,2.296205,29.320602,54.488490,39.246843,123.055935,80.198526,42.916567,46.375020,19.107462,6.564149,33.823506,27.267558,25.671612,36.352418,4.528950,31.796508,22.734898,2.936714,29.294556,54.531406,39.289132,123.115093,-1.400245,1.459404,-1.185747,-1.312143,2.057623,-0.214498,0.126396,0.745480,-0.598219,-0.188451,-0.062056,0.104971,0.640509,-0.026047,0.042916,0.042289,0.059158,-1877.368559,-2402.743990,-240.617499,-2046.366035,0.000000,-0.056762,-985.074076,-1256.056525,-1714.426186,-1721.716761,-532.668758,-1879.037010,-1840.960959,-2368.490606,-257.856445,-2011.529900,0.000000,-0.064498,-944.672787,-1181.929311,-1681.454421,-1688.192492,-514.544286,-1843.654402,36.407600,34.253384,-17.238946,34.836135,0.000000,-0.007736,40.401289,74.127214,32.971766,33.524269,18.124472,35.382608,532.668758,240.617499,452.405318,271.024178,1015.439026,1181.757428,736.642685,621.312034,1638.419511,6.676163,324.789787,168.997476,1.581768,687.758181,356.279465,523.706980,1968.559207,514.544286,257.856445,430.128500,237.311830,924.072866,1166.910134,743.519706,659.031648,1585.797958,6.153417,323.525733,170.568940,2.587287,686.536791,356.840905,524.836204,1970.452406,-18.124472,17.238946,-22.276817,-33.712348,-91.366159,-14.847294,6.877020,37.719614,-52.621553,-0.522746,-1.264054,1.571464,1.005519,-1.221390,0.561439,1.129224,1.893199,50.000000,-28.553851,5.000000
123.025240,0.080000,0.140000,0.200000,0.650000,50.000000,1.020000,1.000000,1.000000,1.200000,0.300000,0.320000,0.330000,0.300000,0.800000,0.120000,0.340000,0.130000,0.080000,0.140000,0.200000,0.650000,88.026710,1.020000,1.000000,1.000000,1.200000,0.300000,0.320000,0.330000,0.300000,0.800000,0.120000,0.340000,0.130000,81.598771,41.457164,47.560767,20.419605,4.506526,34.038004,27.141162,24.926132,36.950637,4.717402,31.858564,22.629926,2.296205,29.320602,54.488490,39.246843,123.055935,82.299650,40.725590,48.149835,21.067755,3.473090,34.149815,27.082080,24.540846,37.252499,4.813176,31.895256,22.572783,1.968062,29.336640,54.468039,39.220562,123.025240,0.700879,-0.731574,0.589068,0.648150,-1.033436,0.111811,-0.059082,-0.385286,0.301862,0.095774,0.036692,-0.057143,-0.328143,0.016037,-0.020451,-0.026281,-0.030695,-1877.368559,-2402.743990,-240.617499,-2046.366035,0.000000,-0.056762,-985.074076,-1256.056525,-1714.426186,-1721.716761,-532.668758,-1879.037010,-1896.263054,-2420.504574,-232.200311,-2064.408133,0.000000,-0.051694,-1005.539927,-1294.009951,-1731.392667,-1738.978997,-541.858598,-1897.498742,-18.894495,-17.760584,8.417188,-18.042098,0.000000,0.005068,-20.465851,-37.953426,-16.966481,-17.262236,-9.189840,-18.461732,532.668758,240.617499,452.405318,271.024178,1015.439026,1181.757428,736.642685,621.312034,1638.419511,6.676163,324.789787,168.997476,1.581768,687.758181,356.279465,523.706980,1968.559207,541.858598,232.200311,463.681329,288.502699,1061.809640,1189.534069,733.439070,602.253103,1665.298431,6.949998,325.538349,168.145079,1.161981,688.510737,356.012072,523.005833,1967.577261,9.189840,-8.417188,11.276012,17.478522,46.370614,7.776641,-3.203616,-19.058931,26.878920,0.273834,0.748563,-0.852397,-0.419787,0.752555,-0.267393,-0.701147,-0.981946,50.000000,38.026710,5.000000
123.029625,0.080000,0.140000,0.200000,0.650000,50.000000,1.020000,1.000000,1.000000,1.200000,0.300000,0.320000,0.330000,0.300000,0.800000,0.120000,0.340000,0.130000,0.080000,0.140000,0.200000,0.650000,80.551855,1.020000,1.000000,1.000000,1.200000,0.300000,0.320000,0.330000,0.300000,0.800000,0.120000,0.340000,0.130000,81.598771,41.457164,47.560767,20.419605,4.506526,34.038004,27.141162,24.926132,36.950637,4.717402,31.858564,22.629926,2.296205,29.320602,54.488490,39.246843,123.055935,82.200528,40.829097,48.066703,20.976440,3.619388,34.133826,27.090263,24.595828,37.209709,4.799576,31.889839,22.581048,2.014779,29.334250,54.470887,39.224489,123.029625,0.601757,-0.628067,0.505935,0.556835,-0.887139,0.095822,-0.050899,-0.330304,0.259072,0.082175,0.031275,-0.048878,-0.281426,0.013647,-0.017603,-0.022354,-0.026310,-1877.368559,-2402.743990,-240.617499,-2046.366035,0.000000,-0.056762,-985.074076,-1256.056525,-1714.426186,-1721.716761,-532.668758,-1879.037010,-1893.563555,-2417.967648,-233.382122,-2061.831787,0.000000,-0.052476,-1002.635731,-1288.608819,-1728.974582,-1736.518066,-540.554151,-1894.857074,-16.194996,-15.223658,7.235377,-15.465752,0.000000,0.004286,-17.561655,-32.552294,-14.548396,-14.801305,-7.885393,-15.820065,532.668758,240.617499,452.405318,271.024178,1015.439026,1181.757428,736.642685,621.312034,1638.419511,6.676163,324.789787,168.997476,1.581768,687.758181,356.279465,523.706980,1968.559207,540.554151,233.382122,462.081580,286.007169,1055.226697,1188.420431,733.882335,604.954736,1661.474952,6.910780,325.427786,168.268233,1.217801,688.398562,356.049306,523.110574,1967.717536,7.885393,-7.235377,9.676262,14.982991,39.787671,6.663003,-2.760350,-16.357299,23.055441,0.234616,0.637999,-0.729243,-0.363967,0.640380,-0.230160,-0.596406,-0.841671,50.000000,30.551855,5.000000
123.288109,0.080000,0.140000,0.200000,0.650000,50.000000,1.020000,1.000000,1.000000,1.200000,0.300000,0.320000,0.330000,0.300000,0.800000,0.120000,0.340000,0.130000,0.080000,0.140000,0.200000,0.650000,3.671851,1.020000,1.000000,1.000000,1.200000,0.300000,0.320000,0.330000,0.300000,0.800000,0.120000,0.340000,0.130000,81.598771,41.457164,47.560767,20.419605,4.506526,34.038004,27.141162,24.926132,36.950637,4.717402,31.858564,22.629926,2.296205,29.320602,54.488490,39.246843,123.055935,75.638372,47.649737,42.427793,14.676125,13.199888,33.210579,27.751668,27.876013,34.449850,3.946573,31.698241,22.988525,4.887487,29.264006,54.686766,39.337337,123.288109,-5.960399,6.192574,-5.132975,-5.743480,8.693361,-0.827425,0.610506,2.949881,-2.500787,-0.770829,-0.160323,0.358599,2.591282,-0.056596,0.198276,0.090495,0.232174,-1877.368559,-2402.743990,-240.617499,-2046.366035,0.000000,-0.056762,-985.074076,-1256.056525,-1714.426186,-1721.716761,-532.668758,-1879.037010,-1734.714106,-2268.145098,-317.869646,-1909.109964,0.000000,-0.080868,-817.716584,-957.642022,-1582.694474,-1587.871645,-457.693063,-1742.020226,142.654453,134.598892,-77.252147,137.256071,0.000000,-0.024106,167.357492,298.414503,131.731713,133.845116,74.975695,137.016784,532.668758,240.617499,452.405318,271.024178,1015.439026,1181.757428,736.642685,621.312034,1638.419511,6.676163,324.789787,168.997476,1.581768,687.758181,356.279465,523.706980,1968.559207,457.693063,317.869646,360.023521,140.002621,639.772376,1125.001410,770.155061,777.072084,1424.150580,4.672632,321.529109,174.395858,7.166260,685.105639,358.877086,526.124872,1975.994524,-74.975695,77.252147,-92.381797,-131.021557,-375.666650,-56.756018,33.512376,155.760050,-214.268931,-2.003532,-3.260678,5.398382,5.584492,-2.652542,2.597620,2.417892,7.435317,50.000000,-46.328149,5.000000
123.086710,0.080000,0.140000,0.200000,0.650000,50.000000,1.020000,1.000000,1.000000,1.200000,0.300000,0.320000,0.330000,0.300000,0.800000,0.120000,0.340000,0.130000,0.080000,0.140000,0.200000,0.650000,31.257539,1.020000,1.000000,1.000000,1.200000,0.300000,0.320000,0.330000,0.300000,0.800000,0.120000,0.340000,0.130000,81.598771,41.457164,47.560767,20.419605,4.506526,34.038004,27.141162,24.926132,36.950637,4.717402,31.858564,22.629926,2.296205,29.320602,54.488490,39.246843,123.055935,80.878820,42.207890,46.952600,19.747821,5.565640,33.926220,27.204779,25.313461,36.642250,4.620005,31.824783,22.685444,2.628018,29.306216,54.510227,39.270268,123.086710,-0.719951,0.750726,-0.608168,-0.671784,1.059114,-0.111784,0.063616,0.387330,-0.308387,-0.097397,-0.033780,0.055517,0.331813,-0.014387,0.021737,0.023425,0.030775,-1877.368559,-2402.743990,-240.617499,-2046.366035,0.000000,-0.056762,-985.074076,-1256.056525,-1714.426186,-1721.716761,-532.668758,-1879.037010,-1858.426695,-2384.928538,-249.410839,-2028.254380,0.000000,-0.061061,-964.220006,-1217.655369,-1697.318878,-1704.319988,-523.310682,-1860.596206,18.941864,17.815452,-8.793340,18.111655,0.000000,-0.004299,20.854070,38.401155,17.107309,17.396773,9.358076,18.440804,532.668758,240.617499,452.405318,271.024178,1015.439026,1181.757428,736.642685,621.312034,1638.419511,6.676163,324.789787,168.997476,1.581768,687.758181,356.279465,523.706980,1968.559207,523.310682,249.410839,440.909323,253.484682,968.244530,1174.008195,740.099983,640.771326,1611.185367,6.403333,324.101386,169.827685,2.071943,687.083424,356.563780,524.332333,1969.543970,-9.358076,8.793340,-11.495994,-17.539495,-47.194496,-7.749233,3.457297,19.459291,-27.234144,-0.272830,-0.688400,0.830209,0.490176,-0.674757,0.284314,0.625353,0.984763,50.000000,-18.742461,5.000000
123.032899,0.080000,0.140000,0.200000,0.650000,50.000000,1.020000,1.000000,1.000000,1.200000,0.300000,0.320000,0.330000,0.300000,0.800000,0.120000,0.340000,0.130000,0.080000,0.140000,0.200000,0.650000,75.536949,1.020000,1.000000,1.000000,1.200000,0.300000,0.320000,0.330000,0.300000,0.800000,0.120000,0.340000,0.130000,81.598771,41.457164,47.560767,20.419605,4.506526,34.038004,27.141162,24.926132,36.950637,4.717402,31.858564,22.629926,2.296205,29.320602,54.488490,39.246843,123.055935,82.126326,40.906573,48.004432,20.908006,3.728875,34.121894,27.096426,24.636881,37.177698,4.789407,31.885833,22.587196,2.049685,29.332487,54.473029,39.227383,123.032899,0.527555,-0.550591,0.443664,0.488401,-0.777652,0.083890,-0.044736,-0.289251,0.227061,0.072006,0.027269,-0.042730,-0.246520,0.011884,-0.015461,-0.019460,-0.023036,-1877.368559,-2402.743990,-240.617499,-2046.366035,0.000000,-0.056762,-985.074076,-1256.056525,-1714.426186,-1721.716761,-532.668758,-1879.037010,-1891.548620,-2416.073942,-234.268679,-2059.908489,0.000000,-0.053046,-1000.463765,-1284.572726,-1727.168401,-1734.680052,-539.578671,-1892.886166,-14.180061,-13.329952,6.348820,-13.542454,0.000000,0.003716,-15.389689,-28.516202,-12.742215,-12.963291,-6.909913,-13.849156,532.668758,240.617499,452.405318,271.024178,1015.439026,1181.757428,736.642685,621.312034,1638.419511,6.676163,324.789787,168.997476,1.581768,687.758181,356.279465,523.706980,1968.559207,539.578671,234.268679,460.885093,284.144064,1050.304047,1187.589730,734.216288,606.975894,1658.617487,6.881527,325.346031,168.359869,1.260362,688.315827,356.077306,523.187776,1967.822243,6.909913,-6.348820,8.479776,13.119887,34.865022,5.832302,-2.426398,-14.336140,20.197976,0.205363,0.556244,-0.637607,-0.321405,0.557645,-0.202160,-0.519204,-0.736964,50.000000,25.536949,5.000000
123.066639,0.080000,0.140000,0.200000,0.650000,50.000000,1.020000,1.000000,1.000000,1.200000,0.300000,0.320000,0.330000,0.300000,0.800000,0.120000,0.340000,0.130000,0.080000,0.140000,0.200000,0.650000,42.087776,1.020000,1.000000,1.000000,1.200000,0.300000,0.320000,0.330000,0.300000,0.800000,0.120000,0.340000,0.130000,81.598771,41.457164,47.560767,20.419605,4.506526,34.038004,27.141162,24.926132,36.950637,4.717402,31.858564,22.629926,2.296205,29.320602,54.488490,39.246843,123.055935,81.350369,41.716270,47.351289,20.188509,4.872227,33.999081,27.162780,25.060736,36.844043,4.683681,31.846461,22.649448,2.411288,29.315400,54.495909,39.255331,123.066639,-0.248402,0.259106,-0.209479,-0.231096,0.365701,-0.038923,0.021618,0.134604,-0.106595,-0.033721,-0.012103,0.019522,0.115083,-0.005202,0.007419,0.008488,0.010704,-1877.368559,-2402.743990,-240.617499,-2046.366035,0.000000,-0.056762,-985.074076,-1256.056525,-1714.426186,-1721.716761,-532.668758,-1879.037010,-1870.779815,-2396.548321,-243.634603,-2040.068988,0.000000,-0.058334,-977.859516,-1242.739330,-1708.486857,-1715.676121,-529.430609,-1872.614785,6.588744,6.195669,-3.017104,6.297047,0.000000,-0.001572,7.214560,13.317195,5.939329,6.040641,3.238149,6.422224,532.668758,240.617499,452.405318,271.024178,1015.439026,1181.757428,736.642685,621.312034,1638.419511,6.676163,324.789787,168.997476,1.581768,687.758181,356.279465,523.706980,1968.559207,529.430609,243.634603,448.428907,264.924328,999.104727,1179.056248,737.816605,628.040485,1628.980182,6.581060,324.543056,169.289173,1.744293,687.514145,356.376485,523.933535,1968.901701,-3.238149,3.017104,-3.976411,-6.099849,-16.334299,-2.701180,1.173919,6.728450,-9.439329,-0.095104,-0.246731,0.291697,0.162525,-0.244036,0.097020,0.226555,0.342494,50.000000,-7.912224,5.000000
123.083445,0.080000,0.140000,0.200000,0.650000,50.000000,1.020000,1.000000,1.000000,1.200000,0.300000,0.320000,0.330000,0.300000,0.800000,0.120000,0.340000,0.130000,0.080000,0.140000,0.200000,0.650000,32.741989,1.020000,1.000000,1.000000,1.200000,0.300000,0.320000,0.330000,0.300000,0.800000,0.120000,0.340000,0.130000,81.598771,41.457164,47.560767,20.419605,4.506526,34.038004,27.141162,24.926132,36.950637,4.717402,31.858564,22.629926,2.296205,29.320602,54.488490,39.246843,123.055935,80.956049,42.127396,47.017989,19.820174,5.452147,33.938061,27.197814,25.272321,36.675249,4.630403,31.828217,22.679644,2.592677,29.307658,54.507861,39.267926,123.083445,-0.642722,0.670232,-0.542778,-0.599431,0.945621,-0.099943,0.056652,0.346190,-0.275388,-0.086999,-0.030347,0.049718,0.296472,-0.012944,0.019371,0.021084,0.027510,-1877.368559,-2402.743990,-240.617499,-2046.366035,0.000000,-0.056762,-985.074076,-1256.056525,-1714.426186,-1721.716761,-532.668758,-1879.037010,-1860.436018,-2386.818919,-248.460449,-2030.176882,0.000000,-0.060636,-966.448809,-1221.745788,-1699.138345,-1706.169922,-524.310554,-1862.549107,16.932541,15.925071,-7.842950,16.189153,0.000000,-0.003874,18.625267,34.310736,15.287841,15.546839,8.358204,16.487903,532.668758,240.617499,452.405318,271.024178,1015.439026,1181.757428,736.642685,621.312034,1638.419511,6.676163,324.789787,168.997476,1.581768,687.758181,356.279465,523.706980,1968.559207,524.310554,248.460449,442.138255,255.345552,973.285339,1174.827791,739.721114,638.690230,1614.088658,6.432188,324.171328,169.740864,2.016593,687.151053,356.532830,524.269811,1969.439487,-8.358204,7.842950,-10.267063,-15.678626,-42.153686,-6.929637,3.078428,17.378196,-24.330853,-0.243975,-0.618459,0.743388,0.434825,-0.607128,0.253365,0.562831,0.880280,50.000000,-17.258011,5.000000
121.217093,0.080000,0.140000,0.200000,0.650000,50.000000,1.020000,1.000000,1.000000,1.200000,0.300000,0.320000,0.330000,0.300000,0.800000,0.120000,0.340000,0.130000,0.080000,0.140000,0.200000,0.650000,50.000000,167.655799,1.000000,1.000000,1.200000,0.300000,0.320000,0.330000,0.300000,0.800000,0.120000,0.340000,0.130000,81.598771,41.457164,47.560767,20.419605,4.506526,34.038004,27.141162,24.926132,36.950637,4.717402,31.858564,22.629926,2.296205,29.320602,54.488490,39.246843,123.055935,71.029561,50.187532,67.056260,26.491893,5.303479,3.973301,40.564368,31.795372,44.884053,-18.469646,22.094721,31.839271,-0.043899,22.442947,53.933992,44.840154,121.217093,-10.569210,8.730368,19.495493,6.072288,0.796953,-30.064703,13.423205,6.869240,7.933416,-23.187048,-9.763842,9.209344,-2.340104,-6.877655,-0.554498,5.593311,-1.838842,-1877.368559,-2402.743990,-240.617499,-2046.366035,0.000000,-0.056762,-985.074076,-1256.056525,-1714.426186,-1721.716761,-532.668758,-1879.037010,-2769.920492,-3453.741608,-352.630369,-3104.454412,0.000000,-0.089420,-1302.924299,-1758.974828,-3050.418433,-2948.392215,-403.615888,-2770.124209,-892.551933,-1050.997618,-112.012870,-1058.088377,0.000000,-0.032658,-317.850223,-502.918303,-1335.992247,-1226.675454,129.052870,-891.087199,532.668758,240.617499,452.405318,271.024178,1015.439026,1181.757428,736.642685,621.312034,1638.419511,6.676163,324.789787,168.997476,1.581768,687.758181,356.279465,523.706980,1968.559207,403.615888,352.630369,899.308410,456.183249,1406.344459,2646.802545,1645.467916,1010.945664,2417.493840,-102.338350,156.216548,334.533920,-0.000578,402.948709,349.065058,683.617399,1910.165882,-129.052870,112.012870,446.903093,185.159071,390.905433,1465.045117,908.825231,389.633630,779.074329,-109.014513,-168.573239,165.536444,-1.582346,-284.809472,-7.214407,159.910419,-58.393325,1.020000,166.635799,6.000000
121.369378,0.080000,0.140000,0.200000,0.650000,50.000000,1.020000,1.000000,1.000000,1.200000,0.300000,0.320000,0.330000,0.300000,0.800000,0.120000,0.340000,0.130000,0.080000,0.140000,0.200000,0.650000,50.000000,68.540009,1.000000,1.000000,1.200000,0.300000,0.320000,0.330000,0.300000,0.800000,0.120000,0.340000,0.130000,81.598771,41.457164,47.560767,20.419605,4.506526,34.038004,27.141162,24.926132,36.950637,4.717402,31.858564,22.629926,2.296205,29.320602,54.488490,39.246843,123.055935,71.831632,49.537746,65.757691,26.048273,5.244019,6.073941,39.709418,31.292292,44.293727,-17.015779,22.693639,31.200863,0.091428,23.089720,53.894503,44.385156,121.369378,-9.767140,8.080583,18.196923,5.628668,0.737492,-27.964063,12.568256,6.366160,7.343090,-21.733180,-9.164924,8.570937,-2.204777,-6.230883,-0.593987,5.138313,-1.686557,-1877.368559,-2402.743990,-240.617499,-2046.366035,0.000000,-0.056762,-985.074076,-1256.056525,-1714.426186,-1721.716761,-532.668758,-1879.037010,-2697.752589,-3367.693807,-343.558364,-3019.005569,0.000000,-0.048645,-1277.597441,-1718.545073,-2941.412800,-2854.435311,-412.782666,-2697.879513,-820.384030,-964.949817,-102.940865,-972.639534,0.000000,0.008117,-292.523366,-462.488548,-1226.986614,-1132.718550,119.886092,-818.842503,532.668758,240.617499,452.405318,271.024178,1015.439026,1181.757428,736.642685,621.312034,1638.419511,6.676163,324.789787,168.997476,1.581768,687.758181,356.279465,523.706980,1968.559207,412.782666,343.558364,864.814776,441.033133,1374.986709,2528.630134,1576.837870,979.207516,2354.321149,-86.861016,164.800406,321.252980,0.002508,426.508122,348.554092,669.814295,1914.968372,-119.886092,102.940865,412.409458,170.008956,359.547683,1346.872706,840.195184,357.895482,715.901638,-93.537179,-159.989381,152.255504,-1.579260,-261.250060,-7.725373,146.107315,-53.590835,1.020000,67.520009,6.000000
123.023486,0.080000,0.140000,0.200000,0.650000,50.000000,1.020000,1.000000,1.000000,1.200000,0.300000,0.320000,0.330000,0.300000,0.800000,0.120000,0.340000,0.130000,0.080000,0.140000,0.200000,0.650000,91.287641,1.020000,1.000000,1.000000,1.200000,0.300000,0.320000,0.330000,0.300000,0.800000,0.120000,0.340000,0.130000,81.598771,41.457164,47.560767,20.419605,4.506526,34.038004,27.141162,24.926132,36.950637,4.717402,31.858564,22.629926,2.296205,29.320602,54.488490,39.246843,123.055935,82.339194,40.684292,48.182985,21.104153,3.414713,34.156210,27.078832,24.518866,37.269579,4.818606,31.897438,22.569469,1.949396,29.337604,54.466907,39.218975,123.023486,0.740423,-0.772872,0.622217,0.684547,-1.091813,0.118206,-0.062330,-0.407266,0.318942,0.101204,0.038874,-0.060457,-0.346809,0.017002,-0.021583,-0.027867,-0.032448,-1877.368559,-2402.743990,-240.617499,-2046.366035,0.000000,-0.056762,-985.074076,-1256.056525,-1714.426186,-1721.716761,-532.668758,-1879.037010,-1897.342521,-2421.518981,-231.729627,-2065.438231,0.000000,-0.051376,-1006.699434,-1296.167749,-1732.359044,-1739.962574,-542.379435,-1898.555450,-19.973962,-18.774991,8.887872,-19.072196,0.000000,0.005387,-21.625359,-40.111224,-17.932857,-18.245813,-9.710677,-19.518440,532.668758,240.617499,452.405318,271.024178,1015.439026,1181.757428,736.642685,621.312034,1638.419511,6.676163,324.789787,168.997476,1.581768,687.758181,356.279465,523.706980,1968.559207,542.379435,231.729627,464.319999,289.500416,1064.438122,1189.979609,733.263140,601.174772,1666.825823,6.965688,325.582889,168.095710,1.140044,688.556016,355.997273,522.963531,1967.521170,9.710677,-8.887872,11.914682,18.476239,48.999096,8.222180,-3.379546,-20.137262,28.406312,0.289525,0.793103,-0.901766,-0.441724,0.797835,-0.282192,-0.743449,-1.038037,50.000000,41.287641,5.000000
121.210329,0.080000,0.140000,0.200000,0.650000,50.000000,1.020000,1.000000,1.000000,1.200000,0.300000,0.320000,0.330000,0.300000,0.800000,0.120000,0.340000,0.130000,0.080000,0.140000,0.200000,0.650000,50.000000,176.070428,1.000000,1.000000,1.200000,0.300000,0.320000,0.330000,0.300000,0.800000,0.120000,0.340000,0.130000,81.598771,41.457164,47.560767,20.419605,4.506526,34.038004,27.141162,24.926132,36.950637,4.717402,31.858564,22.629926,2.296205,29.320602,54.488490,39.246843,123.055935,70.994153,50.216176,67.113136,26.511389,5.306093,3.881017,40.601747,31.817482,44.910083,-18.532917,22.068830,31.867220,-0.049738,22.413934,53.936050,44.860345,121.210329,-10.604619,8.759012,19.552369,6.091784,0.799566,-30.156987,13.460585,6.891350,7.959446,-23.250318,-9.789734,9.237294,-2.345944,-6.906669,-0.552440,5.613502,-1.845606,-1877.368559,-2402.743990,-240.617499,-2046.366035,0.000000,-0.056762,-985.074076,-1256.056525,-1714.426186,-1721.716761,-532.668758,-1879.037010,-2773.116135,-3457.564868,-353.033004,-3108.237640,0.000000,-0.096405,-1304.048182,-1760.763993,-3055.237543,-2952.550041,-403.213577,-2773.331685,-895.747576,-1054.820878,-112.415505,-1061.871605,0.000000,-0.039643,-318.974106,-504.707469,-1340.811356,-1230.833280,129.455181,-894.294675,532.668758,240.617499,452.405318,271.024178,1015.439026,1181.757428,736.642685,621.312034,1638.419511,6.676163,324.789787,168.997476,1.581768,687.758181,356.279465,523.706980,1968.559207,403.213577,353.033004,900.834605,456.854935,1407.730989,2652.023965,1648.501859,1012.352142,2420.298681,-103.040702,155.850645,335.121505,-0.000742,401.907532,349.091701,684.233183,1909.952687,-129.455181,112.415505,448.429287,185.830758,392.291963,1470.266537,911.859173,391.040108,781.879170,-109.716865,-168.939142,166.124029,-1.582510,-285.850649,-7.187764,160.526203,-58.606520,1.020000,175.050428,6.000000
121.239783,0.080000,0.140000,0.200000,0.650000,50.000000,1.020000,1.000000,1.000000,1.200000,0.300000,0.320000,0.330000,0.300000,0.800000,0.120000,0.340000,0.130000,0.080000,0.140000,0.200000,0.650000,50.000000,143.301599,1.000000,1.000000,1.200000,0.300000,0.320000,0.330000,0.300000,0.800000,0.120000,0.340000,0.130000,81.598771,41.457164,47.560767,20.419605,4.506526,34.038004,27.141162,24.926132,36.950637,4.717402,31.858564,22.629926,2.296205,29.320602,54.488490,39.246843,123.055935,71.148454,50.091329,66.865021,26.426369,5.294694,4.283433,40.438652,31.721063,44.796635,-18.256653,22.182000,31.745272,-0.024208,22.540085,53.927271,44.772426,121.239783,-10.450317,8.634165,19.304254,6.006764,0.788168,-29.754571,13.297490,6.794932,7.845997,-22.974054,-9.676564,9.115345,-2.320414,-6.780517,-0.561219,5.525584,-1.816152,-1877.368559,-2402.743990,-240.617499,-2046.366035,0.000000,-0.056762,-985.074076,-1256.056525,-1714.426186,-1721.716761,-532.668758,-1879.037010,-2759.194965,-3440.919786,-351.279770,-3091.756515,0.000000,-0.070435,-1299.154420,-1752.969099,-3034.236823,-2934.439008,-404.968203,-2759.365932,-881.826406,-1038.175796,-110.662271,-1045.390480,0.000000,-0.013673,-314.080345,-496.912574,-1319.810637,-1212.722247,127.700555,-880.328922,532.668758,240.617499,452.405318,271.024178,1015.439026,1181.757428,736.642685,621.312034,1638.419511,6.676163,324.789787,168.997476,1.581768,687.758181,356.279465,523.706980,1968.559207,404.968203,351.279770,894.186217,453.929445,1401.689329,2629.268620,1635.284587,1006.225866,2408.086162,-99.991609,157.453154,332.561550,-0.000176,406.444360,348.978070,681.553854,1910.881047,-127.700555,110.662271,441.780900,182.905267,386.250303,1447.511192,898.641902,384.913832,769.666650,-106.667772,-167.336633,163.564074,-1.581943,-281.313822,-7.301395,157.846874,-57.678160,1.020000,142.281599,6.000000
121.653354,0.080000,0.140000,0.200000,0.650000,50.000000,1.020000,1.000000,1.000000,1.200000,0.300000,0.320000,0.330000,0.300000,0.800000,0.120000,0.340000,0.130000,0.080000,0.140000,0.200000,0.650000,50.000000,22.457523,1.000000,1.000000,1.200000,0.300000,0.320000,0.330000,0.300000,0.800000,0.120000,0.340000,0.130000,81.598771,41.457164,47.560767,20.419605,4.506526,34.038004,27.141162,24.926132,36.950637,4.717402,31.858564,22.629926,2.296205,29.320602,54.488490,39.246843,123.055935,73.356814,48.296540,63.225330,25.197176,5.130392,10.131484,38.028155,30.327567,43.166149,-14.131235,23.896919,29.961758,0.365809,24.262719,53.858677,43.531958,121.653354,-8.241957,6.839377,15.664563,4.777571,0.623865,-23.906520,10.886992,5.401436,6.215511,-18.848637,-7.961644,7.331832,-1.930396,-5.057883,-0.629813,4.285116,-1.402581,-1877.368559,-2402.743990,-240.617499,-2046.366035,0.000000,-0.056762,-985.074076,-1256.056525,-1714.426186,-1721.716761,-532.668758,-1879.037010,-2562.365051,-3206.848151,-326.557812,-2858.608341,0.000000,-0.082925,-1229.986256,-1642.603707,-2735.694302,-2676.126799,-430.497775,-2562.537483,-684.996492,-804.104161,-85.940314,-812.242306,0.000000,-0.026163,-244.912180,-386.547183,-1021.268115,-954.410038,102.170983,-683.500473,532.668758,240.617499,452.405318,271.024178,1015.439026,1181.757428,736.642685,621.312034,1638.419511,6.676163,324.789787,168.997476,1.581768,687.758181,356.279465,523.706980,1968.559207,430.497775,326.557812,799.488481,412.683484,1316.045895,2305.196527,1446.140543,919.761343,2235.979671,-59.907543,182.740082,296.243290,0.040145,470.943626,348.090855,644.310668,1923.940024,-102.170983,85.940314,347.083163,141.659306,300.606869,1123.439099,709.497858,298.449309,597.560160,-66.583706,-142.049705,127.245814,-1.541623,-216.814555,-8.188611,120.603688,-44.619183,1.020000,21.437523,6.000000
121.265225,0.080000,0.140000,0.200000,0.650000,50.000000,1.020000,1.000000,1.000000,1.200000,0.300000,0.320000,0.330000,0.300000,0.800000,0.120000,0.340000,0.130000,0.080000,0.140000,0.200000,0.650000,50.000000,121.610443,1.000000,1.000000,1.200000,0.300000,0.320000,0.330000,0.300000,0.800000,0.120000,0.340000,0.130000,81.598771,41.457164,47.560767,20.419605,4.506526,34.038004,27.141162,24.926132,36.950637,4.717402,31.858564,22.629926,2.296205,29.320602,54.488490,39.246843,123.055935,71.282015,49.983210,66.649688,26.352658,5.284812,4.632328,40.297030,31.637469,44.698399,-18.016358,22.280672,31.639402,-0.001933,22.648685,53.920074,44.696466,121.265225,-10.316756,8.526047,19.088920,5.933052,0.778285,-29.405676,13.155868,6.711338,7.747762,-22.733759,-9.577891,9.009475,-2.298138,-6.671917,-0.568416,5.449624,-1.790710,-1877.368559,-2402.743990,-240.617499,-2046.366035,0.000000,-0.056762,-985.074076,-1256.056525,-1714.426186,-1721.716761,-532.668758,-1879.037010,-2747.156092,-3426.544401,-349.764984,-3077.503166,0.000000,-0.056054,-1294.926225,-1746.226637,-3016.062657,-2918.776848,-406.490054,-2747.301208,-869.787533,-1023.800411,-109.147485,-1031.137131,0.000000,0.000708,-309.852149,-490.170113,-1301.636471,-1197.060087,126.178704,-868.264199,532.668758,240.617499,452.405318,271.024178,1015.439026,1181.757428,736.642685,621.312034,1638.419511,6.676163,324.789787,168.997476,1.581768,687.758181,356.279465,523.706980,1968.559207,406.490054,349.764984,888.436171,451.400666,1396.461653,2609.572603,1623.850624,1000.929455,2397.536224,-97.376741,158.857077,330.347074,-0.000001,410.370346,348.884927,679.243193,1911.683136,-126.178704,109.147485,436.030853,180.376489,381.022627,1427.815175,887.207938,379.617421,759.116713,-104.052905,-165.932710,161.349598,-1.581769,-277.387835,-7.394538,155.536213,-56.876071,1.020000,120.590443,6.000000
121.462151,0.080000,0.140000,0.200000,0.650000,50.000000,1.020000,1.000000,1.000000,1.200000,0.300000,0.320000,0.330000,0.300000,0.800000,0.120000,0.340000,0.130000,0.080000,0.140000,0.200000,0.650000,50.000000,45.130538,1.000000,1.000000,1.200000,0.300000,0.320000,0.330000,0.300000,0.800000,0.120000,0.340000,0.130000,81.598771,41.457164,47.560767,20.419605,4.506526,34.038004,27.141162,24.926132,36.950637,4.717402,31.858564,22.629926,2.296205,29.320602,54.488490,39.246843,123.055935,72.325313,49.136838,64.948032,25.773537,5.207247,7.377281,39.174495,30.980784,43.929591,-16.100469,23.074025,30.803138,0.177646,23.477750,53.877164,44.107237,121.462151,-9.273459,7.679674,17.387265,5.353932,0.700720,-26.660723,12.033332,6.054652,6.978954,-20.817871,-8.784538,8.173212,-2.118559,-5.842853,-0.611326,4.860395,-1.593784,-1877.368559,-2402.743990,-240.617499,-2046.366035,0.000000,-0.056762,-985.074076,-1256.056525,-1714.426186,-1721.716761,-532.668758,-1879.037010,-2653.599893,-3315.243300,-338.020040,-2966.714890,0.000000,-0.085140,-1262.125437,-1693.790914,-2874.672660,-2796.766457,-418.476067,-2653.790851,-776.231334,-912.499310,-97.402542,-920.348855,0.000000,-0.028378,-277.051361,-437.734389,-1160.246474,-1075.049696,114.192691,-774.753841,532.668758,240.617499,452.405318,271.024178,1015.439026,1181.757428,736.642685,621.312034,1638.419511,6.676163,324.789787,168.997476,1.581768,687.758181,356.279465,523.706980,1968.559207,418.476067,338.020040,843.649369,431.778899,1355.770874,2456.196593,1534.641020,959.808979,2315.770810,-77.767533,170.371406,313.114997,0.009467,440.963793,348.329850,661.452449,1917.897027,-114.192691,97.402542,391.244052,160.754722,340.331848,1274.439165,797.998334,338.496944,677.351299,-84.443696,-154.418381,144.117521,-1.572300,-246.794389,-7.949615,137.745469,-50.662180,1.020000,44.110538,6.000000
121.506314,0.080000,0.140000,0.200000,0.650000,50.000000,1.020000,1.000000,1.000000,1.200000,0.300000,0.320000,0.330000,0.300000,0.800000,0.120000,0.340000,0.130000,0.080000,0.140000,0.200000,0.650000,50.000000,37.796106,1.000000,1.000000,1.200000,0.300000,0.320000,0.330000,0.300000,0.800000,0.120000,0.340000,0.130000,81.598771,41.457164,47.560767,20.419605,4.506526,34.038004,27.141162,24.926132,36.950637,4.717402,31.858564,22.629926,2.296205,29.320602,54.488490,39.246843,123.055935,72.561748,48.944565,64.557325,25.641535,5.189600,8.004423,38.915790,30.831135,43.754966,-15.656421,23.259369,30.611385,0.219750,23.660844,53.870755,43.974715,121.506314,-9.037023,7.487402,16.996558,5.221930,0.683073,-26.033581,11.774628,5.905003,6.804328,-20.373822,-8.599194,7.981459,-2.076456,-5.659759,-0.617735,4.727873,-1.549621,-1877.368559,-2402.743990,-240.617499,-2046.366035,0.000000,-0.056762,-985.074076,-1256.056525,-1714.426186,-1721.716761,-532.668758,-1879.037010,-2632.536007,-3290.259995,-335.379868,-2941.764787,0.000000,-0.111709,-1254.746235,-1681.977130,-2842.842878,-2769.184959,-421.216585,-2632.776297,-755.167448,-887.516005,-94.762369,-895.398752,0.000000,-0.054947,-269.672159,-425.920606,-1128.416692,-1047.468198,111.452173,-753.739287,532.668758,240.617499,452.405318,271.024178,1015.439026,1181.757428,736.642685,621.312034,1638.419511,6.676163,324.789787,168.997476,1.581768,687.758181,356.279465,523.706980,1968.559207,421.216585,335.379868,833.529650,427.367411,1346.597262,2421.626293,1514.438724,950.558877,2297.396429,-73.537053,173.119446,309.228780,0.014487,447.868419,348.246986,657.483698,1919.291955,-111.452173,94.762369,381.124332,156.343233,331.158236,1239.868865,777.796038,329.246842,658.976918,-80.213216,-151.670341,140.231304,-1.567281,-239.889762,-8.032479,133.776718,-49.267252,1.020000,36.776106,6.000000
121.210180,0.080000,0.140000,0.200000,0.650000,50.000000,1.020000,1.000000,1.000000,1.200000,0.300000,0.320000,0.330000,0.300000,0.800000,0.120000,0.340000,0.130000,0.080000,0.140000,0.200000,0.650000,50.000000,176.261951,1.000000,1.000000,1.200000,0.300000,0.320000,0.330000,0.300000,0.800000,0.120000,0.340000,0.130000,81.598771,41.457164,47.560767,20.419605,4.506526,34.038004,27.141162,24.926132,36.950637,4.717402,31.858564,22.629926,2.296205,29.320602,54.488490,39.246843,123.055935,70.993375,50.216805,67.114384,26.511817,5.306150,3.878991,40.602567,31.817967,44.910654,-18.534305,22.068262,31.867833,-0.049866,22.413296,53.936096,44.860788,121.210180,-10.605396,8.759641,19.553617,6.092212,0.799624,-30.159013,13.461405,6.891835,7.960017,-23.251706,-9.790301,9.237907,-2.346072,-6.907306,-0.552394,5.613946,-1.845755,-1877.368559,-2402.743990,-240.617499,-2046.366035,0.000000,-0.056762,-985.074076,-1256.056525,-1714.426186,-1721.716761,-532.668758,-1879.037010,-2773.186287,-3457.648814,-353.041844,-3108.320690,0.000000,-0.096566,-1304.072858,-1760.803268,-3055.343321,-2952.641319,-403.204749,-2773.402108,-895.817728,-1054.904824,-112.424345,-1061.954655,0.000000,-0.039803,-318.998782,-504.746744,-1340.917135,-1230.924558,129.464009,-894.365098,532.668758,240.617499,452.405318,271.024178,1015.439026,1181.757428,736.642685,621.312034,1638.419511,6.676163,324.789787,168.997476,1.581768,687.758181,356.279465,523.706980,1968.559207,403.204749,353.041844,900.868109,456.869681,1407.761424,2652.138572,1648.568462,1012.383019,2420.360264,-103.056136,155.842626,335.134403,-0.000746,401.884678,349.092290,684.246706,1909.948006,-129.464009,112.424345,448.462791,185.845504,392.322398,1470.381144,911.925776,391.070984,781.940753,-109.732299,-168.947161,166.136927,-1.582514,-285.873504,-7.187175,160.539726,-58.611201,1.020000,175.241951,6.000000
121.273214,0.080000,0.140000,0.200000,0.650000,50.000000,1.020000,1.000000,1.000000,1.200000,0.300000,0.320000,0.330000,0.300000,0.800000,0.120000,0.340000,0.130000,0.080000,0.140000,0.200000,0.650000,50.000000,115.768823,1.000000,1.000000,1.200000,0.300000,0.320000,0.330000,0.300000,0.800000,0.120000,0.340000,0.130000,81.598771,41.457164,47.560767,20.419605,4.506526,34.038004,27.141162,24.926132,36.950637,4.717402,31.858564,22.629926,2.296205,29.320602,54.488490,39.246843,123.055935,71.324004,49.949209,66.581878,26.329462,5.281702,4.742126,40.252416,31.611164,44.667507,-17.940586,22.311830,31.606059,0.005105,22.682712,53.917889,44.672612,121.273214,-10.274767,8.492046,19.021111,5.909857,0.775175,-29.295878,13.111254,6.685033,7.716870,-22.657988,-9.546734,8.976133,-2.291100,-6.637890,-0.570601,5.425770,-1.782721,-1877.368559,-2402.743990,-240.617499,-2046.366035,0.000000,-0.056762,-985.074076,-1256.056525,-1714.426186,-1721.716761,-532.668758,-1879.037010,-2743.373702,-3422.031123,-349.289290,-3073.024886,0.000000,-0.052817,-1293.598391,-1744.108005,-3010.350692,-2913.855382,-406.969089,-2743.512747,-866.005143,-1019.287133,-108.671791,-1026.658852,0.000000,0.003945,-308.524315,-488.051480,-1295.924505,-1192.138621,125.699669,-864.475737,532.668758,240.617499,452.405318,271.024178,1015.439026,1181.757428,736.642685,621.312034,1638.419511,6.676163,324.789787,168.997476,1.581768,687.758181,356.279465,523.706980,1968.559207,406.969089,349.289290,886.629302,450.606380,1394.818715,2603.381603,1620.256991,999.265697,2394.223457,-96.559387,159.301682,329.651185,0.000008,411.604345,348.856654,678.518376,1911.935005,-125.699669,108.671791,434.223985,179.582202,379.379689,1421.624175,883.614305,377.953663,755.803946,-103.235551,-165.488104,160.653709,-1.581760,-276.153837,-7.422811,154.811396,-56.624201,1.020000,114.748823,6.000000
122.292926,0.080000,0.140000,0.200000,0.650000,50.000000,1.020000,1.000000,1.000000,1.200000,0.300000,0.320000,0.330000,0.300000,0.800000,0.120000,0.340000,0.130000,0.080000,0.140000,0.200000,0.650000,50.000000,1.020000,21.517800,1.000000,1.200000,0.300000,0.320000,0.330000,0.300000,0.800000,0.120000,0.340000,0.130000,81.598771,41.457164,47.560767,20.419605,4.506526,34.038004,27.141162,24.926132,36.950637,4.717402,31.858564,22.629926,2.296205,29.320602,54.488490,39.246843,123.055935,77.670897,44.622029,35.874091,27.276726,4.348130,41.796806,8.597365,31.624856,40.273898,14.910215,23.507580,29.311555,2.313302,26.886592,52.819134,42.587200,122.292926,-3.927874,3.164865,-11.686677,6.857121,-0.158396,7.758802,-18.543797,6.698725,3.323261,10.192813,-8.350984,6.681628,0.017097,-2.434011,-1.669356,3.340357,-0.763009,-1877.368559,-2402.743990,-240.617499,-2046.366035,0.000000,-0.056762,-985.074076,-1256.056525,-1714.426186,-1721.716761,-532.668758,-1879.037010,-2224.201042,-2841.789477,-278.757562,-2507.726228,0.000000,0.274937,-740.011538,-1224.069500,-2264.533937,-2330.492886,-482.621460,-2225.141811,-346.832483,-439.045487,-38.140063,-461.360193,0.000000,0.331699,245.062538,31.987025,-550.107751,-608.776125,50.047298,-346.104801,532.668758,240.617499,452.405318,271.024178,1015.439026,1181.757428,736.642685,621.312034,1638.419511,6.676163,324.789787,168.997476,1.581768,687.758181,356.279465,523.706980,1968.559207,482.621460,278.757562,257.390078,483.612854,945.311938,1781.912477,1590.481348,1000.131542,1946.384249,66.694351,176.834016,283.525186,1.605410,578.311045,334.783312,616.647665,1944.222759,-50.047298,38.140063,-195.015240,212.588677,-70.127088,600.155049,853.838662,378.819507,307.964738,60.018188,-147.955771,114.527710,0.023642,-109.447136,-21.496153,92.940685,-24.336447,1.000000,20.517800,7.000000
122.096414,0.080000,0.140000,0.200000,0.650000,50.000000,1.020000,1.000000,1.000000,1.200000,0.300000,0.320000,0.330000,0.300000,0.800000,0.120000,0.340000,0.130000,0.080000,0.140000,0.200000,0.650000,50.000000,1.020000,85.034460,1.000000,1.200000,0.300000,0.320000,0.330000,0.300000,0.800000,0.120000,0.340000,0.130000,81.598771,41.457164,47.560767,20.419605,4.506526,34.038004,27.141162,24.926132,36.950637,4.717402,31.858564,22.629926,2.296205,29.320602,54.488490,39.246843,123.055935,76.668891,45.427524,33.253007,28.668405,4.328750,43.415884,4.584601,32.997155,41.098774,16.919528,21.504130,30.760351,2.236804,26.496356,52.264481,43.335578,122.096414,-4.929881,3.970360,-14.307761,8.248800,-0.177777,9.377880,-22.556561,8.071024,4.148137,12.202127,-10.354434,8.130425,-0.059401,-2.824247,-2.224009,4.088735,-0.959521,-1877.368559,-2402.743990,-240.617499,-2046.366035,0.000000,-0.056762,-985.074076,-1256.056525,-1714.426186,-1721.716761,-532.668758,-1879.037010,-2314.628365,-2954.354024,-288.912387,-2626.874108,0.000000,0.115440,-691.401995,-1225.816111,-2392.887256,-2478.704658,-470.249503,-2315.843444,-437.259806,-551.610034,-48.294888,-580.508073,0.000000,0.172202,293.672080,30.240413,-678.461070,-756.987897,62.419255,-436.806434,532.668758,240.617499,452.405318,271.024178,1015.439026,1181.757428,736.642685,621.312034,1638.419511,6.676163,324.789787,168.997476,1.581768,687.758181,356.279465,523.706980,1968.559207,470.249503,288.912387,221.152492,534.220357,936.903725,1922.637753,1787.302663,1088.812254,2026.931058,85.881131,147.976828,312.245743,1.500987,561.645488,327.789117,638.510579,1937.979470,-62.419255,48.294888,-231.252826,263.196180,-78.535301,740.880324,1050.659977,467.500219,388.511547,79.204968,-176.812958,143.248267,-0.080780,-126.112694,-28.490348,114.803599,-30.579737,1.000000,84.034460,7.000000
122.039363,0.080000,0.140000,0.200000,0.650000,50.000000,1.020000,1.000000,1.000000,1.200000,0.300000,0.320000,0.330000,0.300000,0.800000,0.120000,0.340000,0.130000,0.080000,0.140000,0.200000,0.650000,50.000000,1.020000,153.975905,1.000000,1.200000,0.300000,0.320000,0.330000,0.300000,0.800000,0.120000,0.340000,0.130000,81.598771,41.457164,47.560767,20.419605,4.506526,34.038004,27.141162,24.926132,36.950637,4.717402,31.858564,22.629926,2.296205,29.320602,54.488490,39.246843,123.055935,76.379827,45.659536,32.512421,29.052778,4.324672,43.867406,3.459643,33.377451,41.334864,17.470685,20.930328,31.166261,2.211190,26.396720,52.096589,43.546053,122.039363,-5.218944,4.202372,-15.048346,8.633173,-0.181854,9.829402,-23.681519,8.451319,4.384226,12.753284,-10.928235,8.536335,-0.085016,-2.923882,-2.391901,4.299211,-1.016572,-1877.368559,-2402.743990,-240.617499,-2046.366035,0.000000,-0.056762,-985.074076,-1256.056525,-1714.426186,-1721.716761,-532.668758,-1879.037010,-2341.064793,-2986.884163,-291.871050,-2661.605617,0.000000,0.160742,-678.121751,-1227.010572,-2429.546518,-2521.079287,-466.710241,-2342.156186,-463.696234,-584.140173,-51.253551,-615.239582,0.000000,0.217504,306.952325,29.045952,-715.120332,-799.362526,65.958517,-463.119176,532.668758,240.617499,452.405318,271.024178,1015.439026,1181.757428,736.642685,621.312034,1638.419511,6.676163,324.789787,168.997476,1.581768,687.758181,356.279465,523.706980,1968.559207,466.710241,291.871050,211.411510,548.641560,935.139522,1962.836277,1842.957537,1114.054221,2050.285136,91.567455,140.185167,320.540824,1.466808,557.429477,325.686556,644.727977,1936.168800,-65.958517,51.253551,-240.993808,277.617382,-80.299504,781.078849,1106.314851,492.742186,411.865625,84.891292,-184.604620,151.543348,-0.114960,-130.328705,-30.592909,121.020997,-32.390407,1.000000,152.975905,7.000000
