wzm1112/deeplearning/datasets/es[7]-vs[6]-random-train.csv
Q,r1,r2,r3,r4,r5,r6,r7,r'1,r'2,r'3,r'4,r'5,r'6,r'7,q1,q2,q3,q4,q5,q6,q7,q'1,q'2,q'3,q'4,q'5,q'6,q'7,deltaq1,deltaq2,deltaq3,deltaq4,deltaq5,deltaq6,deltaq7,p6,p4,p3,p5,p2,p1,p'6,p'4,p'3,p'5,p'2,p'1,deltap6,deltap4,deltap3,deltap5,deltap2,deltap1,h1,h2,h3,h4,h5,h6,h7,h'1,h'2,h'3,h'4,h'5,h'6,h'7,deltah1,deltah2,deltah3,deltah4,deltah5,deltah6,deltah7,r0,delta_r0,ei
20.068705,0.375000,1.500000,2.000000,4.687500,12.500000,1.736100,0.500000,0.375000,1.475657,2.000000,4.687500,12.500000,1.736100,0.500000,20.057453,10.028681,10.028772,8.022871,2.005810,12.034582,20.057453,20.068705,10.057660,10.011045,8.034401,2.023260,12.034304,20.068705,0.011252,0.028980,-0.017728,0.011530,0.017450,-0.000278,0.011252,0.023382,-352.015584,-301.724684,-603.456966,-150.863032,0.000000,0.022934,-351.474376,-300.304636,-602.904155,-151.032343,0.000000,-0.000448,0.541208,1.420048,0.552811,-0.169311,0.000000,150.863032,150.861651,201.152551,301.717778,50.290901,251.441382,201.150710,151.032343,149.272292,200.442033,302.585593,51.169741,251.429779,201.376458,0.169311,-1.589359,-0.710519,0.867815,0.878840,-0.011604,0.225748,1.500000,-0.024343,2.000000
20.125201,0.375000,1.500000,2.000000,4.687500,12.500000,1.736100,0.500000,0.375000,1.356533,2.000000,4.687500,12.500000,1.736100,0.500000,20.057453,10.028681,10.028772,8.022871,2.005810,12.034582,20.057453,20.125201,10.203209,9.921992,8.092868,2.110342,12.032333,20.125201,0.067748,0.174529,-0.106781,0.069997,0.104532,-0.002249,0.067748,0.023382,-352.015584,-301.724684,-603.456966,-150.863032,0.000000,0.020842,-348.775725,-293.106452,-600.123147,-151.883893,0.000000,-0.002539,3.239859,8.618232,3.333820,-1.020861,0.000000,150.863032,150.861651,201.152551,301.717778,50.290901,251.441382,201.150710,151.883893,141.222558,196.891832,307.005515,55.669273,251.347422,202.511858,1.020861,-9.639093,-4.260720,5.287737,5.378373,-0.093961,1.361148,1.500000,-0.143467,2.000000
20.109657,0.375000,1.500000,2.000000,4.687500,12.500000,1.736100,0.500000,0.375000,1.388800,2.000000,4.687500,12.500000,1.736100,0.500000,20.057453,10.028681,10.028772,8.022871,2.005810,12.034582,20.057453,20.109657,10.163156,9.946501,8.076687,2.086469,12.032970,20.109657,0.052204,0.134476,-0.082271,0.053816,0.080660,-0.001612,0.052204,0.023382,-352.015584,-301.724684,-603.456966,-150.863032,0.000000,0.021388,-349.515129,-295.098193,-600.889176,-151.649367,0.000000,-0.001993,2.500455,6.626491,2.567790,-0.786334,0.000000,150.863032,150.861651,201.152551,301.717778,50.290901,251.441382,201.150710,151.649367,143.448826,197.865762,305.779071,54.416937,251.374047,202.199156,0.786334,-7.412825,-3.286789,4.061294,4.126036,-0.067335,1.048446,1.500000,-0.111200,2.000000
20.088193,0.375000,1.500000,2.000000,4.687500,12.500000,1.736100,0.500000,0.375000,1.433987,2.000000,4.687500,12.500000,1.736100,0.500000,20.057453,10.028681,10.028772,8.022871,2.005810,12.034582,20.057453,20.088193,10.107857,9.980335,8.054460,2.053397,12.033732,20.088193,0.030740,0.079177,-0.048437,0.031589,0.047588,-0.000850,0.030740,0.023382,-352.015584,-301.724684,-603.456966,-150.863032,0.000000,0.022181,-350.539993,-297.834498,-601.945876,-151.325807,0.000000,-0.001201,1.475591,3.890186,1.511090,-0.462775,0.000000,150.863032,150.861651,201.152551,301.717778,50.290901,251.441382,201.150710,151.325807,146.508691,199.214186,304.098427,52.705495,251.405883,201.767743,0.462775,-4.352961,-1.938366,2.380649,2.414595,-0.035499,0.617033,1.500000,-0.066013,2.000000
20.107384,0.375000,1.500000,2.000000,4.687500,12.500000,1.736100,0.500000,0.375000,1.393552,2.000000,4.687500,12.500000,1.736100,0.500000,20.057453,10.028681,10.028772,8.022871,2.005810,12.034582,20.057453,20.107384,10.157298,9.950085,8.074326,2.082972,12.033058,20.107384,0.049931,0.128618,-0.078687,0.051455,0.077163,-0.001524,0.049931,0.023382,-352.015584,-301.724684,-603.456966,-150.863032,0.000000,0.021470,-349.623477,-295.388810,-601.001168,-151.615078,0.000000,-0.001911,2.392107,6.335874,2.455798,-0.752045,0.000000,150.863032,150.861651,201.152551,301.717778,50.290901,251.441382,201.150710,151.615078,143.773732,198.008399,305.600337,54.234667,251.377691,202.153437,0.752045,-7.087919,-3.144152,3.882560,3.943767,-0.063691,1.002727,1.500000,-0.106448,2.000000
20.064403,0.375000,1.500000,2.000000,4.687500,12.500000,1.736100,0.500000,0.375000,1.484938,2.000000,4.687500,12.500000,1.736100,0.500000,20.057453,10.028681,10.028772,8.022871,2.005810,12.034582,20.057453,20.064403,10.046581,10.017822,8.029988,2.016593,12.034415,20.064403,0.006950,0.017900,-0.010950,0.007117,0.010783,-0.000167,0.006950,0.023382,-352.015584,-301.724684,-603.456966,-150.863032,0.000000,0.023104,-351.681129,-300.848050,-603.115535,-150.967605,0.000000,-0.000278,0.334455,0.876634,0.341432,-0.104573,0.000000,150.863032,150.861651,201.152551,301.717778,50.290901,251.441382,201.150710,150.967605,149.880445,200.713524,302.253339,50.833080,251.434405,201.290140,0.104573,-0.981207,-0.439027,0.535561,0.542180,-0.006977,0.139430,1.500000,-0.015062,2.000000
20.062950,0.375000,1.500000,2.000000,4.687500,12.500000,1.736100,0.500000,0.375000,1.488080,2.000000,4.687500,12.500000,1.736100,0.500000,20.057453,10.028681,10.028772,8.022871,2.005810,12.034582,20.057453,20.062950,10.042839,10.020112,8.028499,2.014340,12.034451,20.062950,0.005497,0.014158,-0.008661,0.005628,0.008530,-0.000131,0.005497,0.023382,-352.015584,-301.724684,-603.456966,-150.863032,0.000000,0.023162,-351.751010,-301.031459,-603.186924,-150.945740,0.000000,-0.000220,0.264574,0.693225,0.270042,-0.082708,0.000000,150.863032,150.861651,201.152551,301.717778,50.290901,251.441382,201.150710,150.945740,150.085719,200.805269,302.141245,50.719551,251.435915,201.260987,0.082708,-0.775933,-0.347282,0.423467,0.428651,-0.005467,0.110277,1.500000,-0.011920,2.000000
20.100610,0.375000,1.500000,2.000000,4.687500,12.500000,1.736100,0.500000,0.375000,1.407756,2.000000,4.687500,12.500000,1.736100,0.500000,20.057453,10.028681,10.028772,8.022871,2.005810,12.034582,20.057453,20.100610,10.139847,9.960763,8.067302,2.072545,12.033308,20.100610,0.043157,0.111166,-0.068009,0.044431,0.066736,-0.001274,0.043157,0.023382,-352.015584,-301.724684,-603.456966,-150.863032,0.000000,0.021717,-349.946553,-296.253507,-601.334719,-151.512948,0.000000,-0.001665,2.069031,5.471177,2.122247,-0.649916,0.000000,150.863032,150.861651,201.152551,301.717778,50.290901,251.441382,201.150710,151.512948,144.740559,198.433605,305.068866,53.693047,251.388166,202.017264,0.649916,-6.121093,-2.718946,3.351089,3.402146,-0.053216,0.866555,1.500000,-0.092244,2.000000
20.075286,0.375000,1.500000,2.000000,4.687500,12.500000,1.736100,0.500000,0.375000,1.461516,2.000000,4.687500,12.500000,1.736100,0.500000,20.057453,10.028681,10.028772,8.022871,2.005810,12.034582,20.057453,20.075286,10.074610,10.000675,8.041162,2.033449,12.034124,20.075286,0.017833,0.045930,-0.028097,0.018291,0.027639,-0.000458,0.017833,0.023382,-352.015584,-301.724684,-603.456966,-150.863032,0.000000,0.022676,-351.158424,-299.472003,-602.580670,-151.131412,0.000000,-0.000706,0.857160,2.252681,0.876296,-0.268379,0.000000,150.863032,150.861651,201.152551,301.717778,50.290901,251.441382,201.150710,151.131412,148.340591,200.027012,303.095074,51.686421,251.422246,201.508549,0.268379,-2.521060,-1.125539,1.377296,1.395521,-0.019136,0.357839,1.500000,-0.038484,2.000000
20.108470,0.375000,1.500000,2.000000,4.687500,12.500000,1.736100,0.500000,0.375000,1.391280,2.000000,4.687500,12.500000,1.736100,0.500000,20.057453,10.028681,10.028772,8.022871,2.005810,12.034582,20.057453,20.108470,10.160098,9.948372,8.075454,2.084644,12.033016,20.108470,0.051017,0.131418,-0.080400,0.052583,0.078835,-0.001566,0.051017,0.023382,-352.015584,-301.724684,-603.456966,-150.863032,0.000000,0.021431,-349.571679,-295.249914,-600.947636,-151.631468,0.000000,-0.001951,2.443905,6.474770,2.509330,-0.768435,0.000000,150.863032,150.861651,201.152551,301.717778,50.290901,251.441382,201.150710,151.631468,143.618446,197.940211,305.685754,54.321766,251.375957,202.175290,0.768435,-7.243205,-3.212340,3.967976,4.030865,-0.065425,1.024581,1.500000,-0.108720,2.000000
20.100419,0.375000,1.500000,2.000000,4.687500,12.500000,1.736100,0.500000,0.375000,1.408158,2.000000,4.687500,12.500000,1.736100,0.500000,20.057453,10.028681,10.028772,8.022871,2.005810,12.034582,20.057453,20.100419,10.139355,9.961064,8.067104,2.072251,12.033315,20.100419,0.042966,0.110674,-0.067708,0.044233,0.066441,-0.001267,0.042966,0.023382,-352.015584,-301.724684,-603.456966,-150.863032,0.000000,0.021724,-349.955673,-296.277876,-601.344127,-151.510068,0.000000,-0.001658,2.059910,5.446808,2.112839,-0.647035,0.000000,150.863032,150.861651,201.152551,301.717778,50.290901,251.441382,201.150710,151.510068,144.767808,198.445606,305.053896,53.677798,251.388453,202.013424,0.647035,-6.093843,-2.706946,3.336118,3.386897,-0.052929,0.862714,1.500000,-0.091842,2.000000
20.123991,0.375000,1.500000,2.000000,4.687500,12.500000,1.736100,0.500000,0.375000,1.359032,2.000000,4.687500,12.500000,1.736100,0.500000,20.057453,10.028681,10.028772,8.022871,2.005810,12.034582,20.057453,20.123991,10.200090,9.923900,8.091605,2.108485,12.032385,20.123991,0.066538,0.171410,-0.104872,0.068734,0.102675,-0.002197,0.066538,0.023382,-352.015584,-301.724684,-603.456966,-150.863032,0.000000,0.020884,-348.833222,-293.261862,-600.182824,-151.865624,0.000000,-0.002498,3.182362,8.462822,3.274142,-1.002591,0.000000,150.863032,150.861651,201.152551,301.717778,50.290901,251.441382,201.150710,151.865624,141.396239,196.967598,306.909726,55.571360,251.349602,202.487498,1.002591,-9.465413,-4.184953,5.191948,5.280459,-0.091780,1.336788,1.500000,-0.140968,2.000000
20.064221,0.375000,1.500000,2.000000,4.687500,12.500000,1.736100,0.500000,0.375000,1.485332,2.000000,4.687500,12.500000,1.736100,0.500000,20.057453,10.028681,10.028772,8.022871,2.005810,12.034582,20.057453,20.064221,10.046111,10.018110,8.029801,2.016310,12.034420,20.064221,0.006768,0.017431,-0.010663,0.006930,0.010500,-0.000162,0.006768,0.023382,-352.015584,-301.724684,-603.456966,-150.863032,0.000000,0.023111,-351.689899,-300.871074,-603.124495,-150.964861,0.000000,-0.000271,0.325685,0.853610,0.332471,-0.101828,0.000000,150.863032,150.861651,201.152551,301.717778,50.290901,251.441382,201.150710,150.964861,149.906213,200.725038,302.239266,50.818826,251.434596,201.286481,0.101828,-0.955438,-0.427513,0.521488,0.527925,-0.006786,0.135771,1.500000,-0.014668,2.000000
20.128106,0.375000,1.500000,2.000000,4.687500,12.500000,1.736100,0.500000,0.375000,1.350545,2.000000,4.687500,12.500000,1.736100,0.500000,20.057453,10.028681,10.028772,8.022871,2.005810,12.034582,20.057453,20.128106,10.210696,9.917410,8.095900,2.114796,12.032206,20.128106,0.070653,0.182016,-0.111362,0.073029,0.108987,-0.002376,0.070653,0.023382,-352.015584,-301.724684,-603.456966,-150.863032,0.000000,0.020743,-348.637785,-292.733246,-599.979901,-151.927746,0.000000,-0.002639,3.377799,8.991437,3.477066,-1.064714,0.000000,150.863032,150.861651,201.152551,301.717778,50.290901,251.441382,201.150710,151.927746,140.805500,196.710039,307.235610,55.904539,251.342115,202.570329,1.064714,-10.056151,-4.442513,5.517832,5.613639,-0.099267,1.419619,1.500000,-0.149455,2.000000
20.096600,0.375000,1.500000,2.000000,4.687500,12.500000,1.736100,0.500000,0.375000,1.416200,2.000000,4.687500,12.500000,1.736100,0.500000,20.057453,10.028681,10.028772,8.022871,2.005810,12.034582,20.057453,20.096600,10.129516,9.967084,8.063150,2.066367,12.033450,20.096600,0.039147,0.100836,-0.061689,0.040279,0.060557,-0.001132,0.039147,0.023382,-352.015584,-301.724684,-603.456966,-150.863032,0.000000,0.021865,-350.138024,-296.764641,-601.532122,-151.452504,0.000000,-0.001516,1.877560,4.960043,1.924844,-0.589472,0.000000,150.863032,150.861651,201.152551,301.717778,50.290901,251.441382,201.150710,151.452504,145.312137,198.685520,304.754941,53.373383,251.394098,201.936672,0.589472,-5.549514,-2.467032,3.037163,3.082482,-0.047284,0.785962,1.500000,-0.083800,2.000000
20.061846,0.375000,1.500000,2.000000,4.687500,12.500000,1.736100,0.500000,0.375000,1.490471,2.000000,4.687500,12.500000,1.736100,0.500000,20.057453,10.028681,10.028772,8.022871,2.005810,12.034582,20.057453,20.061846,10.039994,10.021852,8.027368,2.012626,12.034478,20.061846,0.004393,0.011313,-0.006921,0.004497,0.006817,-0.000104,0.004393,0.023382,-352.015584,-301.724684,-603.456966,-150.863032,0.000000,0.023206,-351.804148,-301.170840,-603.241192,-150.929119,0.000000,-0.000176,0.211436,0.553844,0.215774,-0.066087,0.000000,150.863032,150.861651,201.152551,301.717778,50.290901,251.441382,201.150710,150.929119,150.241721,200.875029,302.056075,50.633309,251.437044,201.238826,0.066087,-0.619931,-0.277523,0.338297,0.342408,-0.004338,0.088116,1.500000,-0.009529,2.000000
20.090707,0.375000,1.500000,2.000000,4.687500,12.500000,1.736100,0.500000,0.375000,1.428656,2.000000,4.687500,12.500000,1.736100,0.500000,20.057453,10.028681,10.028772,8.022871,2.005810,12.034582,20.057453,20.090707,10.114333,9.976373,8.057056,2.057277,12.033650,20.090707,0.033254,0.085653,-0.052399,0.034185,0.051467,-0.000932,0.033254,0.023382,-352.015584,-301.724684,-603.456966,-150.863032,0.000000,0.022086,-350.419731,-297.514871,-601.822183,-151.363685,0.000000,-0.001296,1.595853,4.209812,1.634783,-0.500652,0.000000,150.863032,150.861651,201.152551,301.717778,50.290901,251.441382,201.150710,151.363685,146.151187,199.056047,304.294484,52.904860,251.402452,201.818246,0.500652,-4.710464,-2.096505,2.576706,2.613959,-0.038930,0.667536,1.500000,-0.071344,2.000000
20.106061,0.375000,1.500000,2.000000,4.687500,12.500000,1.736100,0.500000,0.375000,1.396319,2.000000,4.687500,12.500000,1.736100,0.500000,20.057453,10.028681,10.028772,8.022871,2.005810,12.034582,20.057453,20.106061,10.153892,9.952170,8.072954,2.080938,12.033108,20.106061,0.048609,0.125211,-0.076603,0.050083,0.075128,-0.001474,0.048609,0.023382,-352.015584,-301.724684,-603.456966,-150.863032,0.000000,0.021518,-349.686503,-295.557716,-601.066283,-151.595141,0.000000,-0.001864,2.329081,6.166968,2.390683,-0.732108,0.000000,150.863032,150.861651,201.152551,301.717778,50.290901,251.441382,201.150710,151.595141,143.962575,198.091362,305.496484,54.128787,251.379780,202.126854,0.732108,-6.899076,-3.061189,3.778706,3.837887,-0.061602,0.976144,1.500000,-0.103681,2.000000
20.084077,0.375000,1.500000,2.000000,4.687500,12.500000,1.736100,0.500000,0.375000,1.442736,2.000000,4.687500,12.500000,1.736100,0.500000,20.057453,10.028681,10.028772,8.022871,2.005810,12.034582,20.057453,20.084077,10.097254,9.986822,8.050214,2.047041,12.033863,20.084077,0.026624,0.068574,-0.041950,0.027343,0.041231,-0.000719,0.026624,0.023382,-352.015584,-301.724684,-603.456966,-150.863032,0.000000,0.022337,-350.737035,-298.357347,-602.148364,-151.263801,0.000000,-0.001045,1.278549,3.367337,1.308602,-0.400768,0.000000,150.863032,150.861651,201.152551,301.717778,50.290901,251.441382,201.150710,151.263801,147.093546,199.473234,303.777863,52.379689,251.411329,201.685067,0.400768,-3.768105,-1.679317,2.060085,2.088788,-0.030053,0.534358,1.500000,-0.057264,2.000000
20.119324,0.375000,1.500000,2.000000,4.687500,12.500000,1.736100,0.500000,0.375000,1.368688,2.000000,4.687500,12.500000,1.736100,0.500000,20.057453,10.028681,10.028772,8.022871,2.005810,12.034582,20.057453,20.119324,10.188066,9.931259,8.086742,2.101324,12.032582,20.119324,0.061871,0.159385,-0.097514,0.063871,0.095514,-0.001999,0.061871,0.023382,-352.015584,-301.724684,-603.456966,-150.863032,0.000000,0.021046,-349.055000,-293.860474,-600.412838,-151.795205,0.000000,-0.002336,2.960584,7.864210,3.044128,-0.932172,0.000000,150.863032,150.861651,201.152551,301.717778,50.290901,251.441382,201.150710,151.795205,142.065269,197.259795,306.540910,55.194526,251.357839,202.393607,0.932172,-8.796383,-3.892757,4.823132,4.903626,-0.083544,1.242897,1.500000,-0.131312,2.000000
20.067294,0.375000,1.500000,2.000000,4.687500,12.500000,1.736100,0.500000,0.375000,1.478698,2.000000,4.687500,12.500000,1.736100,0.500000,20.057453,10.028681,10.028772,8.022871,2.005810,12.034582,20.057453,20.067294,10.054026,10.013268,8.032953,2.021073,12.034341,20.067294,0.009841,0.025345,-0.015504,0.010082,0.015264,-0.000241,0.009841,0.023382,-352.015584,-301.724684,-603.456966,-150.863032,0.000000,0.022989,-351.542180,-300.482973,-602.973502,-151.011105,0.000000,-0.000392,0.473404,1.241711,0.483464,-0.148072,0.000000,150.863032,150.861651,201.152551,301.717778,50.290901,251.441382,201.150710,151.011105,149.471868,200.531075,302.476531,51.059208,251.431322,201.348140,0.148072,-1.389783,-0.621476,0.758754,0.768307,-0.010060,0.197430,1.500000,-0.021302,2.000000
20.079688,0.375000,1.500000,2.000000,4.687500,12.500000,1.736100,0.500000,0.375000,1.452096,2.000000,4.687500,12.500000,1.736100,0.500000,20.057453,10.028681,10.028772,8.022871,2.005810,12.034582,20.057453,20.079688,10.085949,9.993739,8.045692,2.040258,12.033996,20.079688,0.022235,0.057269,-0.035034,0.022821,0.034448,-0.000586,0.022235,0.023382,-352.015584,-301.724684,-603.456966,-150.863032,0.000000,0.022505,-350.947319,-298.914186,-602.364221,-151.197698,0.000000,-0.000876,1.068264,2.810498,1.092745,-0.334665,0.000000,150.863032,150.861651,201.152551,301.717778,50.290901,251.441382,201.150710,151.197698,147.716488,199.749622,303.436662,52.033134,251.416901,201.596931,0.334665,-3.145164,-1.402930,1.718884,1.742234,-0.024481,0.446221,1.500000,-0.047904,2.000000
20.123338,0.375000,1.500000,2.000000,4.687500,12.500000,1.736100,0.500000,0.375000,1.360380,2.000000,4.687500,12.500000,1.736100,0.500000,20.057453,10.028681,10.028772,8.022871,2.005810,12.034582,20.057453,20.123338,10.198409,9.924929,8.090925,2.107484,12.032413,20.123338,0.065885,0.169728,-0.103843,0.068054,0.101675,-0.002169,0.065885,0.023382,-352.015584,-301.724684,-603.456966,-150.863032,0.000000,0.020906,-348.864218,-293.345604,-600.214987,-151.855777,0.000000,-0.002475,3.151366,8.379080,3.241979,-0.992744,0.000000,150.863032,150.861651,201.152551,301.717778,50.290901,251.441382,201.150710,151.855777,141.489827,197.008441,306.858117,55.518614,251.350770,202.474369,0.992744,-9.371824,-4.144111,5.140339,5.227713,-0.090612,1.323659,1.500000,-0.139620,2.000000
20.128331,0.375000,1.500000,2.000000,4.687500,12.500000,1.736100,0.500000,0.375000,1.350081,2.000000,4.687500,12.500000,1.736100,0.500000,20.057453,10.028681,10.028772,8.022871,2.005810,12.034582,20.057453,20.128331,10.211277,9.917055,8.096135,2.115141,12.032196,20.128331,0.070878,0.182596,-0.111718,0.073264,0.109332,-0.002386,0.070878,0.023382,-352.015584,-301.724684,-603.456966,-150.863032,0.000000,0.020735,-348.627097,-292.704308,-599.968797,-151.931146,0.000000,-0.002646,3.388487,9.020376,3.488169,-1.068113,0.000000,150.863032,150.861651,201.152551,301.717778,50.290901,251.441382,201.150710,151.931146,140.773162,196.695952,307.253455,55.922790,251.341700,202.574861,1.068113,-10.088490,-4.456600,5.535677,5.631889,-0.099683,1.424151,1.500000,-0.149919,2.000000
20.057832,0.375000,1.500000,2.000000,4.687500,12.500000,1.736100,0.500000,0.375000,1.499176,2.000000,4.687500,12.500000,1.736100,0.500000,20.057453,10.028681,10.028772,8.022871,2.005810,12.034582,20.057453,20.057832,10.029657,10.028175,8.023259,2.006398,12.034573,20.057832,0.000379,0.000977,-0.000598,0.000388,0.000589,-0.000009,0.000379,0.023382,-352.015584,-301.724684,-603.456966,-150.863032,0.000000,0.023367,-351.997321,-301.676892,-603.438338,-150.868738,0.000000,-0.000015,0.018263,0.047792,0.018628,-0.005705,0.000000,150.863032,150.861651,201.152551,301.717778,50.290901,251.441382,201.150710,150.868738,150.808155,201.128583,301.746961,50.320429,251.441017,201.158317,0.005705,-0.053497,-0.023968,0.029183,0.029529,-0.000365,0.007607,1.500000,-0.000824,2.000000
20.102634,0.375000,1.500000,2.000000,4.687500,12.500000,1.736100,0.500000,0.375000,1.403504,2.000000,4.687500,12.500000,1.736100,0.500000,20.057453,10.028681,10.028772,8.022871,2.005810,12.034582,20.057453,20.102634,10.145062,9.957573,8.069399,2.075662,12.033235,20.102634,0.045181,0.116381,-0.071200,0.046528,0.069853,-0.001347,0.045181,0.023382,-352.015584,-301.724684,-603.456966,-150.863032,0.000000,0.021643,-349.849968,-295.995295,-601.235063,-151.543462,0.000000,-0.001739,2.165616,5.729389,2.221903,-0.680430,0.000000,150.863032,150.861651,201.152551,301.717778,50.290901,251.441382,201.150710,151.543462,144.451833,198.306505,305.227520,53.854673,251.385096,202.057950,0.680430,-6.409819,-2.846046,3.509742,3.563772,-0.056286,0.907240,1.500000,-0.096496,2.000000
20.058056,0.375000,1.500000,2.000000,4.687500,12.500000,1.736100,0.500000,0.375000,1.498690,2.000000,4.687500,12.500000,1.736100,0.500000,20.057453,10.028681,10.028772,8.022871,2.005810,12.034582,20.057453,20.058056,10.030234,10.027822,8.023488,2.006746,12.034568,20.058056,0.000603,0.001553,-0.000950,0.000617,0.000936,-0.000014,0.000603,0.023382,-352.015584,-301.724684,-603.456966,-150.863032,0.000000,0.023358,-351.986546,-301.648693,-603.427348,-150.872104,0.000000,-0.000024,0.029037,0.075991,0.029618,-0.009072,0.000000,150.863032,150.861651,201.152551,301.717778,50.290901,251.441382,201.150710,150.872104,150.776589,201.114442,301.764182,50.337854,251.440801,201.162805,0.009072,-0.085063,-0.038109,0.046404,0.046954,-0.000581,0.012095,1.500000,-0.001310,2.000000
20.122192,0.375000,1.500000,2.000000,4.687500,12.500000,1.736100,0.500000,0.375000,1.362750,2.000000,4.687500,12.500000,1.736100,0.500000,20.057453,10.028681,10.028772,8.022871,2.005810,12.034582,20.057453,20.122192,10.195456,9.926736,8.089730,2.105726,12.032462,20.122192,0.064739,0.166775,-0.102036,0.066859,0.099916,-0.002120,0.064739,0.023382,-352.015584,-301.724684,-603.456966,-150.863032,0.000000,0.020946,-348.918668,-293.492652,-600.271476,-151.838483,0.000000,-0.002436,3.096916,8.232032,3.185490,-0.975451,0.000000,150.863032,150.861651,201.152551,301.717778,50.290901,251.441382,201.150710,151.838483,141.654169,197.080185,306.767504,55.426017,251.352808,202.451311,0.975451,-9.207483,-4.072366,5.049726,5.135116,-0.088574,1.300601,1.500000,-0.137250,2.000000
20.100561,0.375000,1.500000,2.000000,4.687500,12.500000,1.736100,0.500000,0.375000,1.407859,2.000000,4.687500,12.500000,1.736100,0.500000,20.057453,10.028681,10.028772,8.022871,2.005810,12.034582,20.057453,20.100561,10.139721,9.960840,8.067251,2.072470,12.033310,20.100561,0.043108,0.111041,-0.067932,0.044380,0.066661,-0.001272,0.043108,0.023382,-352.015584,-301.724684,-603.456966,-150.863032,0.000000,0.021719,-349.948881,-296.259728,-601.337121,-151.512213,0.000000,-0.001663,2.066703,5.464956,2.119845,-0.649181,0.000000,150.863032,150.861651,201.152551,301.717778,50.290901,251.441382,201.150710,151.512213,144.747515,198.436668,305.065045,53.689154,251.388240,202.016284,0.649181,-6.114137,-2.715883,3.347267,3.398253,-0.053143,0.865574,1.500000,-0.092141,2.000000
20.079892,0.375000,1.500000,2.000000,4.687500,12.500000,1.736100,0.500000,0.375000,1.451661,2.000000,4.687500,12.500000,1.736100,0.500000,20.057453,10.028681,10.028772,8.022871,2.005810,12.034582,20.057453,20.079892,10.086475,9.993417,8.045902,2.040573,12.033990,20.079892,0.022439,0.057794,-0.035355,0.023031,0.034763,-0.000592,0.022439,0.023382,-352.015584,-301.724684,-603.456966,-150.863032,0.000000,0.022498,-350.937542,-298.888320,-602.354189,-151.200770,0.000000,-0.000884,1.078042,2.836364,1.102777,-0.337737,0.000000,150.863032,150.861651,201.152551,301.717778,50.290901,251.441382,201.150710,151.200770,147.687550,199.736772,303.452507,52.049222,251.416648,201.601027,0.337737,-3.174102,-1.415780,1.734729,1.758322,-0.024734,0.450317,1.500000,-0.048339,2.000000
20.086654,0.375000,1.500000,2.000000,4.687500,12.500000,1.736100,0.500000,0.375000,1.437255,2.000000,4.687500,12.500000,1.736100,0.500000,20.057453,10.028681,10.028772,8.022871,2.005810,12.034582,20.057453,20.086654,10.103893,9.982761,8.052872,2.051021,12.033782,20.086654,0.029201,0.075212,-0.046012,0.030001,0.045211,-0.000800,0.029201,0.023382,-352.015584,-301.724684,-603.456966,-150.863032,0.000000,0.022239,-350.613645,-298.030056,-602.021590,-151.302622,0.000000,-0.001143,1.401938,3.694628,1.435376,-0.439590,0.000000,150.863032,150.861651,201.152551,301.717778,50.290901,251.441382,201.150710,151.302622,146.727434,199.311023,303.978506,52.583590,251.407944,201.736830,0.439590,-4.134218,-1.841528,2.260729,2.292689,-0.033438,0.586120,1.500000,-0.062745,2.000000
20.087577,0.375000,1.500000,2.000000,4.687500,12.500000,1.736100,0.500000,0.375000,1.435293,2.000000,4.687500,12.500000,1.736100,0.500000,20.057453,10.028681,10.028772,8.022871,2.005810,12.034582,20.057453,20.087577,10.106272,9.981305,8.053825,2.052447,12.033752,20.087577,0.030124,0.077592,-0.047467,0.030954,0.046637,-0.000830,0.030124,0.023382,-352.015584,-301.724684,-603.456966,-150.863032,0.000000,0.022204,-350.569441,-297.912705,-601.976152,-151.316536,0.000000,-0.001178,1.446143,3.811979,1.480814,-0.453504,0.000000,150.863032,150.861651,201.152551,301.717778,50.290901,251.441382,201.150710,151.316536,146.596169,199.252905,304.050466,52.656737,251.406711,201.755382,0.453504,-4.265483,-1.899647,2.332688,2.365836,-0.034671,0.604672,1.500000,-0.064707,2.000000
20.117720,0.375000,1.500000,2.000000,4.687500,12.500000,1.736100,0.500000,0.375000,1.372016,2.000000,4.687500,12.500000,1.736100,0.500000,20.057453,10.028681,10.028772,8.022871,2.005810,12.034582,20.057453,20.117720,10.183931,9.933789,8.085071,2.098860,12.032649,20.117720,0.060267,0.155251,-0.094984,0.062200,0.093051,-0.001933,0.060267,0.023382,-352.015584,-301.724684,-603.456966,-150.863032,0.000000,0.021102,-349.131305,-294.066126,-600.491914,-151.770995,0.000000,-0.002280,2.884279,7.658558,2.965052,-0.907963,0.000000,150.863032,150.861651,201.152551,301.717778,50.290901,251.441382,201.150710,151.770995,142.295131,197.360310,306.414257,55.065179,251.360609,202.361327,0.907963,-8.566520,-3.792241,4.696479,4.774279,-0.080774,1.210617,1.500000,-0.127984,2.000000
20.086091,0.375000,1.500000,2.000000,4.687500,12.500000,1.736100,0.500000,0.375000,1.438452,2.000000,4.687500,12.500000,1.736100,0.500000,20.057453,10.028681,10.028772,8.022871,2.005810,12.034582,20.057453,20.086091,10.102443,9.983648,8.052291,2.050152,12.033800,20.086091,0.028638,0.073762,-0.045124,0.029420,0.044342,-0.000782,0.028638,0.023382,-352.015584,-301.724684,-603.456966,-150.863032,0.000000,0.022260,-350.640595,-298.101576,-602.049286,-151.294141,0.000000,-0.001122,1.374989,3.623108,1.407680,-0.431108,0.000000,150.863032,150.861651,201.152551,301.717778,50.290901,251.441382,201.150710,151.294141,146.807435,199.346454,303.934656,52.539020,251.408691,201.725521,0.431108,-4.054217,-1.806097,2.216878,2.248120,-0.032691,0.574811,1.500000,-0.061548,2.000000
20.118666,0.375000,1.500000,2.000000,4.687500,12.500000,1.736100,0.500000,0.375000,1.370053,2.000000,4.687500,12.500000,1.736100,0.500000,20.057453,10.028681,10.028772,8.022871,2.005810,12.034582,20.057453,20.118666,10.186369,9.932297,8.086056,2.100313,12.032610,20.118666,0.061213,0.157689,-0.096476,0.063185,0.094503,-0.001972,0.061213,0.023382,-352.015584,-301.724684,-603.456966,-150.863032,0.000000,0.021069,-349.086310,-293.944879,-600.445290,-151.785270,0.000000,-0.002313,2.929273,7.779805,3.011677,-0.922237,0.000000,150.863032,150.861651,201.152551,301.717778,50.290901,251.441382,201.150710,151.785270,142.159609,197.301041,306.488925,55.141432,251.358979,202.380360,0.922237,-8.702042,-3.851511,4.771147,4.850531,-0.082403,1.229650,1.500000,-0.129947,2.000000
20.107543,0.375000,1.500000,2.000000,4.687500,12.500000,1.736100,0.500000,0.375000,1.393218,2.000000,4.687500,12.500000,1.736100,0.500000,20.057453,10.028681,10.028772,8.022871,2.005810,12.034582,20.057453,20.107543,10.157710,9.949834,8.074492,2.083218,12.033052,20.107543,0.050090,0.129029,-0.078939,0.051621,0.077408,-0.001530,0.050090,0.023382,-352.015584,-301.724684,-603.456966,-150.863032,0.000000,0.021465,-349.615862,-295.368396,-600.993300,-151.617487,0.000000,-0.001917,2.399721,6.356288,2.463667,-0.754454,0.000000,150.863032,150.861651,201.152551,301.717778,50.290901,251.441382,201.150710,151.617487,143.750909,197.998376,305.612891,54.247467,251.377437,202.156649,0.754454,-7.110742,-3.154176,3.895113,3.956566,-0.063945,1.005939,1.500000,-0.106782,2.000000
20.095159,0.375000,1.500000,2.000000,4.687500,12.500000,1.736100,0.500000,0.375000,1.419241,2.000000,4.687500,12.500000,1.736100,0.500000,20.057453,10.028681,10.028772,8.022871,2.005810,12.034582,20.057453,20.095159,10.125803,9.969356,8.061658,2.064144,12.033500,20.095159,0.037706,0.097122,-0.059416,0.038787,0.058334,-0.001082,0.037706,0.023382,-352.015584,-301.724684,-603.456966,-150.863032,0.000000,0.021919,-350.206900,-296.948267,-601.603082,-151.430776,0.000000,-0.001463,1.808684,4.776417,1.853884,-0.567743,0.000000,150.863032,150.861651,201.152551,301.717778,50.290901,251.441382,201.150710,151.430776,145.517492,198.776125,304.642204,53.258633,251.396182,201.907701,0.567743,-5.344160,-2.376427,2.924427,2.967733,-0.045200,0.756991,1.500000,-0.080759,2.000000
20.063073,0.375000,1.500000,2.000000,4.687500,12.500000,1.736100,0.500000,0.375000,1.487816,2.000000,4.687500,12.500000,1.736100,0.500000,20.057453,10.028681,10.028772,8.022871,2.005810,12.034582,20.057453,20.063073,10.043154,10.019919,8.028625,2.014529,12.034448,20.063073,0.005620,0.014473,-0.008854,0.005754,0.008720,-0.000134,0.005620,0.023382,-352.015584,-301.724684,-603.456966,-150.863032,0.000000,0.023157,-351.745121,-301.016009,-603.180910,-150.947582,0.000000,-0.000225,0.270463,0.708674,0.276056,-0.084550,0.000000,150.863032,150.861651,201.152551,301.717778,50.290901,251.441382,201.150710,150.947582,150.068427,200.797539,302.150686,50.729112,251.435789,201.263443,0.084550,-0.793224,-0.355013,0.432908,0.438212,-0.005594,0.112733,1.500000,-0.012184,2.000000
20.099986,0.375000,1.500000,2.000000,4.687500,12.500000,1.736100,0.500000,0.375000,1.409070,2.000000,4.687500,12.500000,1.736100,0.500000,20.057453,10.028681,10.028772,8.022871,2.005810,12.034582,20.057453,20.099986,10.138238,9.961748,8.066655,2.071583,12.033331,20.099986,0.042533,0.109557,-0.067025,0.043784,0.065773,-0.001251,0.042533,0.023382,-352.015584,-301.724684,-603.456966,-150.863032,0.000000,0.021740,-349.976369,-296.333165,-601.365472,-151.503532,0.000000,-0.001642,2.039215,5.391518,2.091494,-0.640499,0.000000,150.863032,150.861651,201.152551,301.717778,50.290901,251.441382,201.150710,151.503532,144.829633,198.472837,305.019931,53.643204,251.389103,202.004709,0.640499,-6.032018,-2.679714,3.302153,3.352303,-0.052279,0.853999,1.500000,-0.090930,2.000000
20.075315,0.375000,1.500000,2.000000,4.687500,12.500000,1.736100,0.500000,0.375000,1.461452,2.000000,4.687500,12.500000,1.736100,0.500000,20.057453,10.028681,10.028772,8.022871,2.005810,12.034582,20.057453,20.075315,10.074686,10.000629,8.041192,2.033494,12.034123,20.075315,0.017862,0.046006,-0.028144,0.018321,0.027685,-0.000459,0.017862,0.023382,-352.015584,-301.724684,-603.456966,-150.863032,0.000000,0.022675,-351.157009,-299.468267,-602.579220,-151.131856,0.000000,-0.000707,0.858575,2.256417,0.877746,-0.268824,0.000000,150.863032,150.861651,201.152551,301.717778,50.290901,251.441382,201.150710,151.131856,148.336411,200.025153,303.097361,51.688742,251.422211,201.509141,0.268824,-2.525240,-1.127399,1.379583,1.397842,-0.019171,0.358431,1.500000,-0.038548,2.000000
20.102851,0.375000,1.500000,2.000000,4.687500,12.500000,1.736100,0.500000,0.375000,1.403048,2.000000,4.687500,12.500000,1.736100,0.500000,20.057453,10.028681,10.028772,8.022871,2.005810,12.034582,20.057453,20.102851,10.145621,9.957230,8.069624,2.075997,12.033227,20.102851,0.045398,0.116941,-0.071542,0.046753,0.070187,-0.001355,0.045398,0.023382,-352.015584,-301.724684,-603.456966,-150.863032,0.000000,0.021635,-349.839602,-295.967568,-601.224365,-151.546738,0.000000,-0.001747,2.175982,5.757116,2.232601,-0.683706,0.000000,150.863032,150.861651,201.152551,301.717778,50.290901,251.441382,201.150710,151.546738,144.420830,198.292864,305.244559,53.872034,251.384763,202.062317,0.683706,-6.440821,-2.859688,3.526781,3.581133,-0.056619,0.911607,1.500000,-0.096952,2.000000
20.072152,0.375000,1.500000,2.000000,4.687500,12.500000,1.736100,0.500000,0.375000,1.468240,2.000000,4.687500,12.500000,1.736100,0.500000,20.057453,10.028681,10.028772,8.022871,2.005810,12.034582,20.057453,20.072152,10.066540,10.005613,8.037941,2.028599,12.034211,20.072152,0.014699,0.037859,-0.023160,0.015070,0.022789,-0.000370,0.014699,0.023382,-352.015584,-301.724684,-603.456966,-150.863032,0.000000,0.022798,-351.308810,-299.868651,-602.734711,-151.084237,0.000000,-0.000584,0.706774,1.856032,0.722255,-0.221204,0.000000,150.863032,150.861651,201.152551,301.717778,50.290901,251.441382,201.150710,151.084237,148.784415,200.224574,302.852308,51.440159,251.425901,201.445649,0.221204,-2.077237,-0.927978,1.134531,1.149259,-0.015481,0.294939,1.500000,-0.031760,2.000000
20.127268,0.375000,1.500000,2.000000,4.687500,12.500000,1.736100,0.500000,0.375000,1.352272,2.000000,4.687500,12.500000,1.736100,0.500000,20.057453,10.028681,10.028772,8.022871,2.005810,12.034582,20.057453,20.127268,10.208535,9.918732,8.095025,2.113511,12.032243,20.127268,0.069815,0.179855,-0.110040,0.072154,0.107701,-0.002339,0.069815,0.023382,-352.015584,-301.724684,-603.456966,-150.863032,0.000000,0.020772,-348.677592,-292.840998,-600.021249,-151.915088,0.000000,-0.002610,3.337992,8.883686,3.435717,-1.052056,0.000000,150.863032,150.861651,201.152551,301.717778,50.290901,251.441382,201.150710,151.915088,140.925910,196.762504,307.169167,55.836594,251.343658,202.553451,1.052056,-9.935741,-4.390048,5.451390,5.545693,-0.097725,1.402741,1.500000,-0.147728,2.000000
20.072767,0.375000,1.500000,2.000000,4.687500,12.500000,1.736100,0.500000,0.375000,1.466920,2.000000,4.687500,12.500000,1.736100,0.500000,20.057453,10.028681,10.028772,8.022871,2.005810,12.034582,20.057453,20.072767,10.068122,10.004645,8.038572,2.029550,12.034195,20.072767,0.015314,0.039441,-0.024128,0.015701,0.023740,-0.000387,0.015314,0.023382,-352.015584,-301.724684,-603.456966,-150.863032,0.000000,0.022774,-351.279315,-299.790903,-602.704509,-151.093486,0.000000,-0.000608,0.736269,1.933781,0.752457,-0.230454,0.000000,150.863032,150.861651,201.152551,301.717778,50.290901,251.441382,201.150710,151.093486,148.697417,200.185828,302.899885,51.488412,251.425194,201.457982,0.230454,-2.164234,-0.966723,1.182107,1.197511,-0.016188,0.307272,1.500000,-0.033080,2.000000
20.070574,0.375000,1.500000,2.000000,4.687500,12.500000,1.736100,0.500000,0.375000,1.471634,2.000000,4.687500,12.500000,1.736100,0.500000,20.057453,10.028681,10.028772,8.022871,2.005810,12.034582,20.057453,20.070574,10.062474,10.008100,8.036319,2.026154,12.034254,20.070574,0.013121,0.033793,-0.020672,0.013448,0.020345,-0.000328,0.013121,0.023382,-352.015584,-301.724684,-603.456966,-150.863032,0.000000,0.022860,-351.384607,-300.068339,-602.812303,-151.060474,0.000000,-0.000522,0.630976,1.656345,0.644663,-0.197441,0.000000,150.863032,150.861651,201.152551,301.717778,50.290901,251.441382,201.150710,151.060474,149.007866,200.324134,302.730132,51.316269,251.427695,201.413965,0.197441,-1.853786,-0.828418,1.012354,1.025368,-0.013687,0.263255,1.500000,-0.028366,2.000000
20.092222,0.375000,1.500000,2.000000,4.687500,12.500000,1.736100,0.500000,0.375000,1.425449,2.000000,4.687500,12.500000,1.736100,0.500000,20.057453,10.028681,10.028772,8.022871,2.005810,12.034582,20.057453,20.092222,10.118236,9.973985,8.058622,2.059614,12.033600,20.092222,0.034769,0.089556,-0.054787,0.035751,0.053805,-0.000982,0.034769,0.023382,-352.015584,-301.724684,-603.456966,-150.863032,0.000000,0.022029,-350.347285,-297.322141,-601.747631,-151.386513,0.000000,-0.001353,1.668299,4.402543,1.709335,-0.523481,0.000000,150.863032,150.861651,201.152551,301.717778,50.290901,251.441382,201.150710,151.386513,145.935627,198.960772,304.412737,53.025145,251.400346,201.848684,0.523481,-4.926024,-2.191780,2.694959,2.734244,-0.041036,0.697974,1.500000,-0.074551,2.000000
20.102338,0.375000,1.500000,2.000000,4.687500,12.500000,1.736100,0.500000,0.375000,1.404125,2.000000,4.687500,12.500000,1.736100,0.500000,20.057453,10.028681,10.028772,8.022871,2.005810,12.034582,20.057453,20.102338,10.144299,9.958039,8.069092,2.075207,12.033246,20.102338,0.044885,0.115618,-0.070733,0.046221,0.069397,-0.001336,0.044885,0.023382,-352.015584,-301.724684,-603.456966,-150.863032,0.000000,0.021654,-349.864089,-296.033064,-601.249637,-151.539000,0.000000,-0.001728,2.151495,5.691620,2.207329,-0.675967,0.000000,150.863032,150.861651,201.152551,301.717778,50.290901,251.441382,201.150710,151.539000,144.494064,198.325089,305.204311,53.831026,251.385548,202.052000,0.675967,-6.367588,-2.827462,3.486533,3.540126,-0.055834,0.901290,1.500000,-0.095875,2.000000
20.102204,0.375000,1.500000,2.000000,4.687500,12.500000,1.736100,0.500000,0.375000,1.404407,2.000000,4.687500,12.500000,1.736100,0.500000,20.057453,10.028681,10.028772,8.022871,2.005810,12.034582,20.057453,20.102204,10.143954,9.958250,8.068954,2.075000,12.033251,20.102204,0.044751,0.115273,-0.070522,0.046083,0.069191,-0.001331,0.044751,0.023382,-352.015584,-301.724684,-603.456966,-150.863032,0.000000,0.021659,-349.870483,-296.050163,-601.256236,-151.536980,0.000000,-0.001723,2.145101,5.674521,2.200730,-0.673947,0.000000,150.863032,150.861651,201.152551,301.717778,50.290901,251.441382,201.150710,151.536980,144.513183,198.333504,305.193804,53.820321,251.385752,202.049306,0.673947,-6.348468,-2.819048,3.476026,3.529420,-0.055630,0.898596,1.500000,-0.095593,2.000000
20.106607,0.375000,1.500000,2.000000,4.687500,12.500000,1.736100,0.500000,0.375000,1.395176,2.000000,4.687500,12.500000,1.736100,0.500000,20.057453,10.028681,10.028772,8.022871,2.005810,12.034582,20.057453,20.106607,10.155299,9.951309,8.073520,2.081778,12.033087,20.106607,0.049154,0.126618,-0.077463,0.050649,0.075969,-0.001495,0.049154,0.023382,-352.015584,-301.724684,-603.456966,-150.863032,0.000000,0.021498,-349.660473,-295.487970,-601.039393,-151.603374,0.000000,-0.001883,2.355111,6.236713,2.417573,-0.740341,0.000000,150.863032,150.861651,201.152551,301.717778,50.290901,251.441382,201.150710,151.603374,143.884597,198.057099,305.539365,54.172503,251.378920,202.137832,0.740341,-6.977055,-3.095452,3.821587,3.881602,-0.062462,0.987122,1.500000,-0.104824,2.000000
20.079597,0.375000,1.500000,2.000000,4.687500,12.500000,1.736100,0.500000,0.375000,1.452289,2.000000,4.687500,12.500000,1.736100,0.500000,20.057453,10.028681,10.028772,8.022871,2.005810,12.034582,20.057453,20.079597,10.085716,9.993881,8.045599,2.040118,12.033999,20.079597,0.022144,0.057036,-0.034891,0.022728,0.034308,-0.000583,0.022144,0.023382,-352.015584,-301.724684,-603.456966,-150.863032,0.000000,0.022509,-350.951654,-298.925652,-602.368668,-151.196336,0.000000,-0.000873,1.063929,2.799031,1.088298,-0.333304,0.000000,150.863032,150.861651,201.152551,301.717778,50.290901,251.441382,201.150710,151.196336,147.729316,199.755318,303.429638,52.026002,251.417014,201.595115,0.333304,-3.132335,-1.397233,1.711860,1.735102,-0.024369,0.444405,1.500000,-0.047711,2.000000
16.237553,0.375000,1.500000,2.000000,4.687500,12.500000,1.736100,0.500000,0.375000,287.173865,2.000000,4.687500,12.500000,1.736100,0.500000,20.057453,10.028681,10.028772,8.022871,2.005810,12.034582,20.057453,16.237553,1.410192,14.827361,4.653288,-3.243097,11.584264,16.237553,-3.819900,-8.618489,4.798589,-3.369583,-5.248906,-0.450318,-3.819900,0.023382,-352.015584,-301.724684,-603.456966,-150.863032,0.000000,-0.000000,-538.573064,-669.957263,-771.549310,-98.871793,0.000000,-0.023382,-186.557480,-368.232579,-168.092344,51.991240,0.000000,150.863032,150.861651,201.152551,301.717778,50.290901,251.441382,201.150710,98.871793,571.085471,439.701271,101.498873,-131.470966,232.976246,131.829057,-51.991240,420.223819,238.548720,-200.218905,-181.761867,-18.465136,-69.321653,1.500000,285.673865,2.000000
16.250981,0.375000,1.500000,2.000000,4.687500,12.500000,1.736100,0.500000,0.375000,277.024000,2.000000,4.687500,12.500000,1.736100,0.500000,20.057453,10.028681,10.028772,8.022871,2.005810,12.034582,20.057453,16.250981,1.434105,14.816876,4.668304,-3.234199,11.582678,16.250981,-3.806472,-8.594575,4.788104,-3.354567,-5.240008,-0.451904,-3.806472,0.023382,-352.015584,-301.724684,-603.456966,-150.863032,0.000000,-0.000000,-538.115040,-668.778927,-771.027472,-99.035399,0.000000,-0.023382,-186.099456,-367.054243,-167.570506,51.827634,0.000000,150.863032,150.861651,201.152551,301.717778,50.290901,251.441382,201.150710,99.035399,569.743528,439.079642,102.154972,-130.750512,232.912432,132.047198,-51.827634,418.881877,237.927090,-199.562806,-181.041413,-18.528950,-69.103512,1.500000,275.524000,2.000000
17.280451,0.375000,1.500000,2.000000,4.687500,12.500000,1.736100,0.500000,0.375000,40.968588,2.000000,4.687500,12.500000,1.736100,0.500000,20.057453,10.028681,10.028772,8.022871,2.005810,12.034582,20.057453,17.280451,3.354890,13.925561,5.776661,-2.421771,11.503790,17.280451,-2.777002,-6.673791,3.896789,-2.246210,-4.427580,-0.530791,-2.777002,0.023382,-352.015584,-301.724684,-603.456966,-150.863032,0.000000,-0.000001,-499.822758,-573.093472,-729.573363,-111.980248,0.000000,-0.023383,-147.807174,-271.368788,-126.116397,38.882784,0.000000,150.863032,150.861651,201.152551,301.717778,50.290901,251.441382,201.150710,111.980248,461.113223,387.842510,156.420983,-73.312168,229.750605,149.306998,-38.882784,310.251572,186.689958,-145.296795,-123.603068,-21.690777,-51.843712,1.500000,39.468588,2.000000
17.533008,0.375000,1.500000,2.000000,4.687500,12.500000,1.736100,0.500000,0.375000,29.108195,2.000000,4.687500,12.500000,1.736100,0.500000,20.057453,10.028681,10.028772,8.022871,2.005810,12.034582,20.057453,17.533008,3.857453,13.675555,6.031802,-2.174348,11.501207,17.533008,-2.524445,-6.171227,3.646783,-1.991070,-4.180158,-0.533375,-2.524445,0.023382,-352.015584,-301.724684,-603.456966,-150.863032,0.000000,-0.000000,-489.319005,-548.405775,-718.966424,-115.277394,0.000000,-0.023382,-137.303421,-246.681091,-115.509458,35.585639,0.000000,150.863032,150.861651,201.152551,301.717778,50.290901,251.441382,201.150710,115.277394,433.128381,374.041611,170.543575,-59.097373,229.647419,153.703192,-35.585639,282.266730,172.889059,-131.174202,-109.388273,-21.793963,-47.447518,1.500000,27.608195,2.000000
16.436801,0.375000,1.500000,2.000000,4.687500,12.500000,1.736100,0.500000,0.375000,176.306766,2.000000,4.687500,12.500000,1.736100,0.500000,20.057453,10.028681,10.028772,8.022871,2.005810,12.034582,20.057453,16.436801,1.767744,14.669057,4.874817,-3.107073,11.561984,16.436801,-3.620651,-8.260937,4.640285,-3.148054,-5.112883,-0.472598,-3.620651,0.023382,-352.015584,-301.724684,-603.456966,-150.863032,0.000000,-0.000001,-531.675660,-652.257514,-763.756610,-101.313166,0.000000,-0.023382,-179.660076,-350.532830,-160.299644,49.549866,0.000000,150.863032,150.861651,201.152551,301.717778,50.290901,251.441382,201.150710,101.313166,550.944348,430.362494,111.393008,-120.673789,232.080950,135.084221,-49.549866,400.082696,229.209942,-190.324770,-170.964690,-19.360432,-66.066489,1.500000,174.806766,2.000000
16.590342,0.375000,1.500000,2.000000,4.687500,12.500000,1.736100,0.500000,0.375000,127.682389,2.000000,4.687500,12.500000,1.736100,0.500000,20.057453,10.028681,10.028772,8.022871,2.005810,12.034582,20.057453,16.590342,2.047373,14.542969,5.043642,-2.996270,11.546700,16.590342,-3.467111,-7.981308,4.514197,-2.979229,-5.002079,-0.487882,-3.467111,0.023382,-352.015584,-301.724684,-603.456966,-150.863032,0.000000,-0.000000,-526.210706,-638.425616,-757.678450,-103.214795,0.000000,-0.023382,-174.195122,-336.700932,-154.221483,47.648238,0.000000,150.863032,150.861651,201.152551,301.717778,50.290901,251.441382,201.150710,103.214795,535.210821,422.995912,119.242169,-112.220395,231.467743,137.619726,-47.648238,384.349170,221.843360,-182.475608,-162.511296,-19.973639,-63.530984,1.500000,126.182389,2.000000
16.323450,0.375000,1.500000,2.000000,4.687500,12.500000,1.736100,0.500000,0.375000,230.057996,2.000000,4.687500,12.500000,1.736100,0.500000,20.057453,10.028681,10.028772,8.022871,2.005810,12.034582,20.057453,16.323450,1.563609,14.759841,4.749126,-3.185517,11.574324,16.323450,-3.734003,-8.465072,4.731068,-3.273745,-5.191327,-0.460258,-3.734003,0.023382,-352.015584,-301.724684,-603.456966,-150.863032,0.000000,-0.000000,-535.626414,-662.383252,-768.202990,-99.920627,0.000000,-0.023382,-183.610830,-360.658568,-164.746024,50.942405,0.000000,150.863032,150.861651,201.152551,301.717778,50.290901,251.441382,201.150710,99.920627,562.462625,435.705787,105.722804,-126.843984,232.576576,133.227503,-50.942405,411.600973,234.553235,-195.994973,-177.134885,-18.864806,-67.923207,1.500000,228.557996,2.000000
16.373649,0.375000,1.500000,2.000000,4.687500,12.500000,1.736100,0.500000,0.375000,203.797791,2.000000,4.687500,12.500000,1.736100,0.500000,20.057453,10.028681,10.028772,8.022871,2.005810,12.034582,20.057453,16.373649,1.653774,14.719875,4.804902,-3.151128,11.568747,16.373649,-3.683804,-8.374906,4.691103,-3.217969,-5.156937,-0.465835,-3.683804,0.023382,-352.015584,-301.724684,-603.456966,-150.863032,0.000000,-0.000000,-533.885589,-657.916983,-766.238112,-100.536149,0.000000,-0.023382,-181.870005,-356.192299,-162.781146,50.326884,0.000000,150.863032,150.861651,201.152551,301.717778,50.290901,251.441382,201.150710,100.536149,557.380834,433.349440,108.220717,-124.120086,232.352524,134.048198,-50.326884,406.519183,232.196889,-193.497060,-174.410987,-19.088859,-67.102512,1.500000,202.297791,2.000000
16.260382,0.375000,1.500000,2.000000,4.687500,12.500000,1.736100,0.500000,0.375000,270.215263,2.000000,4.687500,12.500000,1.736100,0.500000,20.057453,10.028681,10.028772,8.022871,2.005810,12.034582,20.057453,16.260382,1.450861,14.809521,4.678808,-3.227947,11.581574,16.260382,-3.797071,-8.577819,4.780748,-3.344063,-5.233756,-0.453008,-3.797071,0.023382,-352.015584,-301.724684,-603.456966,-150.863032,0.000000,-0.000000,-537.793824,-667.952763,-770.661874,-99.150010,0.000000,-0.023382,-185.778240,-366.228079,-167.204908,51.713022,0.000000,150.863032,150.861651,201.152551,301.717778,50.290901,251.441382,201.150710,99.150010,568.802752,438.643813,102.615216,-130.245512,232.868050,132.200014,-51.713022,417.941101,237.491262,-199.102562,-180.536412,-18.573332,-68.950696,1.500000,268.715263,2.000000
16.707327,0.375000,1.500000,2.000000,4.687500,12.500000,1.736100,0.500000,0.375000,102.119939,2.000000,4.687500,12.500000,1.736100,0.500000,20.057453,10.028681,10.028772,8.022871,2.005810,12.034582,20.057453,16.707327,2.263003,14.444324,5.170999,-2.907995,11.536329,16.707327,-3.350126,-7.765677,4.415552,-2.851872,-4.913805,-0.498253,-3.350126,0.023382,-352.015584,-301.724684,-603.456966,-150.863032,0.000000,-0.000000,-521.952540,-627.650602,-753.004670,-104.675547,0.000000,-0.023382,-169.936956,-325.925918,-149.547704,46.187486,0.000000,150.863032,150.861651,201.152551,301.717778,50.290901,251.441382,201.150710,104.675547,522.975055,417.276993,125.340135,-105.705464,231.052130,139.567395,-46.187486,372.113404,216.124442,-176.377643,-155.996365,-20.389252,-61.583315,1.500000,100.619939,2.000000
16.657958,0.375000,1.500000,2.000000,4.687500,12.500000,1.736100,0.500000,0.375000,111.982995,2.000000,4.687500,12.500000,1.736100,0.500000,20.057453,10.028681,10.028772,8.022871,2.005810,12.034582,20.057453,16.657958,2.171728,14.486230,5.117388,-2.945661,11.540570,16.657958,-3.399495,-7.856953,4.457458,-2.905483,-4.951470,-0.494012,-3.399495,0.023382,-352.015584,-301.724684,-603.456966,-150.863032,0.000000,-0.000000,-523.759554,-632.214537,-754.981590,-104.057833,0.000000,-0.023382,-171.743970,-330.489853,-151.524624,46.805200,0.000000,150.863032,150.861651,201.152551,301.717778,50.290901,251.441382,201.150710,104.057833,528.156704,419.701721,122.754663,-108.461447,231.222036,138.743777,-46.805200,377.295053,218.549170,-178.963115,-158.752348,-20.219346,-62.406933,1.500000,110.482995,2.000000
16.274693,0.375000,1.500000,2.000000,4.687500,12.500000,1.736100,0.500000,0.375000,260.291988,2.000000,4.687500,12.500000,1.736100,0.500000,20.057453,10.028681,10.028772,8.022871,2.005810,12.034582,20.057453,16.274693,1.476394,14.798299,4.694788,-3.218394,11.579905,16.274693,-3.782760,-8.552287,4.769527,-3.328083,-5.224203,-0.454677,-3.782760,0.023382,-352.015584,-301.724684,-603.456966,-150.863032,0.000000,-0.000000,-537.303919,-666.693089,-770.104869,-99.324610,0.000000,-0.023382,-185.288335,-364.968405,-166.647903,51.538423,0.000000,150.863032,150.861651,201.152551,301.717778,50.290901,251.441382,201.150710,99.324610,567.368479,437.979309,103.317329,-129.475733,232.800950,132.432813,-51.538423,416.506828,236.826758,-198.400449,-179.766634,-18.640432,-68.717897,1.500000,258.791988,2.000000
16.848431,0.375000,1.500000,2.000000,4.687500,12.500000,1.736100,0.500000,0.375000,79.608634,2.000000,4.687500,12.500000,1.736100,0.500000,20.057453,10.028681,10.028772,8.022871,2.005810,12.034582,20.057453,16.848431,2.526172,14.322259,5.323075,-2.796903,11.525356,16.848431,-3.209022,-7.502508,4.293487,-2.699796,-4.802713,-0.509226,-3.209022,0.023382,-352.015584,-301.724684,-603.456966,-150.863032,0.000000,-0.000000,-516.705326,-614.477317,-747.318143,-106.451115,0.000000,-0.023382,-164.689742,-312.752633,-143.861177,44.411917,0.000000,150.863032,150.861651,201.152551,301.717778,50.290901,251.441382,201.150710,106.451115,508.026202,410.254211,132.820926,-97.783331,230.612817,141.934820,-44.411917,357.164550,209.101659,-168.896852,-148.074232,-20.828566,-59.215890,1.500000,78.108634,2.000000
16.731327,0.375000,1.500000,2.000000,4.687500,12.500000,1.736100,0.500000,0.375000,97.742793,2.000000,4.687500,12.500000,1.736100,0.500000,20.057453,10.028681,10.028772,8.022871,2.005810,12.034582,20.057453,16.731327,2.307522,14.423805,5.196986,-2.889464,11.534341,16.731327,-3.326126,-7.721159,4.395032,-2.825885,-4.895274,-0.500241,-3.326126,0.023382,-352.015584,-301.724684,-603.456966,-150.863032,0.000000,-0.000000,-521.068779,-625.423388,-752.041284,-104.976486,0.000000,-0.023382,-169.053195,-323.698705,-148.584317,45.886546,0.000000,150.863032,150.861651,201.152551,301.717778,50.290901,251.441382,201.150710,104.976486,520.446902,416.092293,126.603118,-104.362543,230.972505,139.968648,-45.886546,369.585251,214.939741,-175.114660,-154.653443,-20.468878,-61.182062,1.500000,96.242793,2.000000
16.434388,0.375000,1.500000,2.000000,4.687500,12.500000,1.736100,0.500000,0.375000,177.260426,2.000000,4.687500,12.500000,1.736100,0.500000,20.057453,10.028681,10.028772,8.022871,2.005810,12.034582,20.057453,16.434388,1.763377,14.671011,4.872150,-3.108773,11.562238,16.434388,-3.623065,-8.265303,4.642238,-3.150721,-5.114583,-0.472344,-3.623065,0.023382,-352.015584,-301.724684,-603.456966,-150.863032,0.000000,-0.000001,-531.760528,-652.474625,-763.851642,-101.283416,0.000000,-0.023382,-179.744944,-350.749941,-160.394676,49.579616,0.000000,150.863032,150.861651,201.152551,301.717778,50.290901,251.441382,201.150710,101.283416,551.191209,430.477112,111.271173,-120.805882,232.091115,135.044555,-49.579616,400.329557,229.324560,-190.446605,-171.096783,-19.350268,-66.106155,1.500000,175.760426,2.000000
16.238268,0.375000,1.500000,2.000000,4.687500,12.500000,1.736100,0.500000,0.375000,286.620095,2.000000,4.687500,12.500000,1.736100,0.500000,20.057453,10.028681,10.028772,8.022871,2.005810,12.034582,20.057453,16.238268,1.411465,14.826803,4.654089,-3.242624,11.584179,16.238268,-3.819185,-8.617216,4.798031,-3.368782,-5.248433,-0.450403,-3.819185,0.023382,-352.015584,-301.724684,-603.456966,-150.863032,0.000000,-0.000000,-538.548687,-669.894541,-771.521521,-98.880505,0.000000,-0.023382,-186.533103,-368.169857,-168.064555,51.982527,0.000000,150.863032,150.861651,201.152551,301.717778,50.290901,251.441382,201.150710,98.880505,571.014036,439.668182,101.533786,-131.432611,232.972834,131.840674,-51.982527,420.152384,238.515630,-200.183992,-181.723512,-18.468548,-69.310036,1.500000,285.120095,2.000000
16.992746,0.375000,1.500000,2.000000,4.687500,12.500000,1.736100,0.500000,0.375000,62.868448,2.000000,4.687500,12.500000,1.736100,0.500000,20.057453,10.028681,10.028772,8.022871,2.005810,12.034582,20.057453,16.992746,2.798997,14.193749,5.476732,-2.677735,11.516014,16.992746,-3.064707,-7.229684,4.164976,-2.546139,-4.683545,-0.518568,-3.064707,0.023382,-352.015584,-301.724684,-603.456966,-150.863032,0.000000,-0.000000,-511.207536,-600.818038,-741.446634,-108.282526,0.000000,-0.023382,-159.191952,-299.093354,-137.989668,42.580506,0.000000,150.863032,150.861651,201.152551,301.717778,50.290901,251.441382,201.150710,108.282526,492.535512,402.925009,140.599657,-89.628321,230.239098,144.376702,-42.580506,341.673860,201.772458,-161.118121,-139.919222,-21.202284,-56.774008,1.500000,61.368448,2.000000
17.036424,0.375000,1.500000,2.000000,4.687500,12.500000,1.736100,0.500000,0.375000,58.716669,2.000000,4.687500,12.500000,1.736100,0.500000,20.057453,10.028681,10.028772,8.022871,2.005810,12.034582,20.057453,17.036424,2.882334,14.154090,5.522837,-2.640503,11.513587,17.036424,-3.021029,-7.146346,4.125317,-2.500034,-4.646313,-0.520995,-3.021029,0.023382,-352.015584,-301.724684,-603.456966,-150.863032,0.000000,-0.000000,-509.516409,-596.649232,-739.658472,-108.839902,0.000000,-0.023382,-157.500825,-294.924548,-136.201506,42.023130,0.000000,150.863032,150.861651,201.152551,301.717778,50.290901,251.441382,201.150710,108.839902,487.809330,400.676507,142.976868,-87.153203,230.142063,145.119870,-42.023130,336.947679,199.523955,-158.740910,-137.444104,-21.299320,-56.030840,1.500000,57.216669,2.000000
16.842504,0.375000,1.500000,2.000000,4.687500,12.500000,1.736100,0.500000,0.375000,80.414385,2.000000,4.687500,12.500000,1.736100,0.500000,20.057453,10.028681,10.028772,8.022871,2.005810,12.034582,20.057453,16.842504,2.515047,14.327457,5.316722,-2.801675,11.525782,16.842504,-3.214949,-7.513633,4.298684,-2.706149,-4.807485,-0.508800,-3.214949,0.023382,-352.015584,-301.724684,-603.456966,-150.863032,0.000000,-0.000000,-516.928258,-615.034423,-747.558101,-106.376227,0.000000,-0.023382,-164.912674,-313.309739,-144.101135,44.486805,0.000000,150.863032,150.861651,201.152551,301.717778,50.290901,251.441382,201.150710,106.376227,508.658195,410.552031,132.504082,-98.117297,230.629843,141.834970,-44.486805,357.796544,209.399479,-169.213696,-148.408197,-20.811539,-59.315740,1.500000,78.914385,2.000000
16.265038,0.375000,1.500000,2.000000,4.687500,12.500000,1.736100,0.500000,0.375000,266.929393,2.000000,4.687500,12.500000,1.736100,0.500000,20.057453,10.028681,10.028772,8.022871,2.005810,12.034582,20.057453,16.265038,1.459165,14.805873,4.684009,-3.224843,11.581030,16.265038,-3.792415,-8.569515,4.777101,-3.338862,-5.230653,-0.453552,-3.792415,0.023382,-352.015584,-301.724684,-603.456966,-150.863032,0.000000,-0.000000,-537.634548,-667.543175,-770.480705,-99.206802,0.000000,-0.023382,-185.618964,-365.818491,-167.023738,51.656230,0.000000,150.863032,150.861651,201.152551,301.717778,50.290901,251.441382,201.150710,99.206802,568.336373,438.427746,102.843462,-129.995188,232.846157,132.275736,-51.656230,417.474722,237.275195,-198.874315,-180.286088,-18.595226,-68.874974,1.500000,265.429393,2.000000
16.501990,0.375000,1.500000,2.000000,4.687500,12.500000,1.736100,0.500000,0.375000,153.003312,2.000000,4.687500,12.500000,1.736100,0.500000,20.057453,10.028681,10.028772,8.022871,2.005810,12.034582,20.057453,16.501990,1.886032,14.615958,4.946682,-3.060650,11.555308,16.501990,-3.555463,-8.142649,4.587186,-3.076189,-5.066460,-0.479274,-3.555463,0.023382,-352.015584,-301.724684,-603.456966,-150.863032,0.000000,-0.000001,-529.370823,-646.368810,-761.183809,-102.118372,0.000000,-0.023383,-177.355239,-344.644127,-157.726843,48.744660,0.000000,150.863032,150.861651,201.152551,301.717778,50.290901,251.441382,201.150710,102.118372,544.250438,427.252450,114.701540,-117.094750,231.812986,136.157830,-48.744660,393.388787,226.099899,-187.016238,-167.385651,-19.628396,-64.992880,1.500000,151.503312,2.000000
16.343451,0.375000,1.500000,2.000000,4.687500,12.500000,1.736100,0.500000,0.375000,219.062526,2.000000,4.687500,12.500000,1.736100,0.500000,20.057453,10.028681,10.028772,8.022871,2.005810,12.034582,20.057453,16.343451,1.599489,14.743962,4.771370,-3.171881,11.572081,16.343451,-3.714002,-8.429192,4.715190,-3.251501,-5.177691,-0.462501,-3.714002,0.023382,-352.015584,-301.724684,-603.456966,-150.863032,0.000000,-0.000000,-534.934487,-660.607237,-767.420938,-100.165643,0.000000,-0.023382,-182.918903,-358.882553,-163.963972,50.697389,0.000000,150.863032,150.861651,201.152551,301.717778,50.290901,251.441382,201.150710,100.165643,560.441593,434.768843,106.715492,-125.760400,232.486451,133.554191,-50.697389,409.579942,233.616292,-195.002286,-176.051301,-18.954931,-67.596519,1.500000,217.562526,2.000000
17.313542,0.375000,1.500000,2.000000,4.687500,12.500000,1.736100,0.500000,0.375000,39.112816,2.000000,4.687500,12.500000,1.736100,0.500000,20.057453,10.028681,10.028772,8.022871,2.005810,12.034582,20.057453,17.313542,3.419924,13.893618,5.810551,-2.390627,11.502991,17.313542,-2.743911,-6.608757,3.864846,-2.212320,-4.396437,-0.531591,-2.743911,0.023382,-352.015584,-301.724684,-603.456966,-150.863032,0.000000,-0.000001,-498.474764,-569.868217,-728.193433,-112.409521,0.000000,-0.023383,-146.459180,-268.143533,-124.736467,38.453511,0.000000,150.863032,150.861651,201.152551,301.717778,50.290901,251.441382,201.150710,112.409521,457.458696,386.065243,158.261715,-71.438724,229.718669,149.879361,-38.453511,306.597045,184.912692,-143.456063,-121.729624,-21.722713,-51.271349,1.500000,37.612816,2.000000
16.396914,0.375000,1.500000,2.000000,4.687500,12.500000,1.736100,0.500000,0.375000,193.024517,2.000000,4.687500,12.500000,1.736100,0.500000,20.057453,10.028681,10.028772,8.022871,2.005810,12.034582,20.057453,16.396914,1.695689,14.701225,4.830691,-3.135002,11.566223,16.396914,-3.660539,-8.332991,4.672453,-3.192180,-5.140812,-0.468359,-3.660539,0.023382,-352.015584,-301.724684,-603.456966,-150.863032,0.000000,-0.000001,-533.074074,-655.837341,-765.325204,-100.822046,0.000000,-0.023382,-181.058490,-354.112657,-161.868238,50.040986,0.000000,150.863032,150.861651,201.152551,301.717778,50.290901,251.441382,201.150710,100.822046,555.015294,432.252028,109.385527,-122.852988,232.251130,134.429395,-50.040986,404.153643,231.099476,-192.332251,-173.143888,-19.190252,-66.721315,1.500000,191.524517,2.000000
16.817214,0.375000,1.500000,2.000000,4.687500,12.500000,1.736100,0.500000,0.375000,83.975263,2.000000,4.687500,12.500000,1.736100,0.500000,20.057453,10.028681,10.028772,8.022871,2.005810,12.034582,20.057453,16.817214,2.467651,14.349563,5.289582,-2.821930,11.527633,16.817214,-3.240239,-7.561029,4.320790,-2.733289,-4.827740,-0.506949,-3.240239,0.023382,-352.015584,-301.724684,-603.456966,-150.863032,0.000000,-0.000000,-517.876917,-617.407766,-748.580842,-106.057008,0.000000,-0.023382,-165.861333,-315.683082,-145.123876,44.806025,0.000000,150.863032,150.861651,201.152551,301.717778,50.290901,251.441382,201.150710,106.057008,511.350758,411.819909,131.154716,-99.541138,230.703925,141.409344,-44.806025,360.489107,210.667358,-170.563062,-149.832038,-20.737458,-59.741366,1.500000,82.475263,2.000000
16.359611,0.375000,1.500000,2.000000,4.687500,12.500000,1.736100,0.500000,0.375000,210.704495,2.000000,4.687500,12.500000,1.736100,0.500000,20.057453,10.028681,10.028772,8.022871,2.005810,12.034582,20.057453,16.359611,1.628521,14.731090,4.789322,-3.160801,11.570289,16.359611,-3.697842,-8.400160,4.702317,-3.233549,-5.166610,-0.464293,-3.697842,0.023382,-352.015584,-301.724684,-603.456966,-150.863032,0.000000,-0.000000,-534.373835,-659.168944,-766.788296,-100.363821,0.000000,-0.023382,-182.358251,-357.444260,-163.331330,50.499211,0.000000,150.863032,150.861651,201.152551,301.717778,50.290901,251.441382,201.150710,100.363821,558.805123,434.010014,107.520005,-124.883275,232.414461,133.818428,-50.499211,407.943472,232.857462,-194.197772,-175.174176,-19.026921,-67.332282,1.500000,209.204495,2.000000
16.362602,0.375000,1.500000,2.000000,4.687500,12.500000,1.736100,0.500000,0.375000,209.205724,2.000000,4.687500,12.500000,1.736100,0.500000,20.057453,10.028681,10.028772,8.022871,2.005810,12.034582,20.057453,16.362602,1.633900,14.728702,4.792643,-3.158743,11.569959,16.362602,-3.694851,-8.394780,4.699930,-3.230228,-5.164553,-0.464623,-3.694851,0.023382,-352.015584,-301.724684,-603.456966,-150.863032,0.000000,-0.000000,-534.269876,-658.902326,-766.671090,-100.400534,0.000000,-0.023382,-182.254292,-357.177642,-163.214124,50.462499,0.000000,150.863032,150.861651,201.152551,301.717778,50.290901,251.441382,201.150710,100.400534,558.501792,433.869342,107.669197,-124.720722,232.401214,133.867379,-50.462499,407.640140,232.716790,-194.048581,-175.011623,-19.040168,-67.283331,1.500000,207.705724,2.000000
16.532343,0.375000,1.500000,2.000000,4.687500,12.500000,1.736100,0.500000,0.375000,143.612659,2.000000,4.687500,12.500000,1.736100,0.500000,20.057453,10.028681,10.028772,8.022871,2.005810,12.034582,20.057453,16.532343,1.941294,14.591049,4.980097,-3.038804,11.552245,16.532343,-3.525110,-8.087387,4.562277,-3.042774,-5.044613,-0.482337,-3.525110,0.023382,-352.015584,-301.724684,-603.456966,-150.863032,0.000000,-0.000000,-528.291806,-643.716020,-759.981938,-102.494382,0.000000,-0.023382,-176.276222,-341.991336,-156.524972,48.368651,0.000000,150.863032,150.861651,201.152551,301.717778,50.290901,251.441382,201.150710,102.494382,541.221638,425.797424,116.256420,-115.429106,231.690132,136.659176,-48.368651,390.359987,224.644873,-185.461358,-165.720006,-19.751250,-64.491534,1.500000,142.112659,2.000000
16.459149,0.375000,1.500000,2.000000,4.687500,12.500000,1.736100,0.500000,0.375000,167.801808,2.000000,4.687500,12.500000,1.736100,0.500000,20.057453,10.028681,10.028772,8.022871,2.005810,12.034582,20.057453,16.459149,1.808221,14.650928,4.899489,-3.091268,11.559660,16.459149,-3.598304,-8.220460,4.622156,-3.123382,-5.097078,-0.474922,-3.598304,0.023382,-352.015584,-301.724684,-603.456966,-150.863032,0.000000,-0.000001,-530.888249,-650.244064,-762.875902,-101.588846,0.000000,-0.023383,-178.872665,-348.519380,-159.418936,49.274187,0.000000,150.863032,150.861651,201.152551,301.717778,50.290901,251.441382,201.150710,101.588846,548.655218,429.299403,112.523397,-119.449236,231.987653,135.451794,-49.274187,397.793567,228.146852,-189.194381,-169.740137,-19.453729,-65.698916,1.500000,166.301808,2.000000
16.256195,0.375000,1.500000,2.000000,4.687500,12.500000,1.736100,0.500000,0.375000,273.219000,2.000000,4.687500,12.500000,1.736100,0.500000,20.057453,10.028681,10.028772,8.022871,2.005810,12.034582,20.057453,16.256195,1.443396,14.812799,4.674130,-3.230734,11.582065,16.256195,-3.801258,-8.585285,4.784027,-3.348741,-5.236544,-0.452517,-3.801258,0.023382,-352.015584,-301.724684,-603.456966,-150.863032,0.000000,-0.000000,-537.936971,-668.320913,-770.824762,-99.098948,0.000000,-0.023382,-185.921387,-366.596229,-167.367795,51.764085,0.000000,150.863032,150.861651,201.152551,301.717778,50.290901,251.441382,201.150710,99.098948,569.221966,438.838024,102.410101,-130.470534,232.887790,132.131930,-51.764085,418.360314,237.685472,-199.307677,-180.761434,-18.553592,-69.018780,1.500000,271.719000,2.000000
16.783361,0.375000,1.500000,2.000000,4.687500,12.500000,1.736100,0.500000,0.375000,89.074484,2.000000,4.687500,12.500000,1.736100,0.500000,20.057453,10.028681,10.028772,8.022871,2.005810,12.034582,20.057453,16.783361,2.404384,14.378978,5.253162,-2.848778,11.530200,16.783361,-3.274091,-7.624297,4.350206,-2.769709,-4.854588,-0.504382,-3.274091,0.023382,-352.015584,-301.724684,-603.456966,-150.863032,0.000000,-0.000000,-519.140471,-620.575427,-749.947157,-105.630459,0.000000,-0.023382,-167.124887,-318.850743,-146.490190,45.232574,0.000000,150.863032,150.861651,201.152551,301.717778,50.290901,251.441382,201.150710,105.630459,514.944968,413.510012,129.354892,-101.444227,230.806686,140.840611,-45.232574,364.083317,212.357461,-172.362886,-151.735128,-20.634696,-60.310098,1.500000,87.574484,2.000000
17.162428,0.375000,1.500000,2.000000,4.687500,12.500000,1.736100,0.500000,0.375000,48.551458,2.000000,4.687500,12.500000,1.736100,0.500000,20.057453,10.028681,10.028772,8.022871,2.005810,12.034582,20.057453,17.162428,3.124829,14.037599,5.654728,-2.529899,11.507701,17.162428,-2.895025,-6.903852,4.008827,-2.368143,-4.535708,-0.526881,-2.895025,0.023382,-352.015584,-301.724684,-603.456966,-150.863032,0.000000,-0.000001,-504.564247,-584.539322,-734.471061,-110.455856,0.000000,-0.023382,-152.548663,-282.814638,-131.014095,40.407176,0.000000,150.863032,150.861651,201.152551,301.717778,50.290901,251.441382,201.150710,110.455856,474.083466,394.108391,149.887252,-80.004848,229.906814,147.274475,-40.407176,323.221814,192.955840,-151.830526,-130.295749,-21.534568,-53.876235,1.500000,47.051458,2.000000
16.500155,0.375000,1.500000,2.000000,4.687500,12.500000,1.736100,0.500000,0.375000,153.599734,2.000000,4.687500,12.500000,1.736100,0.500000,20.057453,10.028681,10.028772,8.022871,2.005810,12.034582,20.057453,16.500155,1.882693,14.617461,4.944664,-3.061970,11.555491,16.500155,-3.557298,-8.145987,4.588689,-3.078207,-5.067780,-0.479091,-3.557298,0.023382,-352.015584,-301.724684,-603.456966,-150.863032,0.000000,-0.000001,-529.436025,-646.535189,-761.256378,-102.095666,0.000000,-0.023383,-177.420441,-344.810505,-157.799412,48.767367,0.000000,150.863032,150.861651,201.152551,301.717778,50.290901,251.441382,201.150710,102.095666,544.439524,427.340359,114.607959,-117.195770,231.820353,136.127555,-48.767367,393.577872,226.187808,-187.109819,-167.486671,-19.621029,-65.023155,1.500000,152.099734,2.000000
16.307328,0.375000,1.500000,2.000000,4.687500,12.500000,1.736100,0.500000,0.375000,239.487016,2.000000,4.687500,12.500000,1.736100,0.500000,20.057453,10.028681,10.028772,8.022871,2.005810,12.034582,20.057453,16.307328,1.534732,14.772596,4.731176,-3.196445,11.576151,16.307328,-3.750125,-8.493949,4.743824,-3.291695,-5.202254,-0.458431,-3.750125,0.023382,-352.015584,-301.724684,-603.456966,-150.863032,0.000000,-0.000000,-536.182536,-663.811418,-768.832574,-99.723351,0.000000,-0.023382,-184.166952,-362.086734,-165.375607,51.139681,0.000000,150.863032,150.861651,201.152551,301.717778,50.290901,251.441382,201.150710,99.723351,564.088067,436.459185,104.925142,-127.715733,232.650037,132.964469,-51.139681,413.226415,235.306633,-196.792636,-178.006633,-18.791345,-68.186241,1.500000,237.987016,2.000000
16.519796,0.375000,1.500000,2.000000,4.687500,12.500000,1.736100,0.500000,0.375000,147.410013,2.000000,4.687500,12.500000,1.736100,0.500000,20.057453,10.028681,10.028772,8.022871,2.005810,12.034582,20.057453,16.519796,1.918418,14.601379,4.966318,-3.047900,11.553479,16.519796,-3.537657,-8.110263,4.572606,-3.056553,-5.053710,-0.481103,-3.537657,0.023382,-352.015584,-301.724684,-603.456966,-150.863032,0.000000,-0.000000,-528.739405,-644.855790,-760.479023,-102.338878,0.000000,-0.023382,-176.723821,-343.131106,-157.022057,48.524155,0.000000,150.863032,150.861651,201.152551,301.717778,50.290901,251.441382,201.150710,102.338878,542.516912,426.400527,115.613952,-116.121175,231.739618,136.451837,-48.524155,391.655261,225.247976,-186.103826,-166.412076,-19.701764,-64.698873,1.500000,145.910013,2.000000
16.315254,0.375000,1.500000,2.000000,4.687500,12.500000,1.736100,0.500000,0.375000,234.785226,2.000000,4.687500,12.500000,1.736100,0.500000,20.057453,10.028681,10.028772,8.022871,2.005810,12.034582,20.057453,16.315254,1.548925,14.766329,4.740004,-3.191079,11.575250,16.315254,-3.742199,-8.479756,4.737557,-3.282867,-5.196889,-0.459332,-3.742199,0.023382,-352.015584,-301.724684,-603.456966,-150.863032,0.000000,-0.000000,-535.909288,-663.109615,-768.523116,-99.820321,0.000000,-0.023382,-183.893704,-361.384931,-165.066150,51.042711,0.000000,150.863032,150.861651,201.152551,301.717778,50.290901,251.441382,201.150710,99.820321,563.289294,436.088967,105.317047,-127.287311,232.613828,133.093761,-51.042711,412.427643,234.936415,-196.400731,-177.578211,-18.827554,-68.056949,1.500000,233.285226,2.000000
17.679915,0.375000,1.500000,2.000000,4.687500,12.500000,1.736100,0.500000,0.375000,24.113499,2.000000,4.687500,12.500000,1.736100,0.500000,20.057453,10.028681,10.028772,8.022871,2.005810,12.034582,20.057453,17.679915,4.156920,13.522995,6.175957,-2.019037,11.503958,17.679915,-2.377538,-5.871761,3.494223,-1.846914,-4.024847,-0.530624,-2.377538,0.023382,-352.015584,-301.724684,-603.456966,-150.863032,0.000000,-0.000000,-482.960081,-533.898127,-712.717385,-117.217275,0.000000,-0.023382,-130.944497,-232.173443,-109.260419,33.645757,0.000000,150.863032,150.861651,201.152551,301.717778,50.290901,251.441382,201.150710,117.217275,416.680851,365.742805,178.792710,-50.956387,229.757304,156.289701,-33.645757,265.819200,164.590254,-122.925068,-101.247288,-21.684078,-44.861009,1.500000,22.613499,2.000000
17.510406,0.375000,1.500000,2.000000,4.687500,12.500000,1.736100,0.500000,0.375000,29.982246,2.000000,4.687500,12.500000,1.736100,0.500000,20.057453,10.028681,10.028772,8.022871,2.005810,12.034582,20.057453,17.510406,3.811864,13.698542,6.009330,-2.197466,11.501076,17.510406,-2.547047,-6.216817,3.669770,-2.013541,-4.203276,-0.533506,-2.547047,0.023382,-352.015584,-301.724684,-603.456966,-150.863032,0.000000,-0.000000,-490.280499,-550.631604,-719.922687,-114.980374,0.000000,-0.023382,-138.264915,-248.906920,-116.465720,35.882659,0.000000,150.863032,150.861651,201.152551,301.717778,50.290901,251.441382,201.150710,114.980374,435.651231,375.300125,169.275245,-60.360736,229.642188,153.307165,-35.882659,284.789579,174.147574,-132.442533,-110.651636,-21.799195,-47.843545,1.500000,28.482246,2.000000
16.312880,0.375000,1.500000,2.000000,4.687500,12.500000,1.736100,0.500000,0.375000,236.180065,2.000000,4.687500,12.500000,1.736100,0.500000,20.057453,10.028681,10.028772,8.022871,2.005810,12.034582,20.057453,16.312880,1.544672,14.768208,4.737360,-3.192688,11.575520,16.312880,-3.744573,-8.484008,4.739435,-3.285511,-5.198497,-0.459062,-3.744573,0.023382,-352.015584,-301.724684,-603.456966,-150.863032,0.000000,-0.000000,-535.991175,-663.319917,-768.615832,-99.791269,0.000000,-0.023382,-183.975592,-361.595233,-165.158865,51.071764,0.000000,150.863032,150.861651,201.152551,301.717778,50.290901,251.441382,201.150710,99.791269,563.528648,436.199906,105.199595,-127.415683,232.624656,133.055025,-51.071764,412.666997,235.047355,-196.518183,-177.706583,-18.816726,-68.095685,1.500000,234.680065,2.000000
16.861974,0.375000,1.500000,2.000000,4.687500,12.500000,1.736100,0.500000,0.375000,77.807095,2.000000,4.687500,12.500000,1.736100,0.500000,20.057453,10.028681,10.028772,8.022871,2.005810,12.034582,20.057453,16.861974,2.551613,14.310361,5.337578,-2.785965,11.524396,16.861974,-3.195479,-7.477067,4.281588,-2.685293,-4.791774,-0.510186,-3.195479,0.023382,-352.015584,-301.724684,-603.456966,-150.863032,0.000000,-0.000000,-516.195152,-613.203301,-746.769552,-106.622310,0.000000,-0.023382,-164.179568,-311.478617,-143.312585,44.240722,0.000000,150.863032,150.861651,201.152551,301.717778,50.290901,251.441382,201.150710,106.622310,506.580990,409.572841,133.545640,-97.019981,230.574400,142.163081,-44.240722,355.719339,208.420290,-168.172138,-147.310882,-20.866982,-58.987629,1.500000,76.307095,2.000000
16.253378,0.375000,1.500000,2.000000,4.687500,12.500000,1.736100,0.500000,0.375000,275.265367,2.000000,4.687500,12.500000,1.736100,0.500000,20.057453,10.028681,10.028772,8.022871,2.005810,12.034582,20.057453,16.253378,1.438376,14.815002,4.670983,-3.232606,11.582396,16.253378,-3.804075,-8.590304,4.786230,-3.351888,-5.238416,-0.452186,-3.804075,0.023382,-352.015584,-301.724684,-603.456966,-150.863032,0.000000,-0.000000,-538.033185,-668.568379,-770.934278,-99.064615,0.000000,-0.023382,-186.017601,-366.843695,-167.477312,51.798418,0.000000,150.863032,150.861651,201.152551,301.717778,50.290901,251.441382,201.150710,99.064615,569.503764,438.968570,102.272247,-130.621803,232.901093,132.086153,-51.798418,418.642113,237.816019,-199.445531,-180.912704,-18.540289,-69.064557,1.500000,273.765367,2.000000
16.781540,0.375000,1.500000,2.000000,4.687500,12.500000,1.736100,0.500000,0.375000,89.360321,2.000000,4.687500,12.500000,1.736100,0.500000,20.057453,10.028681,10.028772,8.022871,2.005810,12.034582,20.057453,16.781540,2.400985,14.380555,5.251199,-2.850214,11.530341,16.781540,-3.275913,-7.627696,4.351783,-2.771672,-4.856024,-0.504241,-3.275913,0.023382,-352.015584,-301.724684,-603.456966,-150.863032,0.000000,-0.000000,-519.208255,-620.745565,-750.020586,-105.607532,0.000000,-0.023382,-167.192672,-319.020881,-146.563620,45.255501,0.000000,150.863032,150.861651,201.152551,301.717778,50.290901,251.441382,201.150710,105.607532,515.138034,413.600724,129.258261,-101.546529,230.812330,140.810042,-45.255501,364.276382,212.448172,-172.459517,-151.837430,-20.629052,-60.340668,1.500000,87.860321,2.000000
17.714247,0.375000,1.500000,2.000000,4.687500,12.500000,1.736100,0.500000,0.375000,23.096950,2.000000,4.687500,12.500000,1.736100,0.500000,20.057453,10.028681,10.028772,8.022871,2.005810,12.034582,20.057453,17.714247,4.227726,13.486522,6.209143,-1.981417,11.505104,17.714247,-2.343206,-5.800955,3.457749,-1.813728,-3.987227,-0.529478,-2.343206,0.023382,-352.015584,-301.724684,-603.456966,-150.863032,0.000000,-0.000000,-481.445486,-530.500154,-711.248577,-117.672961,0.000000,-0.023382,-129.429902,-228.775470,-107.791611,33.190071,0.000000,150.863032,150.861651,201.152551,301.717778,50.290901,251.441382,201.150710,117.672961,412.827193,363.772524,180.719331,-49.075170,229.803091,156.897282,-33.190071,261.965541,162.619973,-120.998447,-99.366071,-21.638291,-44.253428,1.500000,21.596950,2.000000
16.269496,0.375000,1.500000,2.000000,4.687500,12.500000,1.736100,0.500000,0.375000,263.835450,2.000000,4.687500,12.500000,1.736100,0.500000,20.057453,10.028681,10.028772,8.022871,2.005810,12.034582,20.057453,16.269496,1.467119,14.802377,4.688987,-3.221868,11.580510,16.269496,-3.787957,-8.561561,4.773605,-3.333884,-5.227677,-0.454072,-3.787957,0.023382,-352.015584,-301.724684,-603.456966,-150.863032,0.000000,-0.000000,-537.481939,-667.150775,-770.307189,-99.261192,0.000000,-0.023382,-185.466355,-365.426091,-166.850223,51.601840,0.000000,150.863032,150.861651,201.152551,301.717778,50.290901,251.441382,201.150710,99.261192,567.889582,438.220747,103.062175,-129.755393,232.825250,132.348257,-51.601840,417.027931,237.068195,-198.655603,-180.046293,-18.616132,-68.802453,1.500000,262.335450,2.000000
16.285695,0.375000,1.500000,2.000000,4.687500,12.500000,1.736100,0.500000,0.375000,253.005614,2.000000,4.687500,12.500000,1.736100,0.500000,20.057453,10.028681,10.028772,8.022871,2.005810,12.034582,20.057453,16.285695,1.496044,14.789651,4.707064,-3.211019,11.578632,16.285695,-3.771758,-8.532636,4.760879,-3.315807,-5.216829,-0.455950,-3.771758,0.023382,-352.015584,-301.724684,-603.456966,-150.863032,0.000000,-0.000000,-536.926510,-665.722972,-769.676253,-99.458951,0.000000,-0.023382,-184.910926,-363.998288,-166.219287,51.404082,0.000000,150.863032,150.861651,201.152551,301.717778,50.290901,251.441382,201.150710,99.458951,566.264021,437.467559,103.858349,-128.883075,232.749744,132.611934,-51.404082,415.402370,236.315007,-197.859429,-179.173976,-18.691639,-68.538775,1.500000,251.505614,2.000000
16.269701,0.375000,1.500000,2.000000,4.687500,12.500000,1.736100,0.500000,0.375000,263.694383,2.000000,4.687500,12.500000,1.736100,0.500000,20.057453,10.028681,10.028772,8.022871,2.005810,12.034582,20.057453,16.269701,1.467485,14.802216,4.689216,-3.221731,11.580486,16.269701,-3.787752,-8.561196,4.773444,-3.333655,-5.227540,-0.454096,-3.787752,0.023382,-352.015584,-301.724684,-603.456966,-150.863032,0.000000,-0.000000,-537.474919,-667.132724,-770.299209,-99.263694,0.000000,-0.023382,-185.459335,-365.408041,-166.842243,51.599339,0.000000,150.863032,150.861651,201.152551,301.717778,50.290901,251.441382,201.150710,99.263694,567.869030,438.211225,103.072237,-129.744363,232.824290,132.351592,-51.599339,417.007379,237.058673,-198.645541,-180.035263,-18.617092,-68.799118,1.500000,262.194383,2.000000
16.419991,0.375000,1.500000,2.000000,4.687500,12.500000,1.736100,0.500000,0.375000,183.099134,2.000000,4.687500,12.500000,1.736100,0.500000,20.057453,10.028681,10.028772,8.022871,2.005810,12.034582,20.057453,16.419991,1.737348,14.682644,4.856235,-3.118887,11.563757,16.419991,-3.637461,-8.291333,4.653871,-3.166636,-5.124697,-0.470825,-3.637461,0.023382,-352.015584,-301.724684,-603.456966,-150.863032,0.000000,-0.000001,-532.266093,-653.768365,-764.418195,-101.106045,0.000000,-0.023382,-180.250509,-352.043681,-160.961229,49.756987,0.000000,150.863032,150.861651,201.152551,301.717778,50.290901,251.441382,201.150710,101.106045,552.662319,431.160048,110.545394,-121.593205,232.152102,134.808060,-49.756987,401.800668,230.007497,-191.172384,-171.884105,-19.289280,-66.342650,1.500000,181.599134,2.000000
16.262381,0.375000,1.500000,2.000000,4.687500,12.500000,1.736100,0.500000,0.375000,268.797958,2.000000,4.687500,12.500000,1.736100,0.500000,20.057453,10.028681,10.028772,8.022871,2.005810,12.034582,20.057453,16.262381,1.454425,14.807955,4.681041,-3.226615,11.581340,16.262381,-3.795072,-8.574255,4.779183,-3.341830,-5.232425,-0.453242,-3.795072,0.023382,-352.015584,-301.724684,-603.456966,-150.863032,0.000000,-0.000000,-537.725471,-667.776984,-770.584117,-99.174385,0.000000,-0.023382,-185.709887,-366.052300,-167.127150,51.688647,0.000000,150.863032,150.861651,201.152551,301.717778,50.290901,251.441382,201.150710,99.174385,568.602599,438.551086,102.713164,-130.138080,232.858645,132.232514,-51.688647,417.740948,237.398534,-199.004613,-180.428980,-18.582737,-68.918196,1.500000,267.297958,2.000000
16.400982,0.375000,1.500000,2.000000,4.687500,12.500000,1.736100,0.500000,0.375000,191.222090,2.000000,4.687500,12.500000,1.736100,0.500000,20.057453,10.028681,10.028772,8.022871,2.005810,12.034582,20.057453,16.400982,1.703026,14.697956,4.835196,-3.132170,11.565785,16.400982,-3.656471,-8.325654,4.669183,-3.187675,-5.137980,-0.468797,-3.656471,0.023382,-352.015584,-301.724684,-603.456966,-150.863032,0.000000,-0.000001,-532.931875,-655.473096,-765.165437,-100.872076,0.000000,-0.023382,-180.916291,-353.748412,-161.708471,49.990957,0.000000,150.863032,150.861651,201.152551,301.717778,50.290901,251.441382,201.150710,100.872076,554.601021,432.059799,109.589649,-122.631142,232.233562,134.496101,-49.990957,403.739369,230.907248,-192.128129,-172.922043,-19.207820,-66.654609,1.500000,189.722090,2.000000
16.243022,0.375000,1.500000,2.000000,4.687500,12.500000,1.736100,0.500000,0.375000,282.978166,2.000000,4.687500,12.500000,1.736100,0.500000,20.057453,10.028681,10.028772,8.022871,2.005810,12.034582,20.057453,16.243022,1.419928,14.823094,4.659405,-3.239477,11.583617,16.243022,-3.814431,-8.608753,4.794322,-3.363466,-5.245287,-0.450965,-3.814431,0.023382,-352.015584,-301.724684,-603.456966,-150.863032,0.000000,-0.000000,-538.386639,-669.477613,-771.336836,-98.938409,0.000000,-0.023382,-186.371055,-367.752929,-167.879870,51.924623,0.000000,150.863032,150.861651,201.152551,301.717778,50.290901,251.441382,201.150710,98.938409,570.539204,439.448229,101.765895,-131.177674,232.950197,131.917879,-51.924623,419.677552,238.295678,-199.951883,-181.468575,-18.491185,-69.232831,1.500000,281.478166,2.000000
16.335928,0.375000,1.500000,2.000000,4.687500,12.500000,1.736100,0.500000,0.375000,223.110814,2.000000,4.687500,12.500000,1.736100,0.500000,20.057453,10.028681,10.028772,8.022871,2.005810,12.034582,20.057453,16.335928,1.585986,14.749941,4.763007,-3.177020,11.572921,16.335928,-3.721525,-8.442694,4.721169,-3.259864,-5.182830,-0.461661,-3.721525,0.023382,-352.015584,-301.724684,-603.456966,-150.863032,0.000000,-0.000000,-535.194998,-661.275788,-767.715216,-100.073451,0.000000,-0.023382,-183.179415,-359.551105,-164.258250,50.789582,0.000000,150.863032,150.861651,201.152551,301.717778,50.290901,251.441382,201.150710,100.073451,561.202338,435.121548,106.341715,-126.168233,232.520217,133.431268,-50.789582,410.340686,233.968996,-195.376062,-176.459134,-18.921165,-67.719442,1.500000,221.610814,2.000000
16.242717,0.375000,1.500000,2.000000,4.687500,12.500000,1.736100,0.500000,0.375000,283.209403,2.000000,4.687500,12.500000,1.736100,0.500000,20.057453,10.028681,10.028772,8.022871,2.005810,12.034582,20.057453,16.242717,1.419386,14.823332,4.659065,-3.239679,11.583653,16.242717,-3.814736,-8.609295,4.794559,-3.363806,-5.245489,-0.450929,-3.814736,0.023382,-352.015584,-301.724684,-603.456966,-150.863032,0.000000,-0.000000,-538.397018,-669.504316,-771.348663,-98.934701,0.000000,-0.023382,-186.381434,-367.779632,-167.891697,51.928331,0.000000,150.863032,150.861651,201.152551,301.717778,50.290901,251.441382,201.150710,98.934701,570.569615,439.462317,101.751027,-131.194001,232.951645,131.912935,-51.928331,419.707963,238.309765,-199.966750,-181.484902,-18.489738,-69.237775,1.500000,281.709403,2.000000
16.396198,0.375000,1.500000,2.000000,4.687500,12.500000,1.736100,0.500000,0.375000,193.344379,2.000000,4.687500,12.500000,1.736100,0.500000,20.057453,10.028681,10.028772,8.022871,2.005810,12.034582,20.057453,16.396198,1.694397,14.701800,4.829898,-3.135501,11.566300,16.396198,-3.661255,-8.334283,4.673028,-3.192973,-5.141310,-0.468282,-3.661255,0.023382,-352.015584,-301.724684,-603.456966,-150.863032,0.000000,-0.000001,-533.099108,-655.901471,-765.353337,-100.813237,0.000000,-0.023382,-181.083524,-354.176787,-161.896371,50.049796,0.000000,150.863032,150.861651,201.152551,301.717778,50.290901,251.441382,201.150710,100.813237,555.088234,432.285871,109.349592,-122.892049,232.254229,134.417649,-50.049796,404.226583,231.133320,-192.368185,-173.182950,-19.187154,-66.733061,1.500000,191.844379,2.000000
16.407429,0.375000,1.500000,2.000000,4.687500,12.500000,1.736100,0.500000,0.375000,188.412604,2.000000,4.687500,12.500000,1.736100,0.500000,20.057453,10.028681,10.028772,8.022871,2.005810,12.034582,20.057453,16.407429,1.714660,14.692769,4.842334,-3.127675,11.565094,16.407429,-3.650024,-8.314021,4.663997,-3.180537,-5.133484,-0.469488,-3.650024,0.023382,-352.015584,-301.724684,-603.456966,-150.863032,0.000000,-0.000001,-532.706309,-654.895412,-764.912127,-100.951394,0.000000,-0.023382,-180.690726,-353.170728,-161.455161,49.911639,0.000000,150.863032,150.861651,201.152551,301.717778,50.290901,251.441382,201.150710,100.951394,553.944018,431.754916,109.913447,-122.279352,232.205818,134.601858,-49.911639,403.082367,230.602365,-191.804331,-172.570253,-19.235564,-66.548852,1.500000,186.912604,2.000000
16.254727,0.375000,1.500000,2.000000,4.687500,12.500000,1.736100,0.500000,0.375000,274.282480,2.000000,4.687500,12.500000,1.736100,0.500000,20.057453,10.028681,10.028772,8.022871,2.005810,12.034582,20.057453,16.254727,1.440780,14.813947,4.672490,-3.231710,11.582237,16.254727,-3.802726,-8.587900,4.785174,-3.350381,-5.237519,-0.452345,-3.802726,0.023382,-352.015584,-301.724684,-603.456966,-150.863032,0.000000,-0.000000,-537.987103,-668.449853,-770.881822,-99.081060,0.000000,-0.023382,-185.971520,-366.725170,-167.424856,51.781973,0.000000,150.863032,150.861651,201.152551,301.717778,50.290901,251.441382,201.150710,99.081060,569.368794,438.906044,102.338271,-130.549350,232.894718,132.108080,-51.781973,418.507142,237.753492,-199.379507,-180.840251,-18.546664,-69.042630,1.500000,272.782480,2.000000
16.457975,0.375000,1.500000,2.000000,4.687500,12.500000,1.736100,0.500000,0.375000,168.234477,2.000000,4.687500,12.500000,1.736100,0.500000,20.057453,10.028681,10.028772,8.022871,2.005810,12.034582,20.057453,16.457975,1.806092,14.651883,4.898194,-3.092101,11.559781,16.457975,-3.599478,-8.222588,4.623110,-3.124677,-5.097911,-0.474801,-3.599478,0.023382,-352.015584,-301.724684,-603.456966,-150.863032,0.000000,-0.000001,-530.929690,-650.349988,-762.922208,-101.574352,0.000000,-0.023383,-178.914106,-348.625304,-159.465242,49.288680,0.000000,150.863032,150.861651,201.152551,301.717778,50.290901,251.441382,201.150710,101.574352,548.775635,429.355337,112.463907,-119.513637,231.992518,135.432470,-49.288680,397.913984,228.202786,-189.253871,-169.804538,-19.448864,-65.718240,1.500000,166.734477,2.000000
16.550393,0.375000,1.500000,2.000000,4.687500,12.500000,1.736100,0.500000,0.375000,138.379226,2.000000,4.687500,12.500000,1.736100,0.500000,20.057453,10.028681,10.028772,8.022871,2.005810,12.034582,20.057453,16.550393,1.974249,14.576144,4.999901,-3.025652,11.550492,16.550393,-3.507060,-8.054432,4.547371,-3.022970,-5.031462,-0.484090,-3.507060,0.023382,-352.015584,-301.724684,-603.456966,-150.863032,0.000000,-0.000000,-527.646247,-642.073338,-759.266039,-102.718312,0.000000,-0.023382,-175.630663,-340.348654,-155.809073,48.144720,0.000000,150.863032,150.861651,201.152551,301.717778,50.290901,251.441382,201.150710,102.718312,539.355026,424.927935,117.182869,-114.432145,231.619792,136.957750,-48.144720,388.493374,223.775383,-184.534909,-164.723045,-19.821590,-64.192960,1.500000,136.879226,2.000000
16.932567,0.375000,1.500000,2.000000,4.687500,12.500000,1.736100,0.500000,0.375000,69.231551,2.000000,4.687500,12.500000,1.736100,0.500000,20.057453,10.028681,10.028772,8.022871,2.005810,12.034582,20.057453,16.932567,2.684766,14.247801,5.412900,-2.728134,11.519668,16.932567,-3.124886,-7.343915,4.219029,-2.609971,-4.733943,-0.514914,-3.124886,0.023382,-352.015584,-301.724684,-603.456966,-150.863032,0.000000,-0.000000,-513.516625,-606.535771,-743.901858,-107.516939,0.000000,-0.023382,-161.501041,-304.811087,-140.444891,43.346094,0.000000,150.863032,150.861651,201.152551,301.717778,50.290901,251.441382,201.150710,107.516939,499.018832,405.999686,137.341325,-93.033916,230.385233,143.355918,-43.346094,348.157181,204.847135,-164.376453,-143.324816,-21.056149,-57.794792,1.500000,67.731551,2.000000
16.473299,0.375000,1.500000,2.000000,4.687500,12.500000,1.736100,0.500000,0.375000,162.705215,2.000000,4.687500,12.500000,1.736100,0.500000,20.057453,10.028681,10.028772,8.022871,2.005810,12.034582,20.057453,16.473299,1.833890,14.639409,4.915092,-3.081202,11.558207,16.473299,-3.584153,-8.194790,4.610637,-3.107779,-5.087011,-0.476375,-3.584153,0.023382,-352.015584,-301.724684,-603.456966,-150.863032,0.000000,-0.000001,-530.388196,-648.966286,-762.317544,-101.763598,0.000000,-0.023383,-178.372612,-347.241602,-158.860578,49.099434,0.000000,150.863032,150.861651,201.152551,301.717778,50.290901,251.441382,201.150710,101.763598,547.202688,428.624597,113.241233,-118.672544,231.929348,135.684798,-49.099434,396.341036,227.472046,-188.476545,-168.963445,-19.512034,-65.465912,1.500000,161.205215,2.000000
16.476781,0.375000,1.500000,2.000000,4.687500,12.500000,1.736100,0.500000,0.375000,161.483744,2.000000,4.687500,12.500000,1.736100,0.500000,20.057453,10.028681,10.028772,8.022871,2.005810,12.034582,20.057453,16.476781,1.840211,14.636570,4.918929,-3.078718,11.557852,16.476781,-3.580672,-8.188469,4.607798,-3.103942,-5.084527,-0.476730,-3.580672,0.023382,-352.015584,-301.724684,-603.456966,-150.863032,0.000000,-0.000001,-530.264981,-648.651545,-762.180075,-101.806620,0.000000,-0.023383,-178.249397,-346.926861,-158.723109,49.056412,0.000000,150.863032,150.861651,201.152551,301.717778,50.290901,251.441382,201.150710,101.806620,546.844925,428.458361,113.418104,-118.481283,231.915094,135.742160,-49.056412,395.983274,227.305809,-188.299674,-168.772183,-19.526288,-65.408550,1.500000,159.983744,2.000000
16.293607,0.375000,1.500000,2.000000,4.687500,12.500000,1.736100,0.500000,0.375000,247.940609,2.000000,4.687500,12.500000,1.736100,0.500000,20.057453,10.028681,10.028772,8.022871,2.005810,12.034582,20.057453,16.293607,1.510186,14.783421,4.715887,-3.205700,11.577721,16.293607,-3.763846,-8.518494,4.754649,-3.306984,-5.211510,-0.456861,-3.763846,0.023382,-352.015584,-301.724684,-603.456966,-150.863032,0.000000,-0.000000,-536.654696,-665.024453,-769.367822,-99.555615,0.000000,-0.023382,-184.639112,-363.299769,-165.910856,51.307417,0.000000,150.863032,150.861651,201.152551,301.717778,50.290901,251.441382,201.150710,99.555615,565.468838,437.099081,104.248061,-128.456435,232.713126,132.740820,-51.307417,414.607186,235.946529,-197.469717,-178.747336,-18.728257,-68.409890,1.500000,246.440609,2.000000
16.396374,0.375000,1.500000,2.000000,4.687500,12.500000,1.736100,0.500000,0.375000,193.265528,2.000000,4.687500,12.500000,1.736100,0.500000,20.057453,10.028681,10.028772,8.022871,2.005810,12.034582,20.057453,16.396374,1.694715,14.701659,4.830093,-3.135378,11.566281,16.396374,-3.661079,-8.333965,4.672886,-3.192778,-5.141187,-0.468301,-3.661079,0.023382,-352.015584,-301.724684,-603.456966,-150.863032,0.000000,-0.000001,-533.092942,-655.885676,-765.346408,-100.815407,0.000000,-0.023382,-181.077358,-354.160992,-161.889441,50.047626,0.000000,150.863032,150.861651,201.152551,301.717778,50.290901,251.441382,201.150710,100.815407,555.070269,432.277536,109.358443,-122.882429,232.253465,134.420542,-50.047626,404.208618,231.124984,-192.359335,-173.173329,-19.187917,-66.730168,1.500000,191.765528,2.000000
16.595562,0.375000,1.500000,2.000000,4.687500,12.500000,1.736100,0.500000,0.375000,126.368220,2.000000,4.687500,12.500000,1.736100,0.500000,20.057453,10.028681,10.028772,8.022871,2.005810,12.034582,20.057453,16.595562,2.056947,14.538615,5.049349,-2.992402,11.546213,16.595562,-3.461890,-7.971733,4.509843,-2.973522,-4.998211,-0.488369,-3.461890,0.023382,-352.015584,-301.724684,-603.456966,-150.863032,0.000000,-0.000000,-526.022427,-637.947738,-757.470675,-103.279760,0.000000,-0.023382,-174.006843,-336.223054,-154.013709,47.583272,0.000000,150.863032,150.861651,201.152551,301.717778,50.290901,251.441382,201.150710,103.279760,534.667978,422.742667,119.512154,-111.930860,231.448248,137.706347,-47.583272,383.806326,221.590115,-182.205624,-162.221761,-19.993135,-63.444363,1.500000,124.868220,2.000000
17.326426,0.375000,1.500000,2.000000,4.687500,12.500000,1.736100,0.500000,0.375000,38.418495,2.000000,4.687500,12.500000,1.736100,0.500000,20.057453,10.028681,10.028772,8.022871,2.005810,12.034582,20.057453,17.326426,3.445310,13.881116,5.823710,-2.378400,11.502716,17.326426,-2.731027,-6.583371,3.852343,-2.199161,-4.384209,-0.531866,-2.731027,0.023382,-352.015584,-301.724684,-603.456966,-150.863032,0.000000,-0.000001,-497.947640,-568.610629,-727.655335,-112.576888,0.000000,-0.023383,-145.932056,-266.885945,-124.198369,38.286145,0.000000,150.863032,150.861651,201.152551,301.717778,50.290901,251.441382,201.150710,112.576888,456.033741,385.370753,158.979351,-70.709812,229.707695,150.102517,-38.286145,305.172090,184.218201,-142.738427,-121.000712,-21.733687,-51.048193,1.500000,36.918495,2.000000
16.574082,0.375000,1.500000,2.000000,4.687500,12.500000,1.736100,0.500000,0.375000,131.896079,2.000000,4.687500,12.500000,1.736100,0.500000,20.057453,10.028681,10.028772,8.022871,2.005810,12.034582,20.057453,16.574082,2.017579,14.556503,5.025854,-3.008275,11.548228,16.574082,-3.483371,-8.011101,4.527730,-2.997017,-5.014084,-0.486354,-3.483371,0.023382,-352.015584,-301.724684,-603.456966,-150.863032,0.000000,-0.000000,-526.796119,-639.912283,-758.325141,-103.012575,0.000000,-0.023382,-174.780535,-338.187599,-154.868175,47.850457,0.000000,150.863032,150.861651,201.152551,301.717778,50.290901,251.441382,201.150710,103.012575,536.899708,423.783544,118.402548,-113.121462,231.529022,137.350100,-47.850457,386.038057,222.630993,-183.315230,-163.412362,-19.912361,-63.800610,1.500000,130.396079,2.000000
16.454292,0.375000,1.500000,2.000000,4.687500,12.500000,1.736100,0.500000,0.375000,169.601461,2.000000,4.687500,12.500000,1.736100,0.500000,20.057453,10.028681,10.028772,8.022871,2.005810,12.034582,20.057453,16.454292,1.799418,14.654875,4.894130,-3.094713,11.560162,16.454292,-3.603161,-8.229263,4.626102,-3.128741,-5.100522,-0.474420,-3.603161,0.023382,-352.015584,-301.724684,-603.456966,-150.863032,0.000000,-0.000001,-531.059613,-650.682107,-763.067415,-101.528902,0.000000,-0.023382,-179.044029,-348.957423,-159.610449,49.334130,0.000000,150.863032,150.861651,201.152551,301.717778,50.290901,251.441382,201.150710,101.528902,549.153205,429.530711,112.277394,-119.715577,232.007803,135.371869,-49.334130,398.291553,228.378159,-189.440384,-170.006478,-19.433580,-65.778841,1.500000,168.101461,2.000000
16.526851,0.375000,1.500000,2.000000,4.687500,12.500000,1.736100,0.500000,0.375000,145.258249,2.000000,4.687500,12.500000,1.736100,0.500000,20.057453,10.028681,10.028772,8.022871,2.005810,12.034582,20.057453,16.526851,1.931277,14.595574,4.974067,-3.042790,11.552784,16.526851,-3.530602,-8.097403,4.566801,-3.048804,-5.048599,-0.481798,-3.530602,0.023382,-352.015584,-301.724684,-603.456966,-150.863032,0.000000,-0.000000,-528.487841,-644.215124,-760.199574,-102.426300,0.000000,-0.023382,-176.472257,-342.490440,-156.742608,48.436732,0.000000,150.863032,150.861651,201.152551,301.717778,50.290901,251.441382,201.150710,102.426300,541.788824,426.061541,115.975048,-115.732129,231.711734,136.568400,-48.436732,390.927173,224.908989,-185.742729,-166.023030,-19.729649,-64.582310,1.500000,143.758249,2.000000
16.229023,0.375000,1.500000,2.000000,4.687500,12.500000,1.736100,0.500000,0.375000,293.893079,2.000000,4.687500,12.500000,1.736100,0.500000,20.057453,10.028681,10.028772,8.022871,2.005810,12.034582,20.057453,16.229023,1.395016,14.834007,4.643745,-3.248729,11.585278,16.229023,-3.828430,-8.633664,4.805235,-3.379126,-5.254538,-0.449304,-3.828430,0.023382,-352.015584,-301.724684,-603.456966,-150.863032,0.000000,-0.000000,-538.863473,-670.704566,-771.880503,-98.767948,0.000000,-0.023382,-186.847889,-368.979882,-168.423537,52.095084,0.000000,150.863032,150.861651,201.152551,301.717778,50.290901,251.441382,201.150710,98.767948,571.936618,440.095525,101.082979,-131.927990,233.017031,131.690597,-52.095084,421.074966,238.942973,-200.634799,-182.218891,-18.424352,-69.460113,1.500000,292.393079,2.000000
16.909636,0.375000,1.500000,2.000000,4.687500,12.500000,1.736100,0.500000,0.375000,71.875605,2.000000,4.687500,12.500000,1.736100,0.500000,20.057453,10.028681,10.028772,8.022871,2.005810,12.034582,20.057453,16.909636,2.641413,14.268223,5.388483,-2.747070,11.521152,16.909636,-3.147817,-7.387268,4.239450,-2.634388,-4.752880,-0.513430,-3.147817,0.023382,-352.015584,-301.724684,-603.456966,-150.863032,0.000000,-0.000000,-514.390268,-608.706469,-744.834885,-107.225915,0.000000,-0.023382,-162.374684,-306.981785,-141.377918,43.637118,0.000000,150.863032,150.861651,201.152551,301.717778,50.290901,251.441382,201.150710,107.225915,501.480554,407.164353,136.105087,-94.329945,230.444617,142.967886,-43.637118,350.618903,206.011801,-165.612691,-144.620846,-20.996765,-58.182824,1.500000,70.375605,2.000000
16.330470,0.375000,1.500000,2.000000,4.687500,12.500000,1.736100,0.500000,0.375000,226.112809,2.000000,4.687500,12.500000,1.736100,0.500000,20.057453,10.028681,10.028772,8.022871,2.005810,12.034582,20.057453,16.330470,1.576197,14.754274,4.756937,-3.180741,11.573533,16.330470,-3.726983,-8.452484,4.725501,-3.265934,-5.186550,-0.461049,-3.726983,0.023382,-352.015584,-301.724684,-603.456966,-150.863032,0.000000,-0.000000,-535.383784,-661.760362,-767.928596,-100.006599,0.000000,-0.023382,-183.368200,-360.035678,-164.471630,50.856434,0.000000,150.863032,150.861651,201.152551,301.717778,50.290901,251.441382,201.150710,100.006599,561.753763,435.377185,106.070870,-126.463883,232.544812,133.342132,-50.856434,410.892112,234.224634,-195.646908,-176.754784,-18.896570,-67.808578,1.500000,224.612809,2.000000
17.103368,0.375000,1.500000,2.000000,4.687500,12.500000,1.736100,0.500000,0.375000,53.011087,2.000000,4.687500,12.500000,1.736100,0.500000,20.057453,10.028681,10.028772,8.022871,2.005810,12.034582,20.057453,17.103368,3.010776,14.092592,5.593120,-2.582343,11.510248,17.103368,-2.954085,-7.017904,4.063819,-2.429751,-4.588153,-0.524334,-2.954085,0.023382,-352.015584,-301.724684,-603.456966,-150.863032,0.000000,-0.000001,-506.899217,-590.230436,-736.907836,-109.696945,0.000000,-0.023382,-154.883633,-288.505752,-133.450870,41.166087,0.000000,150.863032,150.861651,201.152551,301.717778,50.290901,251.441382,201.150710,109.696945,480.533490,397.202271,146.639000,-83.356216,230.008619,146.262594,-41.166087,329.671839,196.049720,-155.078777,-133.647117,-21.432763,-54.888116,1.500000,51.511087,2.000000
16.439768,0.375000,1.500000,2.000000,4.687500,12.500000,1.736100,0.500000,0.375000,175.144331,2.000000,4.687500,12.500000,1.736100,0.500000,20.057453,10.028681,10.028772,8.022871,2.005810,12.034582,20.057453,16.439768,1.773112,14.666656,4.878094,-3.104982,11.561674,16.439768,-3.617685,-8.255569,4.637883,-3.144777,-5.110791,-0.472908,-3.617685,0.023382,-352.015584,-301.724684,-603.456966,-150.863032,0.000000,-0.000001,-531.571310,-651.990591,-763.639792,-101.349735,0.000000,-0.023382,-179.555726,-350.265907,-160.182826,49.513297,0.000000,150.863032,150.861651,201.152551,301.717778,50.290901,251.441382,201.150710,101.349735,550.640856,430.221575,111.542811,-120.511403,232.068482,135.132980,-49.513297,399.779204,229.069024,-190.174967,-170.802303,-19.372900,-66.017730,1.500000,173.644331,2.000000
16.230915,0.375000,1.500000,2.000000,4.687500,12.500000,1.736100,0.500000,0.375000,292.383680,2.000000,4.687500,12.500000,1.736100,0.500000,20.057453,10.028681,10.028772,8.022871,2.005810,12.034582,20.057453,16.230915,1.398382,14.832534,4.645863,-3.247481,11.585053,16.230915,-3.826538,-8.630299,4.803761,-3.377009,-5.253290,-0.449529,-3.826538,0.023382,-352.015584,-301.724684,-603.456966,-150.863032,0.000000,-0.000000,-538.799086,-670.538868,-771.807052,-98.790979,0.000000,-0.023382,-186.783502,-368.814184,-168.350086,52.072053,0.000000,150.863032,150.861651,201.152551,301.717778,50.290901,251.441382,201.150710,98.790979,571.747889,440.008107,101.175180,-131.826648,233.007966,131.721305,-52.072053,420.886238,238.855555,-200.542598,-182.117548,-18.433416,-69.429405,1.500000,290.883680,2.000000
16.313850,0.375000,1.500000,2.000000,4.687500,12.500000,1.736100,0.500000,0.375000,235.608555,2.000000,4.687500,12.500000,1.736100,0.500000,20.057453,10.028681,10.028772,8.022871,2.005810,12.034582,20.057453,16.313850,1.546410,14.767440,4.738441,-3.192030,11.575410,16.313850,-3.743603,-8.482270,4.738668,-3.284430,-5.197840,-0.459172,-3.743603,0.023382,-352.015584,-301.724684,-603.456966,-150.863032,0.000000,-0.000000,-535.957709,-663.233967,-768.577937,-99.803143,0.000000,-0.023382,-183.942125,-361.509283,-165.120971,51.059889,0.000000,150.863032,150.861651,201.152551,301.717778,50.290901,251.441382,201.150710,99.803143,563.430824,436.154566,105.247596,-127.363216,232.620228,133.070857,-51.059889,412.569173,235.002014,-196.470182,-177.654117,-18.821154,-68.079853,1.500000,234.108555,2.000000
16.223538,0.375000,1.500000,2.000000,4.687500,12.500000,1.736100,0.500000,0.375000,298.331194,2.000000,4.687500,12.500000,1.736100,0.500000,20.057453,10.028681,10.028772,8.022871,2.005810,12.034582,20.057453,16.223538,1.385263,14.838275,4.637605,-3.252343,11.585933,16.223538,-3.833915,-8.643418,4.809503,-3.385266,-5.258152,-0.448649,-3.833915,0.023382,-352.015584,-301.724684,-603.456966,-150.863032,0.000000,-0.000000,-539.050025,-671.184689,-772.093387,-98.701195,0.000000,-0.023382,-187.034441,-369.460005,-168.636421,52.161837,0.000000,150.863032,150.861651,201.152551,301.717778,50.290901,251.441382,201.150710,98.701195,572.483494,440.348830,100.815863,-132.221661,233.043362,131.601594,-52.161837,421.621842,239.196279,-200.901915,-182.512562,-18.398020,-69.549116,1.500000,296.831194,2.000000
